!!!!SEGMENT: pl-cz--iii-558--001-011_raszek-waclaw--missa-in-c-agnus-dei.krn
!!!cenid: 17xx:1045
!!!COM: Raszek, Wacław
!!!COM-rismID: pe30020314
!!!CDT: <1848->1848
!!!CNT:
!!!OPR: Missa in C
!!!OTL: Agnus Dei
!!!OMV: 011
!!!PDT: 1789
!!!AGN: Sacred; Mass
!!!SMS-siglum: PL-CZ
!!!SMS-shelfmark: III-558
!!!SMS-shelfwork: 001-011 M
!!!SMS-variant:
!!!SMS-altvar:
!!!NIFC-rismSourceID: 300001044
!!!NIFC-rismChildID: 300001044
!!!NIFC-islandoraID: pl-cz:38990
!!!URL-pdf-islandora: https://repozytorium.nifc.pl/islandora/object/pl-cz%3A38990/datastream/PDF/view
!!!URL-scan: https://polish.musicsources.pl/pl/lokalizacje/galeria/rekopisy/6948/1 @EN{Scan on Polish Music Sources Website} @PL{Skany w portalu Dziedzictwo Muzyki Polskiej w otwartym dostępie}
!!!IIIF:
!!!ONB-nifc: UWAGA: części Mszy: Kyrie, Gloria, Laudamus, Qui tollis, Quoniam, Credo, Et incarnatus, Et resurrexit, Sanctus, Benedictus, Agnus Dei, Dona nobis
!!!AIN: 1 alto 2 cor 3 empty 2 oboe 1 organ 1 tenor 1 viola 2 violn 1 vox
!!!key: a
**kern	**fba	**dynam	**dynam	**kern	**dynam	**kern	**dynam	**kern	**dynam	**kern	**text	**dynam	**kern	**text	**dynam	**kern	**text	**dynam	**kern	**text	**dynam	**kern	**dynam	**kern	**dynam	**kern	**dynam	**kern	**dynam	**kern	**dynam	**kern	**dynam
*part15	*part15	*part15	*part14	*part13	*part13	*part12	*part12	*part11	*part11	*part10	*part10	*part10	*part9	*part9	*part9	*part8	*part8	*part8	*part7	*part7	*part7	*part6	*part6	*part5	*part5	*part4	*part4	*part3	*	*part2	*part2	*part1	*part1
*staff15	*	*	*	*staff13	*	*staff12	*	*staff11	*	*staff10	*staff10	*	*staff9	*staff9	*	*staff8	*staff8	*	*staff7	*staff7	*	*staff6	*	*staff5	*	*staff4	*	*staff3	*	*staff2	*	*staff1	*
*Iorgan	*	*	*	*Iviola	*	*Ivioln	*	*Ivioln	*	*Iempty	*	*	*Itenor	*	*	*Ialto	*	*	*Ivox	*	*	*Iempty	*	*Iempty	*	*Icor	*	*Icor	*	*Ioboe	*	*Ioboe	*
*I"Organo	*	*	*	*I"Viola di Alto	*	*I"Violino Secundo	*	*I"Violino Primo.	*	*I"Baſso.	*	*	*I"Tenore	*	*	*I"Alto.	*	*	*I"Canto.	*	*	*I"Clarino 2 in C	*	*I"Claryno Primo in C	*	*I"Corno Secundo in C	*	*I"Corno Primo in C	*	*I"Oboe Secundo	*	*I"Oboe Primo	*
*I'org	*	*	*	*I'a-vla	*	*I'vl 2	*	*I'vl 1	*	*I'B	*	*	*I'T	*	*	*I'A	*	*	*I'S	*	*	*I'clno 2	*	*I'clno 1	*	*I'cor 2	*	*I'cor 1	*	*I'ob 2	*	*I'ob 1	*
*ICklav	*	*	*	*ICstr	*	*ICstr	*	*ICstr	*	*ICvox	*	*	*ICvox	*	*	*ICvox	*	*	*ICvox	*	*	*ICbras	*	*ICbras	*	*ICbras	*	*ICbras	*	*ICww	*	*ICww	*
*IGcont	*	*	*	*	*	*	*	*	*	*	*	*	*	*	*	*	*	*	*	*	*	*	*	*	*	*	*	*	*	*	*	*	*
*	*	*	*	*mI"Viola	*	*mI"Violino II	*	*mI"Violino I	*	*mI"Basso	*	*	*	*	*	*mI"Alto	*	*	*mI"Soprano	*	*	*mI"Clarino II in C	*	*mI"Clarino I in C	*	*mI"Corno II in C	*	*mI"Corno I in C	*	*mI"Oboe II	*	*mI"Oboe I	*
*	*	*	*	*	*	*	*	*	*	*	*	*	*	*	*	*	*	*	*	*	*	*	*	*	*	*ITrd0c0	*	*ITrd0c0	*	*	*	*	*
*clefF4	*	*	*	*clefC3	*	*clefG2	*	*clefG2	*	*clefF4	*	*	*clefC4	*	*	*clefC3	*	*	*clefC1	*	*	*clefG2	*	*clefG2	*	*clefG2	*	*clefG2	*	*clefG2	*	*clefG2	*
*	*	*	*	*	*	*	*	*	*	*	*	*	*mclefGv2	*	*	*mclefG2	*	*	*mclefG2	*	*	*	*	*	*	*	*	*	*	*	*	*	*
*k[]	*	*	*	*k[]	*	*k[]	*	*k[]	*	*k[]	*	*	*k[]	*	*	*k[]	*	*	*k[]	*	*	*k[]	*	*k[]	*	*k[]	*	*k[]	*	*k[]	*	*k[]	*
*a:	*	*	*	*a:	*	*a:	*	*a:	*	*a:	*	*	*a:	*	*	*a:	*	*	*a:	*	*	*a:	*	*a:	*	*a:	*	*a:	*	*a:	*	*a:	*
*M3/4	*	*	*	*M3/4	*	*M3/4	*	*M3/4	*	*M3/4	*	*	*M3/4	*	*	*M3/4	*	*	*M3/4	*	*	*M3/4	*	*M3/4	*	*M3/4	*	*M3/4	*	*M3/4	*	*M3/4	*
=1	=1	=1	=1	=1	=1	=1	=1	=1	=1	=1	=1	=1	=1	=1	=1	=1	=1	=1	=1	=1	=1	=1	=1	=1	=1	=1	=1	=1	=1	=1	=1	=1	=1
!	!	!	!	!	!	!	!	!LO:MO:mod=*null:null	!	!	!	!	!	!	!	!	!	!	!	!	!	!	!	!	!	!	!	!	!	!	!	!	!
*	*	*	*	*tremolo	*	*tremolo	*	*2\right	*	*	*	*	*	*	*	*	*	*	*	*	*	*	*	*	*	*	*	*	*	*	*	*all\right	*
!LO:TX:a:mod=:t=6	!	!	!	!	!	!	!LO:MO:mod=!null:null	!LO:TX:a:mod=:t=adagio	!	!LO:TX:a:mod=:t=Adag(io)&colon;	!	!	!LO:TX:b:mod=:t=7	!	!	!LO:TX:a:mod=:t=7	!	!	!LO:TX:a:mod=:t=7	!	!	!	!	!	!	!	!	!	!	!	!	!LO:TX:a:mod=:t=7.	!
!LO:TX:rj:a:mod=:t=adagio	!	!	!LO:MO:mod= 	!LO:TX:a:mod=:t=adagio	!LO:DY:b:t=p&colon;	!LO:TX:a:mod=:t=adagio	!LO:DY:rj:b:t=p.	!	!LO:DY:b:t=pia	!LO:TX:b:mod=:t=7	!	!	!LO:TX:a:mod=:t=adagio	!	!	!LO:TX:a:mod=:t=adag(io)&colon;	!	!	!LO:TX:a:mod=:t=adagio	!	!	!LO:TX:a:mod=:t=7.	!	!LO:TX:a:mod=:t=7	!	!LO:TX:a:mod=:t=adagio	!	!LO:TX:a:mod=:t=7	!	!LO:TX:a:mod=:t=adagio	!	!LO:TX:a:mod=:t=adagio	!
0.r	.	.	p	8A/L	p	8c/L	p	2ee\	p	0.r	.	.	0.r	.	.	0.r	.	.	0.r	.	.	0.r	.	0.r	.	0.r	.	0.r	.	0.r	.	0.r	.
.	.	.	.	8A/	.	8c/	.	.	.	.	.	.	.	.	.	.	.	.	.	.	.	.	.	.	.	.	.	.	.	.	.	.	.
.	.	.	.	8A/	.	8c/	.	.	.	.	.	.	.	.	.	.	.	.	.	.	.	.	.	.	.	.	.	.	.	.	.	.	.
.	.	.	.	8A/	.	8c/	.	.	.	.	.	.	.	.	.	.	.	.	.	.	.	.	.	.	.	.	.	.	.	.	.	.	.
.	.	.	.	8A/	.	8c/	.	16dd\LL	.	.	.	.	.	.	.	.	.	.	.	.	.	.	.	.	.	.	.	.	.	.	.	.	.
.	.	.	.	.	.	.	.	16cc\	.	.	.	.	.	.	.	.	.	.	.	.	.	.	.	.	.	.	.	.	.	.	.	.	.
.	.	.	.	8A/J	.	8c/J	.	16b\	.	.	.	.	.	.	.	.	.	.	.	.	.	.	.	.	.	.	.	.	.	.	.	.	.
.	.	.	.	.	.	.	.	16a\JJ	.	.	.	.	.	.	.	.	.	.	.	.	.	.	.	.	.	.	.	.	.	.	.	.	.
=2	=2	=2	=2	=2	=2	=2	=2	=2	=2	=2	=2	=2	=2	=2	=2	=2	=2	=2	=2	=2	=2	=2	=2	=2	=2	=2	=2	=2	=2	=2	=2	=2	=2
!	!	!	!	!	!	!	!	!LO:TX:mod=:t=P:problem=mixed beam	!	!	!	!	!	!	!	!	!	!	!	!	!	!	!	!	!	!	!	!	!	!	!	!	!
.	.	.	.	8A/L	.	8c/L	.	8a/L	.	.	.	.	.	.	.	.	.	.	.	.	.	.	.	.	.	.	.	.	.	.	.	.	.
.	.	.	.	8A/	.	8c/	.	8aa\J	.	.	.	.	.	.	.	.	.	.	.	.	.	.	.	.	.	.	.	.	.	.	.	.	.
.	.	.	.	8A/	.	8c/	.	4.aa\	.	.	.	.	.	.	.	.	.	.	.	.	.	.	.	.	.	.	.	.	.	.	.	.	.
.	.	.	.	8A/	.	8c/	.	.	.	.	.	.	.	.	.	.	.	.	.	.	.	.	.	.	.	.	.	.	.	.	.	.	.
.	.	.	.	8A/	.	8c/	.	.	.	.	.	.	.	.	.	.	.	.	.	.	.	.	.	.	.	.	.	.	.	.	.	.	.
.	.	.	.	8A/J	.	8c/J	.	8ccc\	.	.	.	.	.	.	.	.	.	.	.	.	.	.	.	.	.	.	.	.	.	.	.	.	.
=3	=3	=3	=3	=3	=3	=3	=3	=3	=3	=3	=3	=3	=3	=3	=3	=3	=3	=3	=3	=3	=3	=3	=3	=3	=3	=3	=3	=3	=3	=3	=3	=3	=3
.	.	.	.	8G#X/L	.	8e/L	.	8bb\L	.	.	.	.	.	.	.	.	.	.	.	.	.	.	.	.	.	.	.	.	.	.	.	.	.
.	.	.	.	8G#X/	.	8e/	.	8gg#X\J	.	.	.	.	.	.	.	.	.	.	.	.	.	.	.	.	.	.	.	.	.	.	.	.	.
.	.	.	.	8G#X/	.	8e/	.	4ee\	.	.	.	.	.	.	.	.	.	.	.	.	.	.	.	.	.	.	.	.	.	.	.	.	.
.	.	.	.	8G#X/	.	8e/	.	.	.	.	.	.	.	.	.	.	.	.	.	.	.	.	.	.	.	.	.	.	.	.	.	.	.
.	.	.	.	8G#X/	.	8e/	.	8r	.	.	.	.	.	.	.	.	.	.	.	.	.	.	.	.	.	.	.	.	.	.	.	.	.
.	.	.	.	8G#X/J	.	8e/J	.	8ee\	.	.	.	.	.	.	.	.	.	.	.	.	.	.	.	.	.	.	.	.	.	.	.	.	.
=4	=4	=4	=4	=4	=4	=4	=4	=4	=4	=4	=4	=4	=4	=4	=4	=4	=4	=4	=4	=4	=4	=4	=4	=4	=4	=4	=4	=4	=4	=4	=4	=4	=4
.	.	.	.	8G/L	.	8e/L	.	8ee\L	.	.	.	.	.	.	.	.	.	.	.	.	.	.	.	.	.	.	.	.	.	.	.	.	.
.	.	.	.	8G/	.	8e/	.	8b\J	.	.	.	.	.	.	.	.	.	.	.	.	.	.	.	.	.	.	.	.	.	.	.	.	.
.	.	.	.	8G/	.	8e/	.	16b\LL	.	.	.	.	.	.	.	.	.	.	.	.	.	.	.	.	.	.	.	.	.	.	.	.	.
.	.	.	.	.	.	.	.	16cc\	.	.	.	.	.	.	.	.	.	.	.	.	.	.	.	.	.	.	.	.	.	.	.	.	.
.	.	.	.	8G/	.	8e/	.	16dd\	.	.	.	.	.	.	.	.	.	.	.	.	.	.	.	.	.	.	.	.	.	.	.	.	.
.	.	.	.	.	.	.	.	16cc\JJ	.	.	.	.	.	.	.	.	.	.	.	.	.	.	.	.	.	.	.	.	.	.	.	.	.
.	.	.	.	8G/	.	8e/	.	16ee\LL	.	.	.	.	.	.	.	.	.	.	.	.	.	.	.	.	.	.	.	.	.	.	.	.	.
.	.	.	.	.	.	.	.	16dd\	.	.	.	.	.	.	.	.	.	.	.	.	.	.	.	.	.	.	.	.	.	.	.	.	.
.	.	.	.	8G/J	.	8e/J	.	16cc\	.	.	.	.	.	.	.	.	.	.	.	.	.	.	.	.	.	.	.	.	.	.	.	.	.
.	.	.	.	.	.	.	.	16b\JJ	.	.	.	.	.	.	.	.	.	.	.	.	.	.	.	.	.	.	.	.	.	.	.	.	.
=5	=5	=5	=5	=5	=5	=5	=5	=5	=5	=5	=5	=5	=5	=5	=5	=5	=5	=5	=5	=5	=5	=5	=5	=5	=5	=5	=5	=5	=5	=5	=5	=5	=5
1.r	.	.	.	8A/L	.	8e/L	.	16b\LL	.	1.r	.	.	1.r	.	.	1.r	.	.	1.r	.	.	1.r	.	1.r	.	1.r	.	1.r	.	1.r	.	1.r	.
.	.	.	.	.	.	.	.	16cc\	.	.	.	.	.	.	.	.	.	.	.	.	.	.	.	.	.	.	.	.	.	.	.	.	.
.	.	.	.	8A/	.	8e/	.	16dd\	.	.	.	.	.	.	.	.	.	.	.	.	.	.	.	.	.	.	.	.	.	.	.	.	.
.	.	.	.	.	.	.	.	16cc\JJ	.	.	.	.	.	.	.	.	.	.	.	.	.	.	.	.	.	.	.	.	.	.	.	.	.
.	.	.	.	8A/	.	8e/	.	4.cc\	.	.	.	.	.	.	.	.	.	.	.	.	.	.	.	.	.	.	.	.	.	.	.	.	.
.	.	.	.	8A/J	.	8e/	.	.	.	.	.	.	.	.	.	.	.	.	.	.	.	.	.	.	.	.	.	.	.	.	.	.	.
*	*	*	*	*Xtremolo	*	*	*	*	*	*	*	*	*	*	*	*	*	*	*	*	*	*	*	*	*	*	*	*	*	*	*	*	*
.	.	.	.	8Gn/L	.	8e/	.	.	.	.	.	.	.	.	.	.	.	.	.	.	.	.	.	.	.	.	.	.	.	.	.	.	.
.	.	.	.	8G/J	.	8e/J	.	8b\	.	.	.	.	.	.	.	.	.	.	.	.	.	.	.	.	.	.	.	.	.	.	.	.	.
!	!	!	!	!	!	!	!	!LO:LB:g=original	!	!	!	!	!	!	!	!	!	!	!	!	!	!	!	!	!	!	!	!	!	!	!	!	!
=6	=6	=6	=6	=6	=6	=6	=6	=6	=6	=6	=6	=6	=6	=6	=6	=6	=6	=6	=6	=6	=6	=6	=6	=6	=6	=6	=6	=6	=6	=6	=6	=6	=6
*	*	*	*	*tremolo	*	*	*	*	*	*	*	*	*	*	*	*	*	*	*	*	*	*	*	*	*	*	*	*	*	*	*	*	*
!	!	!	!	!	!	!	!	!LO:TX:mod=:t=P:problem=mixed beam	!	!	!	!	!	!	!	!	!	!	!	!	!	!	!	!	!	!	!	!	!	!	!	!	!
.	.	.	.	8F/L	.	8e/L	.	8.a/L	.	.	.	.	.	.	.	.	.	.	.	.	.	.	.	.	.	.	.	.	.	.	.	.	.
.	.	.	.	8F/	.	8e/	.	.	.	.	.	.	.	.	.	.	.	.	.	.	.	.	.	.	.	.	.	.	.	.	.	.	.
.	.	.	.	.	.	.	.	16gg#X\Jk	.	.	.	.	.	.	.	.	.	.	.	.	.	.	.	.	.	.	.	.	.	.	.	.	.
.	.	.	.	8F/	.	8e/	.	16aa\LL	.	.	.	.	.	.	.	.	.	.	.	.	.	.	.	.	.	.	.	.	.	.	.	.	.
.	.	.	.	.	.	.	.	16gg#\	.	.	.	.	.	.	.	.	.	.	.	.	.	.	.	.	.	.	.	.	.	.	.	.	.
.	.	.	.	8F/	.	8e/J	.	16aa\	.	.	.	.	.	.	.	.	.	.	.	.	.	.	.	.	.	.	.	.	.	.	.	.	.
.	.	.	.	.	.	.	.	16gg#\JJ	.	.	.	.	.	.	.	.	.	.	.	.	.	.	.	.	.	.	.	.	.	.	.	.	.
*	*	*	*	*	*	*Xtremolo	*	*	*	*	*	*	*	*	*	*	*	*	*	*	*	*	*	*	*	*	*	*	*	*	*	*	*
!	!	!	!	!	!	!	!	!LO:TX:mod=:t=P:problem=mixed beam	!	!	!	!	!	!	!	!	!	!	!	!	!	!	!	!	!	!	!	!	!	!	!	!	!
.	.	.	.	8F/	.	8d#X/L	.	16aa\LL	.	.	.	.	.	.	.	.	.	.	.	.	.	.	.	.	.	.	.	.	.	.	.	.	.
.	.	.	.	.	.	.	.	16a/	.	.	.	.	.	.	.	.	.	.	.	.	.	.	.	.	.	.	.	.	.	.	.	.	.
.	.	.	.	8F/J	.	8d#/J	.	16b/	.	.	.	.	.	.	.	.	.	.	.	.	.	.	.	.	.	.	.	.	.	.	.	.	.
.	.	.	.	.	.	.	.	16a/JJ	.	.	.	.	.	.	.	.	.	.	.	.	.	.	.	.	.	.	.	.	.	.	.	.	.
*	*	*	*	*Xtremolo	*	*	*	*	*	*	*	*	*	*	*	*	*	*	*	*	*	*	*	*	*	*	*	*	*	*	*	*	*
=7	=7	=7	=7	=7	=7	=7	=7	=7	=7	=7	=7	=7	=7	=7	=7	=7	=7	=7	=7	=7	=7	=7	=7	=7	=7	=7	=7	=7	=7	=7	=7	=7	=7
!LO:TX:a:mod=:t=Tutti	!	!	!	!	!	!	!	!	!	!	!	!	!	!	!	!	!	!	!	!	!	!	!	!	!	!	!	!	!	!	!	!	!
.	.	.	.	.	.	.	.	8qb/	.	.	.	.	.	.	.	.	.	.	.	.	.	.	.	.	.	.	.	.	.	.	.	.	.
4r	.	.	.	4E/	.	4e/	.	8a/L	.	2.r	.	.	2.r	.	.	2.r	.	.	2.r	.	.	2.r	.	2.r	.	2.r	.	2.r	.	2.r	.	2.r	.
.	.	.	.	.	.	.	.	16g#X/L	.	.	.	.	.	.	.	.	.	.	.	.	.	.	.	.	.	.	.	.	.	.	.	.	.
.	.	.	.	.	.	.	.	16a/JJ	.	.	.	.	.	.	.	.	.	.	.	.	.	.	.	.	.	.	.	.	.	.	.	.	.
8r	.	.	.	8r	.	4B/	.	4g#/	.	.	.	.	.	.	.	.	.	.	.	.	.	.	.	.	.	.	.	.	.	.	.	.	.
!	!	!LO:DY:a:mod=:t=ffor	!	!	!	!	!	!	!	!	!	!	!	!	!	!	!	!	!	!	!	!	!	!	!	!	!	!	!	!	!	!	!
16E|\LL	.	ff	.	(16e\LL	.	.	.	.	.	.	.	.	.	.	.	.	.	.	.	.	.	.	.	.	.	.	.	.	.	.	.	.	.
16D|\JJ	.	.	.	16d\JJ)	.	.	.	.	.	.	.	.	.	.	.	.	.	.	.	.	.	.	.	.	.	.	.	.	.	.	.	.	.
8C|<\L	.	.	.	8c/L	.	4r	.	4r	.	.	.	.	.	.	.	.	.	.	.	.	.	.	.	.	.	.	.	.	.	.	.	.	.
8BB|<\J	.	.	.	8B/J	.	.	.	.	.	.	.	.	.	.	.	.	.	.	.	.	.	.	.	.	.	.	.	.	.	.	.	.	.
!	!	!	!	!LO:LB:g=original	!	!	!	!	!	!	!	!	!	!	!	!	!	!	!	!	!	!	!	!	!	!	!	!	!	!	!	!	!
!!LO:MO:ori
=8	=8	=8	=8	=8	=8	=8	=8	=8	=8	=8	=8	=8	=8	=8	=8	=8	=8	=8	=8	=8	=8	=8	=8	=8	=8	=8	=8	=8	=8	=8	=8	=8	=8
!	!	!	!	!	!	!	!	!	!	!LO:MO:mod=*null:null	!	!	!LO:MO:mod=*null:null	!	!	!LO:MO:mod=*null:null	!	!	!LO:MO:mod=*null:null	!	!	!	!	!	!	!LO:MO:mod=*null:null	!	!LO:MO:mod=*null:null	!	!LO:MO:mod=*null:null	!	!LO:MO:mod=*null:null	!
*	*	*	*	*	*	*	*	*	*	*2\right	*	*	*2\right	*	*	*2\right	*	*	*2\right	*	*	*	*	*	*	*2\right	*	*2\right	*	*2\right	*	*2\right	*
*	*	*	*	*tremolo	*	*tremolo	*	*	*	*	*	*	*	*	*	*	*	*	*	*	*	*	*	*	*	*	*	*tremolo	*	*	*	*	*
!!LO:TX:t= :mod=Tutti
!LO:TX:mod=:t=P:problem=mixed beam	!	!	!	!	!LO:DY:b:t=for&colon;	!	!LO:DY:rj:b:mod=:t=for	!LO:TX:a:mod=:t=Tutti	!LO:DY:b:t=for	!	!	!LO:DY:rj:a:mod=:t=for.	!LO:TX:a:mod=:t=Tutti	!	!LO:DY:t= :mod=%s	!	!	!	!LO:TX:a:mod=:t=Tutti	!	!	!	!LO:DY:t= :mod=%s	!LO:TX:a:mod=:t=adagio	!LO:DY:a	!	!LO:DY:a:t=for&colon;	!	!LO:DY:t= :mod=%s	!	!LO:DY:t= :mod=%s	!	!LO:DY:b:t=for.
!	!	!	!	!	!	!	!	!	!	!	!	!	!	!	!LO:MO:mod=!LO&colon;DY&colon;ed=brack	!	!	!	!	!	!	!	!LO:MO:mod=!LO&colon;DY&colon;ed=brack	!	!	!	!	!	!LO:MO:mod=!LO&colon;DY&colon;ed=brack	!	!LO:MO:mod=!LO&colon;DY&colon;ed=brack	!	!
!	!	!	!	!	!	!	!	!	!	!	!	!	!	!	!null	!	!	!	!	!	!	!	!null	!	!LO:MO:mod=f	!	!	!	!null	!	!null	!	!
8AA/L	5 3	.	.	8A/L	f	8e/ 8c/L	f	2ee\	f	2A\	A-	f	2A\	A-	f	2e\	A-	.	2cc\	Ag-	.	2.e/	f	2.e/	ff	2.cc\	f	8ee\L	f	2.cc\	f	2.ee\	f
8A\J	_	.	.	8A/	.	8e/ 8c/	.	.	.	.	.	.	.	.	.	.	.	.	.	.	.	.	.	.	.	.	.	8ee\	.	.	.	.	.
!LO:MO:mod=*null:null	!	!	!	!	!	!	!	!	!	!	!	!	!	!	!	!	!	!	!	!	!	!	!	!	!	!	!	!	!	!	!	!	!
*2\right	*	*	*	*	*	*	*	*	*	*	*	*	*	*	*	*	*	*	*	*	*	*	*	*	*	*	*	*	*	*	*	*	*
*tremolo	*	*	*	*	*	*	*	*	*	*	*	*	*	*	*	*	*	*	*	*	*	*	*	*	*	*	*	*	*	*	*	*	*
8A\L	.	.	.	8A/	.	8e/ 8c/	.	.	.	.	.	.	.	.	.	.	.	.	.	.	.	.	.	.	.	.	.	8ee\	.	.	.	.	.
8A\	x	.	.	8A/	.	8e/ 8c/	.	.	.	.	.	.	.	.	.	.	.	.	.	.	.	.	.	.	.	.	.	8ee\	.	.	.	.	.
8A\	.	.	.	8A/	.	8e/ 8c/	.	16dd\LL	.	4A\	-gnus	.	4A\	-gnus	.	4e\	-gnus	.	4cc\	-nus	.	.	.	.	.	.	.	8ee\	.	.	.	.	.
.	.	.	.	.	.	.	.	16cc\	.	.	.	.	.	.	.	.	.	.	.	.	.	.	.	.	.	.	.	.	.	.	.	.	.
8A\J	.	.	.	8A/J	.	8e/ 8c/J	.	16b\	.	.	.	.	.	.	.	.	.	.	.	.	.	.	.	.	.	.	.	8ee\J	.	.	.	.	.
.	.	.	.	.	.	.	.	16a\JJ	.	.	.	.	.	.	.	.	.	.	.	.	.	.	.	.	.	.	.	.	.	.	.	.	.
=9	=9	=9	=9	=9	=9	=9	=9	=9	=9	=9	=9	=9	=9	=9	=9	=9	=9	=9	=9	=9	=9	=9	=9	=9	=9	=9	=9	=9	=9	=9	=9	=9	=9
!	!	!	!	!	!	!	!	!LO:TX:mod=:t=P:problem=mixed beam	!	!	!	!	!	!	!	!	!	!	!	!	!	!	!	!	!	!	!	!	!	!	!	!	!
8A\L	.	.	.	8A/L	.	8e/ 8c/L	.	8a/L	.	4A\	De-	.	4A/	De-	.	4e\	De-	.	4cc\	De-	.	2.e/	.	2.e/	.	2.cc\	.	8ee\L	.	2.cc\	.	2.ee\	.
8A\	.	.	.	8A/	.	8e/ 8c/	.	8aa\J	.	.	.	.	.	.	.	.	.	.	.	.	.	.	.	.	.	.	.	8ee\	.	.	.	.	.
8A\	.	.	.	8A/	.	8e/ 8c/	.	4.aa\	.	4.A\	-i	.	4.A/	-i	.	4.e\	-i	.	4.cc\	-i	.	.	.	.	.	.	.	8ee\	.	.	.	.	.
8A\	.	.	.	8A/	.	8e/ 8c/	.	.	.	.	.	.	.	.	.	.	.	.	.	.	.	.	.	.	.	.	.	8ee\	.	.	.	.	.
8A\	.	.	.	8A/	.	8e/ 8c/	.	.	.	.	.	.	.	.	.	.	.	.	.	.	.	.	.	.	.	.	.	8ee\	.	.	.	.	.
8A\J	.	.	.	8A/J	.	8e/ 8c/J	.	8ccc\	.	8A\	qui	.	8A/	qui	.	8e\	qui	.	8cc\	qui	.	.	.	.	.	.	.	8ee\J	.	.	.	.	.
=10	=10	=10	=10	=10	=10	=10	=10	=10	=10	=10	=10	=10	=10	=10	=10	=10	=10	=10	=10	=10	=10	=10	=10	=10	=10	=10	=10	=10	=10	=10	=10	=10	=10
*	*	*	*	*	*	*	*	*	*	*	*	*	*	*	*	*	*	*	*	*	*	*	*	*	*	*tremolo	*	*	*	*	*	*	*
!	!	!	!	!	!	!	!	!	!	!	!	!	!	!	!	!	!	!	!	!	!	!	!	!	!	!	!	!LO:TX:mod=:t=P:problem=takty 10-11 zapisane repetycją	!	!	!	!	!
!	!	!	!	!	!	!	!	!	!	!	!	!	!	!	!	!	!	!	!	!	!	!	!	!	!	!	!	!LO:MO:mod=8eeL	!	!	!	!	!
8G#X\L	6	.	.	8G#X/L	.	8e/ 8B/L	.	8bb\L	.	4G#X\	tol-	.	4B\	tol-	.	4e\	tol-	.	4b\	tol-	.	2.e/	.	2.e/	.	8e/L	.	8ee\Lyy	.	2.b\	.	2.ee\	.
!	!	!	!	!	!	!	!	!	!	!	!	!	!	!	!	!	!	!	!	!	!	!	!	!	!	!	!	!LO:MO:mod=8ee	!	!	!	!	!
8G#X\	.	.	.	8G#X/	.	8e/ 8B/	.	8gg#X\J	.	.	.	.	.	.	.	.	.	.	.	.	.	.	.	.	.	8e/	.	8ee\yy	.	.	.	.	.
!	!	!	!	!	!	!	!	!	!	!	!	!	!	!	!	!	!	!	!	!	!	!	!	!	!	!	!	!LO:MO:mod=8ee	!	!	!	!	!
8G#X\	.	.	.	8G#X/	.	8e/ 8B/	.	4ee\	.	4G#\	-lis	.	4B\	-lis	.	4e\	-lis	.	4b\	-lis	.	.	.	.	.	8e/	.	8ee\yy	.	.	.	.	.
!	!	!	!	!	!	!	!	!	!	!	!	!	!	!	!	!	!	!	!	!	!	!	!	!	!	!	!	!LO:MO:mod=8ee	!	!	!	!	!
8G#X\	.	.	.	8G#X/	.	8e/ 8B/	.	.	.	.	.	.	.	.	.	.	.	.	.	.	.	.	.	.	.	8e/	.	8ee\yy	.	.	.	.	.
!	!	!	!	!	!	!	!	!	!	!	!	!	!	!	!	!	!	!	!	!	!	!	!	!	!	!	!	!LO:MO:mod=8ee	!	!	!	!	!
8G#X\	.	.	.	8G#X/	.	8e/ 8B/	.	8r	.	8r	.	.	4B\	pec-	.	4e\	pec-	.	4b\	pec-	.	.	.	.	.	8e/	.	8ee\yy	.	.	.	.	.
!	!	!	!	!	!	!	!	!	!	!	!	!	!	!	!	!	!	!	!	!	!	!	!	!	!	!	!	!LO:MO:mod=8eeJ	!	!	!	!	!
8G#X\J	.	.	.	8G#X/J	.	8e/ 8B/J	.	8ee\	.	8G#\	pec-	.	.	.	.	.	.	.	.	.	.	.	.	.	.	8e/J	.	8ee\Jyy	.	.	.	.	.
*	*	*	*	*	*	*	*	*	*	*	*	*	*	*	*	*	*	*	*	*	*	*	*	*	*	*Xtremolo	*	*	*	*	*	*	*
=11	=11	=11	=11	=11	=11	=11	=11	=11	=11	=11	=11	=11	=11	=11	=11	=11	=11	=11	=11	=11	=11	=11	=11	=11	=11	=11	=11	=11	=11	=11	=11	=11	=11
!LO:SIC:v:s=8G#L	!	!	!	!	!	!	!	!	!	!	!	!	!	!	!	!	!	!	!	!	!	!	!	!	!	!	!	!LO:MO:mod=8eeL	!	!	!	!	!
8G\L	_	.	.	8G#X/L	.	8e/ 8B/L	.	8ee\L	.	2G#X\	-ca-	.	2B\	-ca-	.	2e\	-ca-	.	2b\	-ca-	.	2.e/	.	2.e/	.	2.e/	.	8ee\Lyy	.	2.b\	.	2.ee\	.
!LO:SIC:v:s=8G#	!	!	!	!	!	!	!	!	!	!	!	!	!	!	!	!	!	!	!	!	!	!	!	!	!	!	!	!LO:MO:mod=8ee	!	!	!	!	!
8G\	.	.	.	8G#X/	.	8e/ 8B/	.	8b\J	.	.	.	.	.	.	.	.	.	.	.	.	.	.	.	.	.	.	.	8ee\yy	.	.	.	.	.
!LO:SIC:v:s=8G#	!	!	!	!	!	!	!	!	!	!	!	!	!	!	!	!	!	!	!	!	!	!	!	!	!	!	!	!LO:MO:mod=8ee	!	!	!	!	!
8G\	.	.	.	8G#X/	.	8e/ 8B/	.	16b\LL	.	.	.	.	.	.	.	.	.	.	.	.	.	.	.	.	.	.	.	8ee\yy	.	.	.	.	.
.	.	.	.	.	.	.	.	16cc\	.	.	.	.	.	.	.	.	.	.	.	.	.	.	.	.	.	.	.	.	.	.	.	.	.
!LO:SIC:v:s=8G#	!	!	!	!	!	!	!	!	!	!	!	!	!	!	!	!	!	!	!	!	!	!	!	!	!	!	!	!LO:MO:mod=8ee	!	!	!	!	!
8G\	x	.	.	8G#X/	.	8e/ 8B/	.	16dd\	.	.	.	.	.	.	.	.	.	.	.	.	.	.	.	.	.	.	.	8ee\yy	.	.	.	.	.
.	.	.	.	.	.	.	.	16cc\JJ	.	.	.	.	.	.	.	.	.	.	.	.	.	.	.	.	.	.	.	.	.	.	.	.	.
!LO:SIC:v:s=8G#	!	!	!	!	!	!	!	!	!	!	!	!	!	!	!	!	!	!	!	!	!	!	!	!	!	!	!	!LO:MO:mod=8ee	!	!	!	!	!
8G\	.	.	.	8G#X/	.	8e/ 8B/	.	16ee\LL	.	4G#\	-ta	.	4d\	-ta	.	4e\	-ta	.	4b\	-ta	.	.	.	.	.	.	.	8ee\yy	.	.	.	.	.
.	.	.	.	.	.	.	.	16dd\	.	.	.	.	.	.	.	.	.	.	.	.	.	.	.	.	.	.	.	.	.	.	.	.	.
!LO:SIC:v:s=8G#J	!	!	!	!	!	!	!	!	!	!	!	!	!	!	!	!	!	!	!	!	!	!	!	!	!	!	!	!LO:MO:mod=8eeJ	!	!	!	!	!
8G\J	.	.	.	8G#X/J	.	8e/ 8B/J	.	16cc\	.	.	.	.	.	.	.	.	.	.	.	.	.	.	.	.	.	.	.	8ee\Jyy	.	.	.	.	.
.	.	.	.	.	.	.	.	16b\JJ	.	.	.	.	.	.	.	.	.	.	.	.	.	.	.	.	.	.	.	.	.	.	.	.	.
*	*	*	*	*Xtremolo	*	*	*	*	*	*	*	*	*	*	*	*	*	*	*	*	*	*	*	*	*	*	*	*Xtremolo	*	*	*	*	*
!	!	!	!	!	!	!	!	!LO:LB:g=original	!	!	!	!	!	!	!	!	!	!	!LO:LB:g=original	!	!	!	!	!	!	!	!	!	!	!	!	!	!
!!LO:MO:mod
!! =8	=8	=8	=8	=8	=8	=8	=8	=8	=8	=8	=8	=8	=8	=8	=8	=8	=8	=8	=8	=8	=8	=8	=8	=8	=8	=8	=8	=8	=8	=8	=8	=8	=8
!! *	*	*	*	*tremolo	*	*tremolo	*	*	*	*	*	*	*	*	*	*	*	*	*	*	*	*	*	*	*	*tremolo	*	*tremolo	*	*	*	*	*
!! !!LO:TX:t= :mod=Tutti
!! !	!	!	!	!	!	!	!	!	!	!	!	!	!	!	!LO:DY:ed=brack	!	!	!LO:DY:ed=brack	!	!	!LO:DY:ed=brack	!	!LO:DY:ed=brack	!	!	!	!	!	!LO:DY:ed=brack	!	!LO:DY:ed=brack	!	!
!! 8AA/L	5 3	.	.	8A/L	f	8e/ 8c/L	f	2ee\	f	2A\	A-	f	2A\	A-	f	2e\	A-	f	2cc\	Ag-	f	2.e/	f	2.e/	f	8ccL	f	8ee\L	f	2.cc\	f	2.ee\	f
!! 8A\J	_	.	.	8A/	.	8e/ 8c/	.	.	.	.	.	.	.	.	.	.	.	.	.	.	.	.	.	.	.	8cc	.	8ee\	.	.	.	.	.
!! !LO:MO:mod=*null:null	!	!	!	!	!	!	!	!	!	!	!	!	!	!	!	!	!	!	!	!	!	!	!	!	!	!	!	!	!	!	!	!	!
!! *2\right	*	*	*	*	*	*	*	*	*	*	*	*	*	*	*	*	*	*	*	*	*	*	*	*	*	*	*	*	*	*	*	*	*
!! *tremolo	*	*	*	*	*	*	*	*	*	*	*	*	*	*	*	*	*	*	*	*	*	*	*	*	*	*	*	*	*	*	*	*	*
!! 8A\L	.	.	.	8A/	.	8e/ 8c/	.	.	.	.	.	.	.	.	.	.	.	.	.	.	.	.	.	.	.	8cc	.	8ee\	.	.	.	.	.
!! 8A\	x	.	.	8A/	.	8e/ 8c/	.	.	.	.	.	.	.	.	.	.	.	.	.	.	.	.	.	.	.	8cc	.	8ee\	.	.	.	.	.
!! 8A\	.	.	.	8A/	.	8e/ 8c/	.	16dd\LL	.	4A\	-gnus	.	4A\	-gnus	.	4e\	-gnus	.	4cc\	-nus	.	.	.	.	.	8cc	.	8ee\	.	.	.	.	.
!! .	.	.	.	.	.	.	.	16cc\	.	.	.	.	.	.	.	.	.	.	.	.	.	.	.	.	.	.	.	.	.	.	.	.	.
!! 8A\J	.	.	.	8A/J	.	8e/ 8c/J	.	16b\	.	.	.	.	.	.	.	.	.	.	.	.	.	.	.	.	.	8ccJ	.	8ee\J	.	.	.	.	.
!! .	.	.	.	.	.	.	.	16a\JJ	.	.	.	.	.	.	.	.	.	.	.	.	.	.	.	.	.	.	.	.	.	.	.	.	.
!! =9	=9	=9	=9	=9	=9	=9	=9	=9	=9	=9	=9	=9	=9	=9	=9	=9	=9	=9	=9	=9	=9	=9	=9	=9	=9	=9	=9	=9	=9	=9	=9	=9	=9
!! 8A\L	.	.	.	8A/L	.	8e/ 8c/L	.	8a/L	.	4A\	De-	.	4A/	De-	.	4e\	De-	.	4cc\	De-	.	2.e/	.	2.e/	.	8ccL	.	8ee\L	.	2.cc\	.	2.ee\	.
!! 8A\	.	.	.	8A/	.	8e/ 8c/	.	8aa\J	.	.	.	.	.	.	.	.	.	.	.	.	.	.	.	.	.	8cc	.	8ee\	.	.	.	.	.
!! 8A\	.	.	.	8A/	.	8e/ 8c/	.	4.aa\	.	4.A\	-i	.	4.A/	-i	.	4.e\	-i	.	4.cc\	-i	.	.	.	.	.	8cc	.	8ee\	.	.	.	.	.
!! 8A\	.	.	.	8A/	.	8e/ 8c/	.	.	.	.	.	.	.	.	.	.	.	.	.	.	.	.	.	.	.	8cc	.	8ee\	.	.	.	.	.
!! 8A\	.	.	.	8A/	.	8e/ 8c/	.	.	.	.	.	.	.	.	.	.	.	.	.	.	.	.	.	.	.	8cc	.	8ee\	.	.	.	.	.
!! 8A\J	.	.	.	8A/J	.	8e/ 8c/J	.	8ccc\	.	8A\	qui	.	8A/	qui	.	8e\	qui	.	8cc\	qui	.	.	.	.	.	8ccJ	.	8ee\J	.	.	.	.	.
!! =10	=10	=10	=10	=10	=10	=10	=10	=10	=10	=10	=10	=10	=10	=10	=10	=10	=10	=10	=10	=10	=10	=10	=10	=10	=10	=10	=10	=10	=10	=10	=10	=10	=10
!! *	*	*	*	*	*	*	*	*	*	*	*	*	*	*	*	*	*	*	*	*	*	*	*	*	*	*tremolo	*	*	*	*	*	*	*
!! 8G#X\L	6	.	.	8G#X/L	.	8e/ 8B/L	.	8bb\L	.	4G#X\	tol-	.	4B\	tol-	.	4e\	tol-	.	4b\	tol-	.	2.e/	.	2.e/	.	8e/L	.	8ee\L	.	2.b\	.	2.ee\	.
!! 8G#X\	.	.	.	8G#X/	.	8e/ 8B/	.	8gg#X\J	.	.	.	.	.	.	.	.	.	.	.	.	.	.	.	.	.	8e/	.	8ee\	.	.	.	.	.
!! 8G#X\	.	.	.	8G#X/	.	8e/ 8B/	.	4ee\	.	4G#\	-lis	.	4B\	-lis	.	4e\	-lis	.	4b\	-lis	.	.	.	.	.	8e/	.	8ee\	.	.	.	.	.
!! 8G#X\	.	.	.	8G#X/	.	8e/ 8B/	.	.	.	.	.	.	.	.	.	.	.	.	.	.	.	.	.	.	.	8e/	.	8ee\	.	.	.	.	.
!! 8G#X\	.	.	.	8G#X/	.	8e/ 8B/	.	8r	.	8r	.	.	4B\	pec-	.	4e\	pec-	.	4b\	pec-	.	.	.	.	.	8e/	.	8ee\	.	.	.	.	.
!! 8G#X\J	.	.	.	8G#X/J	.	8e/ 8B/J	.	8ee\	.	8G#\	pec-	.	.	.	.	.	.	.	.	.	.	.	.	.	.	8e/J	.	8ee\J	.	.	.	.	.
!! =11	=11	=11	=11	=11	=11	=11	=11	=11	=11	=11	=11	=11	=11	=11	=11	=11	=11	=11	=11	=11	=11	=11	=11	=11	=11	=11	=11	=11	=11	=11	=11	=11	=11
!! 8G#\L	_	.	.	8G#X/L	.	8e/ 8B/L	.	8ee\L	.	2G#X\	-ca-	.	2B\	-ca-	.	2e\	-ca-	.	2b\	-ca-	.	2.e/	.	2.e/	.	8eL	.	8ee\L	.	2.b\	.	2.ee\	.
!! 8G#\	.	.	.	8G#X/	.	8e/ 8B/	.	8b\J	.	.	.	.	.	.	.	.	.	.	.	.	.	.	.	.	.	8e	.	8ee\	.	.	.	.	.
!! 8G#\	.	.	.	8G#X/	.	8e/ 8B/	.	16b\LL	.	.	.	.	.	.	.	.	.	.	.	.	.	.	.	.	.	8e	.	8ee\	.	.	.	.	.
!! .	.	.	.	.	.	.	.	16cc\	.	.	.	.	.	.	.	.	.	.	.	.	.	.	.	.	.	.	.	.	.	.	.	.	.
!! 8G#\	x	.	.	8G#X/	.	8e/ 8B/	.	16dd\	.	.	.	.	.	.	.	.	.	.	.	.	.	.	.	.	.	8e	.	8ee\	.	.	.	.	.
!! .	.	.	.	.	.	.	.	16cc\JJ	.	.	.	.	.	.	.	.	.	.	.	.	.	.	.	.	.	.	.	.	.	.	.	.	.
!! 8G#\	.	.	.	8G#X/	.	8e/ 8B/	.	16ee\LL	.	4G#\	-ta	.	4d\	-ta	.	4e\	-ta	.	4b\	-ta	.	.	.	.	.	8e	.	8ee\	.	.	.	.	.
!! .	.	.	.	.	.	.	.	16dd\	.	.	.	.	.	.	.	.	.	.	.	.	.	.	.	.	.	.	.	.	.	.	.	.	.
!! 8G#\J	.	.	.	8G#X/J	.	8e/ 8B/J	.	16cc\	.	.	.	.	.	.	.	.	.	.	.	.	.	.	.	.	.	8eJ	.	8ee\J	.	.	.	.	.
!! .	.	.	.	.	.	.	.	16b\JJ	.	.	.	.	.	.	.	.	.	.	.	.	.	.	.	.	.	.	.	.	.	.	.	.	.
!! *	*	*	*	*Xtremolo	*	*	*	*	*	*	*	*	*	*	*	*	*	*	*	*	*	*	*	*	*	*Xtremolo	*	*Xtremolo	*	*	*	*	*
!! !	!	!	!	!	!	!	!	!LO:LB:g=original	!	!	!	!	!	!	!	!	!	!	!LO:LB:g=original	!	!	!	!	!	!	!	!	!	!	!	!	!	!
!!LO:MO:end
=12	=12	=12	=12	=12	=12	=12	=12	=12	=12	=12	=12	=12	=12	=12	=12	=12	=12	=12	=12	=12	=12	=12	=12	=12	=12	=12	=12	=12	=12	=12	=12	=12	=12
!	!	!	!	!LO:TX:mod=:t=P:problem=mixed beam	!	!	!	!	!	!	!	!	!	!	!	!	!	!	!	!	!	!	!	!	!	!	!	!	!	!	!	!	!
8A\L	.	.	.	8A/L	.	8e/L	.	16b\LL	.	4A\	mun-	.	4c\	mun-	.	2e\	mun-	.	4cc\	pec-	.	2e/	.	2e/	.	2e/	.	2ee\	.	2cc\	.	2.ee\	.
.	.	.	.	.	.	.	.	16cc\	.	.	.	.	.	.	.	.	.	.	.	.	.	.	.	.	.	.	.	.	.	.	.	.	.
8A\	.	.	.	8A/	.	8e/	.	16dd\	.	.	.	.	.	.	.	.	.	.	.	.	.	.	.	.	.	.	.	.	.	.	.	.	.
.	.	.	.	.	.	.	.	16cc\JJ	.	.	.	.	.	.	.	.	.	.	.	.	.	.	.	.	.	.	.	.	.	.	.	.	.
8A\	.	.	.	8a\	.	8e/	.	4.cc\	.	4.A\	-di	.	4.c\	-di	.	.	.	.	4.cc\	-ca-	.	.	.	.	.	.	.	.	.	.	.	.	.
8A\J	.	.	.	8a\J	.	8e/J	.	.	.	.	.	.	.	.	.	.	.	.	.	.	.	.	.	.	.	.	.	.	.	.	.	.	.
*Xtremolo	*	*	*	*	*	*Xtremolo	*	*	*	*	*	*	*	*	*	*	*	*	*	*	*	*	*	*	*	*	*	*	*	*	*	*	*
8Gn\L	6	.	.	8gn\L	.	8e/L	.	.	.	.	.	.	.	.	.	4e\	-di	.	.	.	.	4r	.	4r	.	4r	.	4r	.	4b\	.	.	.
8G\J	.	.	.	8g\J	.	8e/J	.	8b\	.	8Gn\	pec-	.	8e\	pec-	.	.	.	.	8b\	-ta	.	.	.	.	.	.	.	.	.	.	.	.	.
!	!	!	!	!	!	!LO:LB:g=original	!	!	!	!	!	!	!LO:LB:g=original	!	!	!	!	!	!	!	!	!	!	!	!	!	!	!	!	!	!	!	!
=13	=13	=13	=13	=13	=13	=13	=13	=13	=13	=13	=13	=13	=13	=13	=13	=13	=13	=13	=13	=13	=13	=13	=13	=13	=13	=13	=13	=13	=13	=13	=13	=13	=13
*tremolo	*	*	*	*	*	*tremolo	*	*	*	*	*	*	*	*	*	*	*	*	*	*	*	*	*	*	*	*	*	*	*	*	*	*	*
!	!	!	!	!	!	!	!	!LO:TX:mod=:t=P:problem=mixed beam	!	!	!	!	!	!	!	!	!	!	!	!	!	!LO:TX:a:mod=:t=1.	!	!LO:TX:a:mod=:t=1	!	!	!	!LO:TX:a:mod=:t=1	!	!	!	!	!
8F\L	7	.	.	8f\L	.	8e/L	.	8.a/L	.	2F\	-ca-	.	2e\	-ca-	.	4e\	pec-	.	2a\	mun-	.	2.r	.	2.r	.	2.r	.	2.r	.	2.a/	.	2ee\	.
8F\	.	.	.	8c\	.	8e/	.	.	.	.	.	.	.	.	.	.	.	.	.	.	.	.	.	.	.	.	.	.	.	.	.	.	.
.	.	.	.	.	.	.	.	16gg#X\Jk	.	.	.	.	.	.	.	.	.	.	.	.	.	.	.	.	.	.	.	.	.	.	.	.	.
8F\	.	.	.	8c\	.	8e/	.	16aa\LL	.	.	.	.	.	.	.	4a\	-ca-	.	.	.	.	.	.	.	.	.	.	.	.	.	.	.	.
.	.	.	.	.	.	.	.	16gg#\	.	.	.	.	.	.	.	.	.	.	.	.	.	.	.	.	.	.	.	.	.	.	.	.	.
8F\	6\	.	.	8c\	.	8e/J	.	16aa\	.	.	.	.	.	.	.	.	.	.	.	.	.	.	.	.	.	.	.	.	.	.	.	.	.
.	.	.	.	.	.	.	.	16gg#\JJ	.	.	.	.	.	.	.	.	.	.	.	.	.	.	.	.	.	.	.	.	.	.	.	.	.
*	*	*	*	*	*	*Xtremolo	*	*	*	*	*	*	*	*	*	*	*	*	*	*	*	*	*	*	*	*	*	*	*	*	*	*	*
!	!	!	!	!	!	!	!	!LO:TX:mod=:t=P:problem=mixed beam	!	!	!	!	!	!	!	!	!	!	!	!	!	!	!	!	!	!	!	!	!	!	!	!	!
8F\	.	.	.	8c\	.	8d#X/L	.	16aa\LL	.	4F\	-ta	.	4A\	-ta	.	4a\	-ta	.	4dd#X\	.	.	.	.	.	.	.	.	.	.	.	.	4dd#X\	.
.	.	.	.	.	.	.	.	16a/	.	.	.	.	.	.	.	.	.	.	.	.	.	.	.	.	.	.	.	.	.	.	.	.	.
8F\J	.	.	.	8A\J	.	8d#/J	.	16b/	.	.	.	.	.	.	.	.	.	.	.	.	.	.	.	.	.	.	.	.	.	.	.	.	.
.	.	.	.	.	.	.	.	16a/JJ	.	.	.	.	.	.	.	.	.	.	.	.	.	.	.	.	.	.	.	.	.	.	.	.	.
*Xtremolo	*	*	*	*	*	*	*	*	*	*	*	*	*	*	*	*	*	*	*	*	*	*	*	*	*	*	*	*	*	*	*	*	*
!LO:LB:g=original	!	!	!	!	!	!	!	!	!	!LO:LB:g=original	!	!	!	!	!	!	!	!	!	!	!	!	!	!	!	!	!	!	!	!	!	!	!
=14	=14	=14	=14	=14	=14	=14	=14	=14	=14	=14	=14	=14	=14	=14	=14	=14	=14	=14	=14	=14	=14	=14	=14	=14	=14	=14	=14	=14	=14	=14	=14	=14	=14
.	.	.	.	.	.	.	.	.	.	.	.	.	.	.	.	.	.	.	8qqdd#/	.	.	.	.	.	.	.	.	.	.	.	.	.	.
4E\	#	.	.	4B/	.	4e/	.	16g#X/LL	.	4E\	mun-	.	4B\	mun-	.	4g#X\	mun-	.	4ee\	.	.	4e/	.	4e/	.	4e/	.	4ee\	.	4g#X/	.	4ee\	.
.	.	.	.	.	.	.	.	16b/JJ	.	.	.	.	.	.	.	.	.	.	.	.	.	.	.	.	.	.	.	.	.	.	.	.	.
.	.	.	.	.	.	.	.	16dd#X\LL	.	.	.	.	.	.	.	.	.	.	.	.	.	.	.	.	.	.	.	.	.	.	.	.	.
.	.	.	.	.	.	.	.	16ee\JJ	.	.	.	.	.	.	.	.	.	.	.	.	.	.	.	.	.	.	.	.	.	.	.	.	.
4E\	_	.	.	4B/	.	4e/	.	4e/	.	4E\	-di	.	4B\	-di	.	4g#\	-di	.	4ee\	-di	.	4e/	.	4e/	.	4e/	.	4ee\	.	4g#/	.	4ee\	.
4r	x	.	.	4r	.	4r	.	4r	.	4r	.	.	4r	.	.	4r	.	.	4r	.	.	4r	.	4r	.	4r	.	4r	.	4r	.	4r	.
!	!	!	!	!	!	!	!	!	!	!	!	!	!	!	!	!LO:LB:g=original	!	!	!	!	!	!	!	!	!	!	!	!	!	!	!	!LO:LB:g=original	!
=15	=15	=15	=15	=15	=15	=15	=15	=15	=15	=15	=15	=15	=15	=15	=15	=15	=15	=15	=15	=15	=15	=15	=15	=15	=15	=15	=15	=15	=15	=15	=15	=15	=15
!	!	!	!	!LO:MO:mod=*null:null	!	!	!	!	!	!	!	!	!	!	!	!	!	!	!	!	!	!	!	!	!	!	!	!	!	!	!	!	!
*	*	*	*	*2\right	*	*	*	*	*	*	*	*	*	*	*	*	*	*	*	*	*	*	*	*	*	*	*	*	*	*	*	*	*
*	*	*	*	*tremolo	*	*tremolo	*	*	*	*	*	*	*	*	*	*	*	*	*	*	*	*	*	*	*	*	*	*	*	*	*	*	*
!	!	!	!	!	!	!	!	!	!	!	!	!LO:MO:mod=!null:null	!	!	!	!	!	!LO:DY:t= :mod=%s	!	!	!LO:DY:t= :mod=%s	!	!	!	!	!	!LO:DY:t= :mod=%s	!	!LO:DY:t= :mod=%s	!	!	!	!LO:DY:t= :mod=%s
!LO:TX:mod=:t=P:problem=mixed beam	!	!LO:DY:a:t=p.	!	!	!LO:DY:rj:b:t=p&colon;	!	!LO:DY:rj:b	!LO:TX:mod=:t=P:problem=mixed beam	!LO:DY:b:t=pia	!	!	!LO:DY:rj:a:t=p&colon;	!	!	!LO:DY:a:t=p&colon;	!	!	!LO:MO:mod=!LO&colon;DY&colon;ed=brack	!	!	!LO:MO:mod=!LO&colon;DY&colon;ed=brack	!LO:TX:a:t=4:mod=	!	!LO:TX:a:t=4:mod=	!	!	!LO:MO:mod=!LO&colon;DY&colon;ed=brack	!	!LO:MO:mod=!LO&colon;DY&colon;ed=brack	!	!LO:DY:a:t=p.	!	!LO:MO:mod=!LO&colon;DY&colon;ed=brack
!	!	!	!	!	!	!	!	!	!	!	!	!	!	!	!	!	!	!null	!	!	!null	!	!	!	!	!	!null	!	!null	!	!	!	!null
8C/L	5 3	p	.	8c\L	p	16G/LL	p	8gn/L	p	2C/	mi-	p	2G/	mi-	p	2e\	mi-	p	2cc\	mi-	p	0.r	.	0.r	.	2.g/	p	2.gg\	p	2.gn/	p	2.ee\	p
.	.	.	.	.	.	16e/	.	.	.	.	.	.	.	.	.	.	.	.	.	.	.	.	.	.	.	.	.	.	.	.	.	.	.
8c\J	.	.	.	8c\	.	16G/	.	8cc\J	.	.	.	.	.	.	.	.	.	.	.	.	.	.	.	.	.	.	.	.	.	.	.	.	.
.	.	.	.	.	.	16e/	.	.	.	.	.	.	.	.	.	.	.	.	.	.	.	.	.	.	.	.	.	.	.	.	.	.	.
*tremolo	*	*	*	*	*	*	*	*	*	*	*	*	*	*	*	*	*	*	*	*	*	*	*	*	*	*	*	*	*	*	*	*	*
8c\L	.	.	.	8c\	.	16G/	.	16r	.	.	.	.	.	.	.	.	.	.	.	.	.	.	.	.	.	.	.	.	.	.	.	.	.
.	.	.	.	.	.	16e/	.	16cc\LL	.	.	.	.	.	.	.	.	.	.	.	.	.	.	.	.	.	.	.	.	.	.	.	.	.
8c\	.	.	.	8c\	.	16G/	.	16b\	.	.	.	.	.	.	.	.	.	.	.	.	.	.	.	.	.	.	.	.	.	.	.	.	.
.	.	.	.	.	.	16e/	.	16cc\JJ	.	.	.	.	.	.	.	.	.	.	.	.	.	.	.	.	.	.	.	.	.	.	.	.	.
8c\	.	.	.	8c\	.	16G/	.	16dd\LL	.	4C/	-ſe-	.	4G/	-ſe-	.	4e\	-ſe-	.	4cc\	-ſe-	.	.	.	.	.	.	.	.	.	.	.	.	.
.	.	.	.	.	.	16e/	.	16cc\	.	.	.	.	.	.	.	.	.	.	.	.	.	.	.	.	.	.	.	.	.	.	.	.	.
8c\J	.	.	.	8c\J	.	16G/	.	16b\	.	.	.	.	.	.	.	.	.	.	.	.	.	.	.	.	.	.	.	.	.	.	.	.	.
.	.	.	.	.	.	16e/JJ	.	16cc\JJ	.	.	.	.	.	.	.	.	.	.	.	.	.	.	.	.	.	.	.	.	.	.	.	.	.
=16	=16	=16	=16	=16	=16	=16	=16	=16	=16	=16	=16	=16	=16	=16	=16	=16	=16	=16	=16	=16	=16	=16	=16	=16	=16	=16	=16	=16	=16	=16	=16	=16	=16
8d\L	6	.	.	8B\L	.	16G/LL	.	8b\L	.	2D/	-re-	.	2G/	-re-	.	2f\	-re-	.	2b\	-re-	.	.	.	.	.	2.g/	.	2.gg\	.	2.b\	.	2.ff\	.
.	.	.	.	.	.	16f/	.	.	.	.	.	.	.	.	.	.	.	.	.	.	.	.	.	.	.	.	.	.	.	.	.	.	.
8d\	.	.	.	8B\	.	16G/	.	8gg\J	.	.	.	.	.	.	.	.	.	.	.	.	.	.	.	.	.	.	.	.	.	.	.	.	.
.	.	.	.	.	.	16f/	.	.	.	.	.	.	.	.	.	.	.	.	.	.	.	.	.	.	.	.	.	.	.	.	.	.	.
8d\	.	.	.	8B\	.	16G/	.	16r	.	.	.	.	.	.	.	.	.	.	.	.	.	.	.	.	.	.	.	.	.	.	.	.	.
.	.	.	.	.	.	16f/	.	16gg\LL	.	.	.	.	.	.	.	.	.	.	.	.	.	.	.	.	.	.	.	.	.	.	.	.	.
8d\	.	.	.	8B\	.	16G/	.	16aa\	.	.	.	.	.	.	.	.	.	.	.	.	.	.	.	.	.	.	.	.	.	.	.	.	.
.	.	.	.	.	.	16f/	.	16gg\JJ	.	.	.	.	.	.	.	.	.	.	.	.	.	.	.	.	.	.	.	.	.	.	.	.	.
!	!	!	!	!	!	!	!	!LO:LB:g=original	!	!	!	!	!	!	!	!	!	!	!	!	!	!	!	!	!	!	!	!	!	!	!	!	!
8d\	.	.	.	8B\	.	16G/	.	16ff#X\LL	.	4D/	-re	.	4G/	-re	.	4f\	-re	.	4b\	-re	.	.	.	.	.	.	.	.	.	.	.	.	.
.	.	.	.	.	.	16f/	.	16gg\	.	.	.	.	.	.	.	.	.	.	.	.	.	.	.	.	.	.	.	.	.	.	.	.	.
8d\J	.	.	.	8B\J	.	16G/	.	16aa\	.	.	.	.	.	.	.	.	.	.	.	.	.	.	.	.	.	.	.	.	.	.	.	.	.
.	.	.	.	.	.	16f/JJ	.	16bb\JJ	.	.	.	.	.	.	.	.	.	.	.	.	.	.	.	.	.	.	.	.	.	.	.	.	.
!	!	!	!	!	!	!	!	!	!	!	!	!	!	!	!	!	!	!	!	!	!	!	!	!	!	!	!	!	!	!LO:LB:g=original	!	!	!
=17	=17	=17	=17	=17	=17	=17	=17	=17	=17	=17	=17	=17	=17	=17	=17	=17	=17	=17	=17	=17	=17	=17	=17	=17	=17	=17	=17	=17	=17	=17	=17	=17	=17
*	*	*	*	*	*	*	*	*	*	*	*ij	*	*	*	*	*	*	*	*	*	*	*	*	*	*	*	*	*	*	*	*	*	*
!	!	!	!	!	!	!	!	!	!	!	!	!	!	!	!	!LO:TX:mod=:t=P:problem=takty 17-78 zapisane repetycją	!	!	!	!	!	!	!	!	!	!	!	!LO:TX:mod=:t=P:problem=takty 17-78 zapisane repetycją	!	!	!	!	!
!	!	!	!	!	!	!	!	!	!	!	!	!	!	!	!	!LO:MO:mod=2e	!	!	!	!	!	!	!	!	!	!	!	!LO:MO:mod=2.gg	!	!	!	!	!
8c\L	.	.	.	8c\L	.	16G/LL	.	8ccc\L	.	2C/	mi-	.	2G/	mi-	.	2e\yy	mi-	.	2cc\	mi-	.	.	.	.	.	2.g/	.	2.gg\yy	.	4cc\	.	2.ee\	.
.	.	.	.	.	.	16e/	.	.	.	.	.	.	.	.	.	.	.	.	.	.	.	.	.	.	.	.	.	.	.	.	.	.	.
8c\	.	.	.	8c\	.	16G/	.	8cc\J	.	.	.	.	.	.	.	.	.	.	.	.	.	.	.	.	.	.	.	.	.	.	.	.	.
.	.	.	.	.	.	16e/	.	.	.	.	.	.	.	.	.	.	.	.	.	.	.	.	.	.	.	.	.	.	.	.	.	.	.
8c\	.	.	.	8c\	.	16G/	.	16r	.	.	.	.	.	.	.	.	.	.	.	.	.	.	.	.	.	.	.	.	.	2g/	.	.	.
.	.	.	.	.	.	16e/	.	16cc\LL	.	.	.	.	.	.	.	.	.	.	.	.	.	.	.	.	.	.	.	.	.	.	.	.	.
8c\	.	.	.	8c\	.	16G/	.	16dd\	.	.	.	.	.	.	.	.	.	.	.	.	.	.	.	.	.	.	.	.	.	.	.	.	.
.	.	.	.	.	.	16e/	.	16cc\JJ	.	.	.	.	.	.	.	.	.	.	.	.	.	.	.	.	.	.	.	.	.	.	.	.	.
!	!	!	!	!	!	!	!	!	!	!	!	!	!	!	!	!LO:MO:mod=4e	!	!	!	!	!	!	!	!	!	!	!	!	!	!	!	!	!
8c\	.	.	.	8c\	.	16G/	.	16b\LL	.	4C/	-ſe-	.	4G/	-ſe-	.	4e\yy	-ſe-	.	4cc\	-ſe-	.	.	.	.	.	.	.	.	.	.	.	.	.
.	.	.	.	.	.	16e/	.	16cc\	.	.	.	.	.	.	.	.	.	.	.	.	.	.	.	.	.	.	.	.	.	.	.	.	.
8c\J	.	.	.	8c\J	.	16G/	.	16ff\	.	.	.	.	.	.	.	.	.	.	.	.	.	.	.	.	.	.	.	.	.	.	.	.	.
.	.	.	.	.	.	16e/JJ	.	16ee\JJ	.	.	.	.	.	.	.	.	.	.	.	.	.	.	.	.	.	.	.	.	.	.	.	.	.
!	!	!	!	!LO:LB:g=original	!	!	!	!	!	!	!	!	!	!	!	!	!	!	!LO:LB:g=original	!	!	!	!	!	!	!	!	!	!	!	!	!	!
=18	=18	=18	=18	=18	=18	=18	=18	=18	=18	=18	=18	=18	=18	=18	=18	=18	=18	=18	=18	=18	=18	=18	=18	=18	=18	=18	=18	=18	=18	=18	=18	=18	=18
!	!	!	!	!	!	!	!	!	!	!	!	!	!	!	!	!LO:MO:mod=2f	!	!	!	!	!	!	!	!	!	!	!	!LO:MO:mod=2.gg	!	!	!	!	!
8B\L	6	.	.	8B\L	.	16G/LL	.	8cc#X\L	.	2BB/	-re-	.	2G/	-re-	.	2f\yy	-re-	.	2dd\	-re-	.	.	.	.	.	2.g/	.	2.gg\yy	.	2.dd\	.	2.gg\	.
.	.	.	.	.	.	16g/	.	.	.	.	.	.	.	.	.	.	.	.	.	.	.	.	.	.	.	.	.	.	.	.	.	.	.
8B\	.	.	.	8B\	.	16G/	.	8dd\J	.	.	.	.	.	.	.	.	.	.	.	.	.	.	.	.	.	.	.	.	.	.	.	.	.
.	.	.	.	.	.	16g/	.	.	.	.	.	.	.	.	.	.	.	.	.	.	.	.	.	.	.	.	.	.	.	.	.	.	.
8B\	.	.	.	8B\	.	16G/	.	16r	.	.	.	.	.	.	.	.	.	.	.	.	.	.	.	.	.	.	.	.	.	.	.	.	.
.	.	.	.	.	.	16g/	.	16dd\LL	.	.	.	.	.	.	.	.	.	.	.	.	.	.	.	.	.	.	.	.	.	.	.	.	.
8B\	.	.	.	8B\	.	16G/	.	16cc#\	.	.	.	.	.	.	.	.	.	.	.	.	.	.	.	.	.	.	.	.	.	.	.	.	.
.	.	.	.	.	.	16g/	.	16dd\JJ	.	.	.	.	.	.	.	.	.	.	.	.	.	.	.	.	.	.	.	.	.	.	.	.	.
!	!	!	!	!	!	!	!	!	!	!	!	!	!	!	!	!LO:MO:mod=4f	!	!	!	!	!	!	!	!	!	!	!	!	!	!	!	!	!
8B\	.	.	.	8B\	.	16G/	.	16cc#\LL	.	4BB/	-re	.	4G/	-re	.	4f\yy	-re	.	4dd\	-re	.	.	.	.	.	.	.	.	.	.	.	.	.
*	*	*	*	*	*	*	*	*	*	*	*Xij	*	*	*	*	*	*	*	*	*	*	*	*	*	*	*	*	*	*	*	*	*	*
.	.	.	.	.	.	16g/	.	16dd\	.	.	.	.	.	.	.	.	.	.	.	.	.	.	.	.	.	.	.	.	.	.	.	.	.
8B\J	.	.	.	8B\J	.	16G/	.	16gg\	.	.	.	.	.	.	.	.	.	.	.	.	.	.	.	.	.	.	.	.	.	.	.	.	.
.	.	.	.	.	.	16g/JJ	.	16ff\JJ	.	.	.	.	.	.	.	.	.	.	.	.	.	.	.	.	.	.	.	.	.	.	.	.	.
*Xtremolo	*	*	*	*Xtremolo	*	*	*	*	*	*	*	*	*	*	*	*	*	*	*	*	*	*	*	*	*	*	*	*	*	*	*	*	*
!	!	!	!	!	!	!	!	!	!	!	!	!	!	!	!	!	!	!	!	!	!	!	!	!	!	!LO:LB:g=original	!	!LO:LB:g=original	!	!	!	!	!
=19	=19	=19	=19	=19	=19	=19	=19	=19	=19	=19	=19	=19	=19	=19	=19	=19	=19	=19	=19	=19	=19	=19	=19	=19	=19	=19	=19	=19	=19	=19	=19	=19	=19
!	!	!	!	!	!	!LO:MO:mod=*null:null	!	!	!	!	!	!	!	!	!	!	!	!	!	!	!	!	!	!	!	!	!	!	!	!	!	!	!
*	*	*	*	*	*	*2\right	*	*	*	*	*	*	*	*	*	*	*	*	*	*	*	*	*	*	*	*	*	*	*	*	*	*	*
*	*	*	*	*	*	*	*	*	*	*	*	*	*	*	*	*	*	*	*	*	*	*tremolo	*	*tremolo	*	*	*	*	*	*	*	*	*
!	!	!	!	!	!	!	!	!	!	!	!	!	!	!	!LO:DY:t= :mod=%s	!	!	!LO:DY:t= :mod=%s	!	!	!LO:DY:t= :mod=%s	!	!LO:DY:t= :mod=%s	!	!LO:DY:t= :mod=%s	!	!	!	!LO:DY:t= :mod=%s	!	!	!	!LO:DY:t= :mod=%s
!	!	!LO:DY:a:t=ffor.	!	!	!	!	!	!	!	!	!	!	!	!	!LO:MO:mod=!LO&colon;DY&colon;ed=brack	!	!	!LO:MO:mod=!LO&colon;DY&colon;ed=brack	!	!	!LO:MO:mod=!LO&colon;DY&colon;ed=brack	!	!LO:MO:mod=!LO&colon;DY&colon;ed=brack	!	!LO:MO:mod=!LO&colon;DY&colon;ed=brack	!	!	!	!LO:MO:mod=!LO&colon;DY&colon;ed=brack	!	!	!	!LO:MO:mod=!LO&colon;DY&colon;ed=brack
!	!	!LO:MO:mod=f	!	!	!LO:DY:b:t=for.	!	!LO:DY:rj:b:t=ffor:mod=f	!	!LO:DY:b:t=for	!	!	!LO:DY:a:t=for	!	!	!null	!	!	!null	!	!	!null	!	!null	!	!null	!	!LO:DY:a:t=for&colon;	!	!null	!	!LO:DY:a:t=for	!	!null
8c\L	.	ff	.	8c/L	f	16cc\LL	ff	(16dd#X\LL	f	(4C/	mi-	f	4G/	no-	f	(4e\	mi-	f	2cc\	mi-	f	8c/L	f	8cc\L	f	2cc\	f	4ee\	f	4ee\	f	4gg\	f
.	.	.	.	.	.	16cc\	.	16ee\)	.	.	.	.	.	.	.	.	.	.	.	.	.	.	.	.	.	.	.	.	.	.	.	.	.
8c\	.	.	.	8c/J	.	16cc\	.	16ee'\	.	.	.	.	.	.	.	.	.	.	.	.	.	8c/	.	8cc\	.	.	.	.	.	.	.	.	.
.	.	.	.	.	.	16cc\	.	16ee'\JJ	.	.	.	.	.	.	.	.	.	.	.	.	.	.	.	.	.	.	.	.	.	.	.	.	.
8A\	6	.	.	8A/L	.	16cc\	.	(16ee\LL	.	4A\)	.	.	4A/	.	.	4f\)	.	.	.	.	.	8c/	.	8cc\	.	.	.	4ff\	.	4cc\	.	4ff\	.
.	.	.	.	.	.	16cc\	.	16ff\)	.	.	.	.	.	.	.	.	.	.	.	.	.	.	.	.	.	.	.	.	.	.	.	.	.
8A\	.	.	.	8A/J	.	16cc\	.	16ff'\	.	.	.	.	.	.	.	.	.	.	.	.	.	8c/	.	8cc\	.	.	.	.	.	.	.	.	.
.	.	.	.	.	.	16cc\	.	16ff'\JJ	.	.	.	.	.	.	.	.	.	.	.	.	.	.	.	.	.	.	.	.	.	.	.	.	.
!	!	!	!	!	!	!	!	!LO:SIC:s=(16ff#LL	!	!	!	!	!	!	!	!	!	!	!	!	!	!	!	!	!	!	!	!	!	!	!	!	!
8E\	6	.	.	8g\L	.	16cc\	.	16ff#X\LL	.	4E\	-ſe-	.	4B-X\	-bis	.	4g\	-ſe-	.	4cc\	-ſe-	.	8c/	.	8cc\	.	4cc\	.	4gg\	.	4cc\	.	4gg\	.
!	!	!	!	!	!	!	!	!LO:SIC:s=16gg)	!	!	!	!	!	!	!	!	!	!	!	!	!	!	!	!	!	!	!	!	!	!	!	!	!
.	.	.	.	.	.	16cc\	.	16gg\	.	.	.	.	.	.	.	.	.	.	.	.	.	.	.	.	.	.	.	.	.	.	.	.	.
!	!	!	!	!	!	!	!	!LO:SIC:s=16gg'	!	!	!	!	!	!	!	!	!	!	!	!	!	!	!	!	!	!	!	!	!	!	!	!	!
8E\J	.	.	.	8g\J	.	16cc\	.	16gg\	.	.	.	.	.	.	.	.	.	.	.	.	.	8c/J	.	8cc\J	.	.	.	.	.	.	.	.	.
!	!	!	!	!	!	!	!	!LO:SIC:s=16gg'JJ	!	!	!	!	!	!	!	!	!	!	!	!	!	!	!	!	!	!	!	!	!	!	!	!	!
.	.	.	.	.	.	16cc\JJ	.	16gg\JJ	.	.	.	.	.	.	.	.	.	.	.	.	.	.	.	.	.	.	.	.	.	.	.	.	.
!	!	!	!	!	!	!	!	!	!	!	!	!	!LO:LB:g=original	!	!	!	!	!	!	!	!	!	!	!	!	!	!	!	!	!	!	!	!
=20	=20	=20	=20	=20	=20	=20	=20	=20	=20	=20	=20	=20	=20	=20	=20	=20	=20	=20	=20	=20	=20	=20	=20	=20	=20	=20	=20	=20	=20	=20	=20	=20	=20
!!LO:MO:ori
8F\L	.	.	.	8f\L	.	16cc\LL	.	16gg#X\LL	.	4F\	-re-	.	4A\	no-	.	4a\	-re-	.	2cc\	-re-	.	8c/L	.	8cc\L	.	4cc\	.	4cc\	.	4cc\	.	4aa\	.
.	.	.	.	.	.	16cc\	.	16aa\	.	.	.	.	.	.	.	.	.	.	.	.	.	.	.	.	.	.	.	.	.	.	.	.	.
8F\J	-	.	.	8f\J	.	16cc\	.	16aa\	.	.	.	.	.	.	.	.	.	.	.	.	.	8c/	.	8cc\	.	.	.	.	.	.	.	.	.
.	.	.	.	.	.	16cc\	.	16aa\JJ	.	.	.	.	.	.	.	.	.	.	.	.	.	.	.	.	.	.	.	.	.	.	.	.	.
!	!	!	!	!	!	!	!	!LO:LB:g=original	!	!	!	!	!	!	!	!	!	!	!	!	!	!	!	!	!	!	!	!	!	!	!	!	!
*tremolo	*	*	*	*tremolo	*	*	*	*	*	*	*	*	*	*	*	*	*	*	*	*	*	*	*	*	*	*tremolo	*	*tremolo	*	*	*	*	*
!	!	!	!	!	!	!	!	!LO:SIC:v:s=16bb-LL	!	!	!	!	!	!	!	!	!	!	!	!	!	!	!	!	!	!	!	!	!	!	!	!	!
8E\L	6 5	.	.	8g\L	.	16cc\	.	16bb\LL	.	4E\	-re	.	4B-X\	-bis	.	4g\	-re	.	.	.	.	8c/	.	8cc\	.	8c/L	.	8cc\L	.	2cc\	.	2bb-X\	.
.	.	.	.	.	.	16cc\	.	16cc\	.	.	.	.	.	.	.	.	.	.	.	.	.	.	.	.	.	.	.	.	.	.	.	.	.
8E\	.	.	.	8g\	.	16cc\	.	16cc\	.	.	.	.	.	.	.	.	.	.	.	.	.	8c/	.	8cc\	.	8c/	.	8cc\	.	.	.	.	.
.	.	.	.	.	.	16cc\	.	16cc\JJ	.	.	.	.	.	.	.	.	.	.	.	.	.	.	.	.	.	.	.	.	.	.	.	.	.
!	!	!	!	!	!	!	!	!LO:SIC:v:s=16bb-LL	!	!	!	!	!	!	!	!	!	!	!	!	!	!	!	!	!	!	!	!	!	!	!	!	!
8E\	.	.	.	8g\	.	16cc\	.	16bb\LL	.	4r	.	.	4r	.	.	4r	.	.	4cc\	-re	.	8c/	.	8cc\	.	8c/	.	8cc\	.	.	.	.	.
.	.	.	.	.	.	16cc\	.	16cc\	.	.	.	.	.	.	.	.	.	.	.	.	.	.	.	.	.	.	.	.	.	.	.	.	.
8E\J	.	.	.	8g\J	.	16cc\	.	16cc\	.	.	.	.	.	.	.	.	.	.	.	.	.	8c/J	.	8cc\J	.	8c/J	.	8cc\J	.	.	.	.	.
.	.	.	.	.	.	16cc\JJ	.	16cc\JJ	.	.	.	.	.	.	.	.	.	.	.	.	.	.	.	.	.	.	.	.	.	.	.	.	.
=21	=21	=21	=21	=21	=21	=21	=21	=21	=21	=21	=21	=21	=21	=21	=21	=21	=21	=21	=21	=21	=21	=21	=21	=21	=21	=21	=21	=21	=21	=21	=21	=21	=21
!	!	!	!	!	!	!	!	!	!	!	!	!	!	!	!	!	!	!	!LO:TX:mod=:t=P:problem=skreślony pierwotny tekst	!	!	!	!	!	!	!	!	!	!	!	!	!	!
8F\L	.	.	.	8f\L	.	16cc\LL	.	16aa\LL	.	2F\	mi-	.	2c\	mi-	.	2a\	mi-	.	2cc\	mi-	.	8c/L	.	8cc\L	.	8c/L	.	8cc\L	.	2.cc\	.	2.aa\	.
.	.	.	.	.	.	16cc\	.	16cc\	.	.	.	.	.	.	.	.	.	.	.	.	.	.	.	.	.	.	.	.	.	.	.	.	.
8F\	.	.	.	8f\	.	16cc\	.	16cc\	.	.	.	.	.	.	.	.	.	.	.	.	.	8c/	.	8cc\	.	8c/	.	8cc\	.	.	.	.	.
.	.	.	.	.	.	16cc\	.	16cc\JJ	.	.	.	.	.	.	.	.	.	.	.	.	.	.	.	.	.	.	.	.	.	.	.	.	.
8F\	.	.	.	8f\	.	16cc\	.	16aa\LL	.	.	.	.	.	.	.	.	.	.	.	.	.	8c/	.	8cc\	.	8c/	.	8cc\	.	.	.	.	.
.	.	.	.	.	.	16cc\	.	16cc\	.	.	.	.	.	.	.	.	.	.	.	.	.	.	.	.	.	.	.	.	.	.	.	.	.
8F\J	.	.	.	8f\	.	16cc\	.	16cc\	.	.	.	.	.	.	.	.	.	.	.	.	.	8c/	.	8cc\	.	8c/	.	8cc\	.	.	.	.	.
.	.	.	.	.	.	16cc\	.	16cc\JJ	.	.	.	.	.	.	.	.	.	.	.	.	.	.	.	.	.	.	.	.	.	.	.	.	.
*Xtremolo	*	*	*	*	*	*	*	*	*	*	*	*	*	*	*	*	*	*	*	*	*	*	*	*	*	*	*	*	*	*	*	*	*
8A\L	6	.	.	8f\	.	16cc\	.	16ff\LL	.	4A\	-ſe-	.	4c\	-ſe-	.	4f\	-ſe-	.	4cc\	-ſe-	.	8c/	.	8cc\	.	8c/	.	8cc\	.	.	.	.	.
.	.	.	.	.	.	16cc\	.	16cc\	.	.	.	.	.	.	.	.	.	.	.	.	.	.	.	.	.	.	.	.	.	.	.	.	.
8A\J	.	.	.	8f\J	.	16cc\	.	16cc\	.	.	.	.	.	.	.	.	.	.	.	.	.	8c/J	.	8cc\J	.	8c/J	.	8cc\J	.	.	.	.	.
.	.	.	.	.	.	16cc\JJ	.	16cc\JJ	.	.	.	.	.	.	.	.	.	.	.	.	.	.	.	.	.	.	.	.	.	.	.	.	.
*	*	*	*	*Xtremolo	*	*	*	*	*	*	*	*	*	*	*	*	*	*	*	*	*	*Xtremolo	*	*Xtremolo	*	*Xtremolo	*	*Xtremolo	*	*	*	*	*
=22	=22	=22	=22	=22	=22	=22	=22	=22	=22	=22	=22	=22	=22	=22	=22	=22	=22	=22	=22	=22	=22	=22	=22	=22	=22	=22	=22	=22	=22	=22	=22	=22	=22
!!LO:MO:mod
!! 8F\L	.	.	.	8f\L	.	16cc\LL	.	(16gg#X\LL	.	4F\	-re-	.	4A\	no-	.	4a\	-re-	.	2cc\	-re-	.	8c/L	.	8cc\L	.	4cc\	.	4cc\	.	4cc\	.	4aa\	.
!! .	.	.	.	.	.	16cc\	.	16aa\)	.	.	.	.	.	.	.	.	.	.	.	.	.	.	.	.	.	.	.	.	.	.	.	.	.
!! 8F\J	-	.	.	8f\J	.	16cc\	.	16aa\'	.	.	.	.	.	.	.	.	.	.	.	.	.	8c/	.	8cc\	.	.	.	.	.	.	.	.	.
!! .	.	.	.	.	.	16cc\	.	16aa\JJ'	.	.	.	.	.	.	.	.	.	.	.	.	.	.	.	.	.	.	.	.	.	.	.	.	.
!! !	!	!	!	!	!	!	!	!LO:LB:g=original	!	!	!	!	!	!	!	!	!	!	!	!	!	!	!	!	!	!	!	!	!	!	!	!	!
!! *tremolo	*	*	*	*tremolo	*	*	*	*	*	*	*	*	*	*	*	*	*	*	*	*	*	*	*	*	*	*tremolo	*	*tremolo	*	*	*	*	*
!! 8E\L	6 5	.	.	8g\L	.	16cc\	.	(16bb-\LL	.	4E\	-re	.	4B-X\	-bis	.	4g\	-re	.	.	.	.	8c/	.	8cc\	.	8c/L	.	8cc\L	.	2cc\	.	2bb-X\	.
!! .	.	.	.	.	.	16cc\	.	16cc\)	.	.	.	.	.	.	.	.	.	.	.	.	.	.	.	.	.	.	.	.	.	.	.	.	.
!! 8E\	.	.	.	8g\	.	16cc\	.	16cc\'	.	.	.	.	.	.	.	.	.	.	.	.	.	8c/	.	8cc\	.	8c/	.	8cc\	.	.	.	.	.
!! .	.	.	.	.	.	16cc\	.	16cc\JJ'	.	.	.	.	.	.	.	.	.	.	.	.	.	.	.	.	.	.	.	.	.	.	.	.	.
!! 8E\	.	.	.	8g\	.	16cc\	.	(16bb-\LL	.	4r	.	.	4r	.	.	4r	.	.	4cc\	-re	.	8c/	.	8cc\	.	8c/	.	8cc\	.	.	.	.	.
!! .	.	.	.	.	.	16cc\	.	16cc\)	.	.	.	.	.	.	.	.	.	.	.	.	.	.	.	.	.	.	.	.	.	.	.	.	.
!! 8E\J	.	.	.	8g\J	.	16cc\	.	16cc\	.	.	.	.	.	.	.	.	.	.	.	.	.	8c/J	.	8cc\J	.	8c/J	.	8cc\J	.	.	.	.	.
!! .	.	.	.	.	.	16cc\JJ	.	16cc\JJ	.	.	.	.	.	.	.	.	.	.	.	.	.	.	.	.	.	.	.	.	.	.	.	.	.
!! =21	=21	=21	=21	=21	=21	=21	=21	=21	=21	=21	=21	=21	=21	=21	=21	=21	=21	=21	=21	=21	=21	=21	=21	=21	=21	=21	=21	=21	=21	=21	=21	=21	=21
!! 8F\L	.	.	.	8f\L	.	16cc\LL	.	(16aa\LL	.	2F\	mi-	.	2c\	mi-	.	2a\	mi-	.	2cc\	mi-	.	8c/L	.	8cc\L	.	8c/L	.	8cc\L	.	2.cc\	.	2.aa\	.
!! .	.	.	.	.	.	16cc\	.	16cc\)	.	.	.	.	.	.	.	.	.	.	.	.	.	.	.	.	.	.	.	.	.	.	.	.	.
!! 8F\	.	.	.	8f\	.	16cc\	.	16cc\'	.	.	.	.	.	.	.	.	.	.	.	.	.	8c/	.	8cc\	.	8c/	.	8cc\	.	.	.	.	.
!! .	.	.	.	.	.	16cc\	.	16cc\JJ'	.	.	.	.	.	.	.	.	.	.	.	.	.	.	.	.	.	.	.	.	.	.	.	.	.
!! 8F\	.	.	.	8f\	.	16cc\	.	(16aa\LL	.	.	.	.	.	.	.	.	.	.	.	.	.	8c/	.	8cc\	.	8c/	.	8cc\	.	.	.	.	.
!! .	.	.	.	.	.	16cc\	.	16cc\)	.	.	.	.	.	.	.	.	.	.	.	.	.	.	.	.	.	.	.	.	.	.	.	.	.
!! 8F\J	.	.	.	8f\	.	16cc\	.	16cc\'	.	.	.	.	.	.	.	.	.	.	.	.	.	8c/	.	8cc\	.	8c/	.	8cc\	.	.	.	.	.
!! .	.	.	.	.	.	16cc\	.	16cc\JJ'	.	.	.	.	.	.	.	.	.	.	.	.	.	.	.	.	.	.	.	.	.	.	.	.	.
!! *Xtremolo	*	*	*	*	*	*	*	*	*	*	*	*	*	*	*	*	*	*	*	*	*	*	*	*	*	*	*	*	*	*	*	*	*
!! 8A\L	6	.	.	8f\	.	16cc\	.	(16ff\LL	.	4A\	-ſe-	.	4c\	-ſe-	.	4f\	-ſe-	.	4cc\	-ſe-	.	8c/	.	8cc\	.	8c/	.	8cc\	.	.	.	.	.
!! .	.	.	.	.	.	16cc\	.	16cc\)	.	.	.	.	.	.	.	.	.	.	.	.	.	.	.	.	.	.	.	.	.	.	.	.	.
!! 8A\J	.	.	.	8f\J	.	16cc\	.	16cc\'	.	.	.	.	.	.	.	.	.	.	.	.	.	8c/J	.	8cc\J	.	8c/J	.	8cc\J	.	.	.	.	.
!! .	.	.	.	.	.	16cc\JJ	.	16cc\JJ'	.	.	.	.	.	.	.	.	.	.	.	.	.	.	.	.	.	.	.	.	.	.	.	.	.
!! *	*	*	*	*Xtremolo	*	*	*	*	*	*	*	*	*	*	*	*	*	*	*	*	*	*Xtremolo	*	*Xtremolo	*	*Xtremolo	*	*Xtremolo	*	*	*	*	*
!! =22	=22	=22	=22	=22	=22	=22	=22	=22	=22	=22	=22	=22	=22	=22	=22	=22	=22	=22	=22	=22	=22	=22	=22	=22	=22	=22	=22	=22	=22	=22	=22	=22	=22
!!LO:MO:end
!LO:TX:mod=:t=P:problem=mixed beam	!	!	!	!	!	!	!	!	!	!	!	!	!	!	!	!	!	!	!	!	!	!	!	!	!	!	!	!	!	!	!	!	!
8G\L	6 4	.	.	8g\L	.	16cc\LL	.	16ee\LL	.	8G\	-re-	.	8c\	-re-	.	8e\	-re-	.	8cc\	-re-	.	4e/	.	4cc\	.	4cc\	.	4ee\	.	4ee\	.	4ccc\	.
.	.	.	.	.	.	16cc\	.	16cc\	.	.	.	.	.	.	.	.	.	.	.	.	.	.	.	.	.	.	.	.	.	.	.	.	.
8G\	.	.	.	8g\J	.	16cc\	.	16ee\	.	8G\	-re	.	8c\	-re	.	8e\	-re	.	8cc\	-re	.	.	.	.	.	.	.	.	.	.	.	.	.
.	.	.	.	.	.	16cc\	.	16cc\JJ	.	.	.	.	.	.	.	.	.	.	.	.	.	.	.	.	.	.	.	.	.	.	.	.	.
*	*	*	*	*tremolo	*	*	*	*	*	*	*	*	*	*	*	*	*	*	*	*	*	*	*	*	*	*	*	*	*	*	*	*	*
8G\	5	.	.	8f\L	.	16cc\	.	2ddT\	.	2G\	no-	.	2A/	no-	.	2d\	no-	.	(4cc\	no-	.	2g/	.	2dd\	.	2g/	.	2dd\	.	2dd\	.	4ccc\	.
.	.	.	.	.	.	16cc\	.	.	.	.	.	.	.	.	.	.	.	.	.	.	.	.	.	.	.	.	.	.	.	.	.	.	.
8G\	_ 4	.	.	8f\	.	16cc\	.	.	.	.	.	.	.	.	.	.	.	.	.	.	.	.	.	.	.	.	.	.	.	.	.	.	.
.	.	.	.	.	.	16cc\JJ	.	.	.	.	.	.	.	.	.	.	.	.	.	.	.	.	.	.	.	.	.	.	.	.	.	.	.
8GG/	_ 3	.	.	8f\	.	16b\LL	.	.	.	.	.	.	.	.	.	.	.	.	4b\)	.	.	.	.	.	.	.	.	.	.	.	.	4bb\	.
.	.	.	.	.	.	16b\	.	.	.	.	.	.	.	.	.	.	.	.	.	.	.	.	.	.	.	.	.	.	.	.	.	.	.
8GG/J	x	.	.	8f\J	.	16b\	.	.	.	.	.	.	.	.	.	.	.	.	.	.	.	.	.	.	.	.	.	.	.	.	.	.	.
.	.	.	.	.	.	16b\JJ	.	.	.	.	.	.	.	.	.	.	.	.	.	.	.	.	.	.	.	.	.	.	.	.	.	.	.
*	*	*	*	*Xtremolo	*	*Xtremolo	*	*	*	*	*	*	*	*	*	*	*	*	*	*	*	*	*	*	*	*	*	*	*	*	*	*	*
!	!	!	!	!	!	!	!	!	!	!LO:LB:g=original	!	!	!	!	!	!	!	!	!	!	!	!	!	!	!	!	!	!	!	!	!	!	!
=23	=23	=23	=23	=23	=23	=23	=23	=23	=23	=23	=23	=23	=23	=23	=23	=23	=23	=23	=23	=23	=23	=23	=23	=23	=23	=23	=23	=23	=23	=23	=23	=23	=23
!	!	!	!	!	!LO:DY:b:t=p&colon;	!	!LO:DY:b:t=p.	!	!LO:DY:b:t=pia	!LO:TX:mod=:t=P:problem=nuta niepewna, gdyż skan jest ucięty	!	!	!	!	!	!	!	!	!	!	!	!	!	!	!	!	!	!	!	!	!	!	!
4C/	.	.	.	4e\	p	4cc\	p	8cc\L	p	4C/	-bis	.	4G/	-bis	.	4e\	-bis	.	4cc\	-bis	.	4e/	.	4cc\	.	4e/	.	4cc\	.	4cc\	.	4ccc\	.
.	.	.	.	.	.	.	.	8ccc\J	.	.	.	.	.	.	.	.	.	.	.	.	.	.	.	.	.	.	.	.	.	.	.	.	.
8r	.	.	.	8r	.	8r	.	4.gg\	.	4r	.	.	4r	.	.	4r	.	.	4r	.	.	4r	.	4r	.	4r	.	4r	.	4r	.	4r	.
!	!	!LO:DY:a	!	!	!	!	!	!	!	!	!	!	!	!	!	!	!	!	!	!	!	!	!	!	!	!	!	!	!	!	!	!	!
8E|\L	.	pp	.	8e\L	.	8cc\L	.	.	.	.	.	.	.	.	.	.	.	.	.	.	.	.	.	.	.	.	.	.	.	.	.	.	.
8D|\	.	.	.	8d\	.	8cc\	.	.	.	4r	.	.	4r	.	.	4r	.	.	4r	.	.	4r	.	4r	.	4r	.	4r	.	4r	.	4r	.
8E|\J	.	.	.	8e\J	.	8cc\J	.	16ff\LL	.	.	.	.	.	.	.	.	.	.	.	.	.	.	.	.	.	.	.	.	.	.	.	.	.
.	.	.	.	.	.	.	.	16gg\JJ	.	.	.	.	.	.	.	.	.	.	.	.	.	.	.	.	.	.	.	.	.	.	.	.	.
!LO:LB:g=original	!	!	!	!	!	!	!	!	!	!	!	!	!	!	!	!	!	!	!LO:LB:g=original	!	!	!	!	!	!	!	!	!	!	!	!	!	!
=24	=24	=24	=24	=24	=24	=24	=24	=24	=24	=24	=24	=24	=24	=24	=24	=24	=24	=24	=24	=24	=24	=24	=24	=24	=24	=24	=24	=24	=24	=24	=24	=24	=24
!	!	!	!	!	!	!	!	!	!	!	!	!	!	!	!	!	!	!	!	!	!	!	!	!LO:TX:mod=:t=P:problem=skreślona "czwórka"	!	!	!	!	!	!	!	!	!
!	!	!	!	!	!	!	!	!LO:TX:mod=:t=P:problem=mixed beam	!	!LO:TX:b:mod=:t=5	!	!	!LO:TX:b:mod=:t=5	!	!	!LO:TX:b:mod=:t=5	!	!	!LO:TX:b:mod=:t=5	!	!	!LO:TX:a:mod=:t=5	!	!LO:TX:b:mod=:t=5.	!	!LO:TX:a:mod=:t=5.	!	!LO:TX:a:mod=:t=5.	!	!	!	!LO:TX:a:mod=:t=5.	!
4F|\	.	.	.	4f\	.	8cc\	.	8aa\L	.	0.r	.	.	0.r	.	.	0.r	.	.	0.r	.	.	0.r	.	0.r	.	0.r	.	0.r	.	0.r	.	0.r	.
.	.	.	.	.	.	8r	.	8a/J	.	.	.	.	.	.	.	.	.	.	.	.	.	.	.	.	.	.	.	.	.	.	.	.	.
!	!	!	!	!	!	!LO:PB:g=original	!	!	!	!	!	!	!	!	!	!	!	!	!	!	!	!	!	!	!	!	!	!	!	!	!	!	!
8r	.	.	.	8r	.	8r	.	4.eet\	.	.	.	.	.	.	.	.	.	.	.	.	.	.	.	.	.	.	.	.	.	.	.	.	.
8c#X|\L	.	.	.	8c#X/L	.	8a/L	.	.	.	.	.	.	.	.	.	.	.	.	.	.	.	.	.	.	.	.	.	.	.	.	.	.	.
8B|\	.	.	.	8B/	.	8a/	.	.	.	.	.	.	.	.	.	.	.	.	.	.	.	.	.	.	.	.	.	.	.	.	.	.	.
8c#|\J	.	.	.	8c#/J	.	8a/J	.	16dd\LL	.	.	.	.	.	.	.	.	.	.	.	.	.	.	.	.	.	.	.	.	.	.	.	.	.
!	!	!	!	!	!	!	!	!LO:TX:a:t=Volti subito:mod=	!	!	!	!	!	!	!	!	!	!	!	!	!	!	!	!	!	!	!	!	!	!	!	!	!
.	.	.	.	.	.	.	.	16ee\JJ	.	.	.	.	.	.	.	.	.	.	.	.	.	.	.	.	.	.	.	.	.	.	.	.	.
!	!	!	!	!	!	!	!	!LO:PB:g=original	!	!	!	!	!	!	!	!	!	!	!	!	!	!	!	!	!	!	!	!	!	!	!	!	!
=25	=25	=25	=25	=25	=25	=25	=25	=25	=25	=25	=25	=25	=25	=25	=25	=25	=25	=25	=25	=25	=25	=25	=25	=25	=25	=25	=25	=25	=25	=25	=25	=25	=25
8d|\	.	.	.	8d\	.	8a/	.	16ff\LL	.	.	.	.	.	.	.	.	.	.	.	.	.	.	.	.	.	.	.	.	.	.	.	.	.
.	.	.	.	.	.	.	.	16gg\	.	.	.	.	.	.	.	.	.	.	.	.	.	.	.	.	.	.	.	.	.	.	.	.	.
8r	.	.	.	8r	.	8r	.	16aa\	.	.	.	.	.	.	.	.	.	.	.	.	.	.	.	.	.	.	.	.	.	.	.	.	.
.	.	.	.	.	.	.	.	16ff\JJ	.	.	.	.	.	.	.	.	.	.	.	.	.	.	.	.	.	.	.	.	.	.	.	.	.
8F|\	.	.	.	8f\	.	8a/	.	16dd\LL	.	.	.	.	.	.	.	.	.	.	.	.	.	.	.	.	.	.	.	.	.	.	.	.	.
.	.	.	.	.	.	.	.	16ee\	.	.	.	.	.	.	.	.	.	.	.	.	.	.	.	.	.	.	.	.	.	.	.	.	.
8r	.	.	.	8r	.	8r	.	16ff\	.	.	.	.	.	.	.	.	.	.	.	.	.	.	.	.	.	.	.	.	.	.	.	.	.
.	.	.	.	.	.	.	.	16dd\JJ	.	.	.	.	.	.	.	.	.	.	.	.	.	.	.	.	.	.	.	.	.	.	.	.	.
!	!	!	!	!	!	!	!	!LO:TX:mod=:t=P:problem=mixed beam	!	!	!	!	!	!	!	!	!	!	!	!	!	!	!	!	!	!	!	!	!	!	!	!	!
8G|\	.	.	.	8B/	.	8d/	.	16b\LL	.	.	.	.	.	.	.	.	.	.	.	.	.	.	.	.	.	.	.	.	.	.	.	.	.
.	.	.	.	.	.	.	.	16cc\	.	.	.	.	.	.	.	.	.	.	.	.	.	.	.	.	.	.	.	.	.	.	.	.	.
8r	.	.	.	8r	.	8r	.	16dd\	.	.	.	.	.	.	.	.	.	.	.	.	.	.	.	.	.	.	.	.	.	.	.	.	.
.	.	.	.	.	.	.	.	16f/JJ	.	.	.	.	.	.	.	.	.	.	.	.	.	.	.	.	.	.	.	.	.	.	.	.	.
!	!	!	!	!LO:LB:g=original	!	!	!	!	!	!	!	!	!	!	!	!	!	!	!	!	!	!	!	!	!	!	!	!	!	!	!	!	!
=26	=26	=26	=26	=26	=26	=26	=26	=26	=26	=26	=26	=26	=26	=26	=26	=26	=26	=26	=26	=26	=26	=26	=26	=26	=26	=26	=26	=26	=26	=26	=26	=26	=26
!LO:MO:mod=4C	!	!	!	!	!	!	!	!	!	!	!	!	!	!	!	!	!	!	!	!	!	!	!	!	!	!	!	!	!	!	!	!	!
8C/	.	.	.	4c\	.	4G/	.	16e/LL	.	.	.	.	.	.	.	.	.	.	.	.	.	.	.	.	.	.	.	.	.	.	.	.	.
.	.	.	.	.	.	.	.	16g/	.	.	.	.	.	.	.	.	.	.	.	.	.	.	.	.	.	.	.	.	.	.	.	.	.
!LO:TX:t=P:o=nadprogramowa pauza 4:problem:mod=	!	!	!	!	!	!	!	!	!	!	!	!	!	!	!	!	!	!	!	!	!	!	!	!	!	!	!	!	!	!	!	!	!
!LO:MO:mod=.	!	!	!	!	!	!	!	!	!	!	!	!	!	!	!	!	!	!	!	!	!	!	!	!	!	!	!	!	!	!	!	!	!
8r	.	.	.	.	.	.	.	16cc/	.	.	.	.	.	.	.	.	.	.	.	.	.	.	.	.	.	.	.	.	.	.	.	.	.
.	.	.	.	.	.	.	.	16ee/JJ	.	.	.	.	.	.	.	.	.	.	.	.	.	.	.	.	.	.	.	.	.	.	.	.	.
8r	.	.	.	8r	.	8r	.	8gg\L	.	.	.	.	.	.	.	.	.	.	.	.	.	.	.	.	.	.	.	.	.	.	.	.	.
!	!	!	!	!	!	!LO:MO:mod=8eL	!	!	!	!	!	!	!	!	!	!	!	!	!	!	!	!	!	!	!	!	!	!	!	!	!	!	!
8C|/L	.	.	.	8c\L	.	8e'/L	.	8ccc\	.	.	.	.	.	.	.	.	.	.	.	.	.	.	.	.	.	.	.	.	.	.	.	.	.
!	!	!	!	!	!	!LO:MO:mod=8f	!	!	!	!	!	!	!	!	!	!	!	!	!	!	!	!	!	!	!	!	!	!	!	!	!	!	!
8D|/	.	.	.	8d\	.	8f'/	.	8bb\	.	.	.	.	.	.	.	.	.	.	.	.	.	.	.	.	.	.	.	.	.	.	.	.	.
!	!	!	!	!	!	!LO:MO:mod=8gJ	!	!	!	!	!	!	!	!	!	!	!	!	!	!	!	!	!	!	!	!	!	!	!	!	!	!	!
8E|/J	.	.	.	8e\J	.	8g'/J	.	8bb-X\J	.	.	.	.	.	.	.	.	.	.	.	.	.	.	.	.	.	.	.	.	.	.	.	.	.
=27	=27	=27	=27	=27	=27	=27	=27	=27	=27	=27	=27	=27	=27	=27	=27	=27	=27	=27	=27	=27	=27	=27	=27	=27	=27	=27	=27	=27	=27	=27	=27	=27	=27
!	!	!	!	!	!	!LO:TX:mod=:t=P:problem=mixed beam	!	!	!	!	!	!	!	!	!	!	!	!	!	!	!	!	!	!	!	!	!	!	!	!	!	!	!
8F|\L	.	.	.	8f\L	.	8cc\L	.	16aa\LL	.	.	.	.	.	.	.	.	.	.	.	.	.	.	.	.	.	.	.	.	.	.	.	.	.
.	.	.	.	.	.	.	.	16aa\	.	.	.	.	.	.	.	.	.	.	.	.	.	.	.	.	.	.	.	.	.	.	.	.	.
8F|\J	.	.	.	8f\	.	8cc/	.	16bbn\	.	.	.	.	.	.	.	.	.	.	.	.	.	.	.	.	.	.	.	.	.	.	.	.	.
.	.	.	.	.	.	.	.	16ccc\JJ	.	.	.	.	.	.	.	.	.	.	.	.	.	.	.	.	.	.	.	.	.	.	.	.	.
*tremolo	*	*	*	*	*	*	*	*	*	*	*	*	*	*	*	*	*	*	*	*	*	*	*	*	*	*	*	*	*	*	*	*	*
8G\L	.	.	.	8g\	.	8e/	.	4cc\	.	.	.	.	.	.	.	.	.	.	.	.	.	.	.	.	.	.	.	.	.	.	.	.	.
!	!	!	!	!	!	!LO:MO:mod=8eJ	!	!	!	!	!	!	!	!	!	!	!	!	!	!	!	!	!	!	!	!	!	!	!	!	!	!	!
8G\	.	.	.	8g\J	.	8e/	.	.	.	.	.	.	.	.	.	.	.	.	.	.	.	.	.	.	.	.	.	.	.	.	.	.	.
!	!	!	!	!	!	!LO:MO:mod=8fL	!	!	!	!	!	!	!	!	!	!	!	!	!	!	!	!	!	!	!	!	!	!	!	!	!	!	!
8G\	.	.	.	8B/L	.	8f/	.	4ddT\	.	.	.	.	.	.	.	.	.	.	.	.	.	.	.	.	.	.	.	.	.	.	.	.	.
8G\J	.	.	.	8B/J	.	8f/J	.	.	.	.	.	.	.	.	.	.	.	.	.	.	.	.	.	.	.	.	.	.	.	.	.	.	.
*Xtremolo	*	*	*	*	*	*	*	*	*	*	*	*	*	*	*	*	*	*	*	*	*	*	*	*	*	*	*	*	*	*	*	*	*
=28	=28	=28	=28	=28	=28	=28	=28	=28	=28	=28	=28	=28	=28	=28	=28	=28	=28	=28	=28	=28	=28	=28	=28	=28	=28	=28	=28	=28	=28	=28	=28	=28	=28
!	!	!	!	!	!	!	!	!LO:TX:mod=:t=P:problem=mixed beam	!	!	!	!	!	!	!	!	!	!	!	!	!	!	!	!	!	!	!	!	!	!	!	!	!
4C/	.	.	.	4c\	.	4e/	.	8cc\L	.	2.r	.	.	2.r	.	.	2.r	.	.	2.r	.	.	2.r	.	2.r	.	2.r	.	2.r	.	2.r	.	2.r	.
.	.	.	.	.	.	.	.	8c/	.	.	.	.	.	.	.	.	.	.	.	.	.	.	.	.	.	.	.	.	.	.	.	.	.
4r	.	.	.	4r	.	4r	.	8e/	.	.	.	.	.	.	.	.	.	.	.	.	.	.	.	.	.	.	.	.	.	.	.	.	.
.	.	.	.	.	.	.	.	8g/J	.	.	.	.	.	.	.	.	.	.	.	.	.	.	.	.	.	.	.	.	.	.	.	.	.
4r	.	.	.	4r	.	4r	.	8cc\L	.	.	.	.	.	.	.	.	.	.	.	.	.	.	.	.	.	.	.	.	.	.	.	.	.
.	.	.	.	.	.	.	.	8ee\J	.	.	.	.	.	.	.	.	.	.	.	.	.	.	.	.	.	.	.	.	.	.	.	.	.
!	!	!	!	!	!	!	!	!	!	!	!	!	!	!	!	!	!	!	!	!	!	!LO:PB:g=original	!	!	!	!	!	!	!	!	!	!	!
=29	=29	=29	=29	=29	=29	=29	=29	=29	=29	=29	=29	=29	=29	=29	=29	=29	=29	=29	=29	=29	=29	=29	=29	=29	=29	=29	=29	=29	=29	=29	=29	=29	=29
*tremolo	*	*	*	*tremolo	*	*tremolo	*	*	*	*	*	*	*	*	*	*	*	*	*	*	*	*	*	*	*	*	*	*	*	*	*	*	*
!!LO:TX:t= :mod=Tutti
!	!	!LO:DY:a:t=ffor.	!	!	!LO:DY:b:t=for&colon;	!	!LO:DY:rj:b:t=ffor:mod=f	!LO:TX:a:t=Tutti:mod=	!LO:DY:b:t=for	!	!	!	!	!	!	!	!	!	!	!	!	!	!LO:DY:t= :mod=%s	!	!LO:DY:t= :mod=%s	!	!LO:DY:a:t=for&colon;	!	!LO:DY:t= :mod=%s	!	!LO:DY:a:t=fo	!	!LO:DY:t= :mod=%s
!	!	!	!	!	!	!	!	!	!	!	!	!	!	!	!	!	!	!	!	!	!	!	!LO:MO:mod=!LO&colon;DY&colon;ed=brack	!	!LO:MO:mod=!LO&colon;DY&colon;ed=brack	!	!	!	!LO:MO:mod=!LO&colon;DY&colon;ed=brack	!	!	!	!LO:MO:mod=!LO&colon;DY&colon;ed=brack
!	!	!LO:MO:mod=f	!	!	!	!	!	!	!	!	!	!	!	!	!	!	!	!	!	!	!	!	!null	!	!null	!	!	!	!null	!	!	!	!null
8C/L	.	ff	.	8c\L	f	8e/ 8G/L	ff	2gg\	f	2C/	A-	.	2c\	A-	.	2g\	A-	.	2ee\	A-	.	2.e/	f	2.cc\	f	2.cc\	f	2.ee\	f	2.ee\	f	2.gg\	f
8C/	.	.	.	8c\	.	8e/ 8G/	.	.	.	.	.	.	.	.	.	.	.	.	.	.	.	.	.	.	.	.	.	.	.	.	.	.	.
8C/	.	.	.	8c\	.	8e/ 8G/	.	.	.	.	.	.	.	.	.	.	.	.	.	.	.	.	.	.	.	.	.	.	.	.	.	.	.
8C/	.	.	.	8c\	.	8e/ 8G/	.	.	.	.	.	.	.	.	.	.	.	.	.	.	.	.	.	.	.	.	.	.	.	.	.	.	.
8C/	.	.	.	8c\	.	8e/ 8G/	.	16ff\LL	.	4c\	-gnus	.	4c\	-gnus	.	4g\	-gnus	.	4ee\	-gnus	.	.	.	.	.	.	.	.	.	.	.	.	.
.	.	.	.	.	.	.	.	16ee\	.	.	.	.	.	.	.	.	.	.	.	.	.	.	.	.	.	.	.	.	.	.	.	.	.
8C/J	.	.	.	8c\J	.	8e/ 8G/J	.	16dd\	.	.	.	.	.	.	.	.	.	.	.	.	.	.	.	.	.	.	.	.	.	.	.	.	.
.	.	.	.	.	.	.	.	16cc\JJ	.	.	.	.	.	.	.	.	.	.	.	.	.	.	.	.	.	.	.	.	.	.	.	.	.
=30	=30	=30	=30	=30	=30	=30	=30	=30	=30	=30	=30	=30	=30	=30	=30	=30	=30	=30	=30	=30	=30	=30	=30	=30	=30	=30	=30	=30	=30	=30	=30	=30	=30
!	!	!	!	!	!	!	!	!	!	!	!	!	!	!	!	!	!	!	!	!	!	!	!	!	!	!	!	!LO:TX:t=P:problem=takt 30 zapisany repetycją:mod=	!	!	!	!	!
!	!	!	!	!	!	!	!	!	!	!	!	!	!	!	!	!	!	!	!	!	!	!	!	!	!	!	!	!LO:MO:mod=2.ee	!	!	!	!	!
8c\L	.	.	.	8c\L	.	8e/ 8G/L	.	16b\LL	.	4c\	De-	.	4c\	De-	.	4g\	De-	.	4ee\	De-	.	2.e/	.	2.cc\	.	2.cc\	.	2.ee\yy	.	2.ee\	.	2.gg\	.
.	.	.	.	.	.	.	.	16cc\	.	.	.	.	.	.	.	.	.	.	.	.	.	.	.	.	.	.	.	.	.	.	.	.	.
8c\	.	.	.	8c\	.	8e/ 8G/	.	16dd\	.	.	.	.	.	.	.	.	.	.	.	.	.	.	.	.	.	.	.	.	.	.	.	.	.
.	.	.	.	.	.	.	.	16cc\JJ	.	.	.	.	.	.	.	.	.	.	.	.	.	.	.	.	.	.	.	.	.	.	.	.	.
8c\	.	.	.	8c\	.	8e/ 8G/	.	4.cc\	.	4.c\	-i	.	4.c\	-i	.	4.g\	-i	.	4.ee\	-i	.	.	.	.	.	.	.	.	.	.	.	.	.
8c\	.	.	.	8c\	.	8e/ 8G/	.	.	.	.	.	.	.	.	.	.	.	.	.	.	.	.	.	.	.	.	.	.	.	.	.	.	.
8c\	.	.	.	8c\	.	8e/ 8G/	.	.	.	.	.	.	.	.	.	.	.	.	.	.	.	.	.	.	.	.	.	.	.	.	.	.	.
8c\J	.	.	.	8c\J	.	8e/ 8G/J	.	8ee\	.	8c\	qui	.	8c\	qui	.	8g\	qui	.	8ee\	qui	.	.	.	.	.	.	.	.	.	.	.	.	.
!	!	!	!	!	!	!	!	!	!	!	!	!	!LO:LB:g=original	!	!	!	!	!	!	!	!	!	!	!	!	!	!	!	!	!	!	!	!
=31	=31	=31	=31	=31	=31	=31	=31	=31	=31	=31	=31	=31	=31	=31	=31	=31	=31	=31	=31	=31	=31	=31	=31	=31	=31	=31	=31	=31	=31	=31	=31	=31	=31
!!LO:MO:ori
*	*	*	*	*	*	*	*	*	*	*	*	*	*	*	*	*	*	*	*	*	*	*	*	*	*	*tremolo	*	*	*	*	*	*	*
!LO:TX:mod=:t=P:problem=dodatkowe 2 takty w partii cor 2	!	!	!	!LO:TX:mod=:t=P:problem=dodatkowe 2 takty w partii cor 2	!	!LO:TX:mod=:t=P:problem=dodatkowe 2 takty w partii cor 2	!	!LO:TX:mod=:t=P:problem=dodatkowe 2 takty w partii cor 2	!	!LO:TX:mod=:t=P:problem=dodatkowe 2 takty w partii cor 2	!	!	!LO:TX:mod=:t=P:problem=dodatkowe 2 takty w partii cor 2	!	!	!LO:TX:mod=:t=P:problem=dodatkowe 2 takty w partii cor 2	!	!	!LO:TX:mod=:t=P:problem=dodatkowe 2 takty w partii cor 2	!	!	!LO:TX:mod=:t=P:problem=dodatkowe 2 takty w partii cor 2	!	!LO:TX:mod=:t=P:problem=dodatkowe 2 takty w partii cor 2	!	!LO:TX:mod=:t=P:problem=ten i następny są to nadprogramowe takty	!	!LO:TX:mod=:t=P:problem=dodatkowe 2 takty w partii cor 2	!	!LO:TX:mod=:t=P:problem=dodatkowe 2 takty w partii cor 2	!	!LO:TX:mod=:t=P:problem=dodatkowe 2 takty w partii cor 2	!
2.ryy	.	.	.	2.ryy	.	2.ryy	.	2.ryy	.	2.ryy	.	.	2.ryy	.	.	2.ryy	.	.	2.ryy	.	.	2.ryy	.	2.ryy	.	8e/L	.	2.ryy	.	2.ryy	.	2.ryy	.
.	.	.	.	.	.	.	.	.	.	.	.	.	.	.	.	.	.	.	.	.	.	.	.	.	.	8e/	.	.	.	.	.	.	.
.	.	.	.	.	.	.	.	.	.	.	.	.	.	.	.	.	.	.	.	.	.	.	.	.	.	8e/	.	.	.	.	.	.	.
.	.	.	.	.	.	.	.	.	.	.	.	.	.	.	.	.	.	.	.	.	.	.	.	.	.	8e/	.	.	.	.	.	.	.
.	.	.	.	.	.	.	.	.	.	.	.	.	.	.	.	.	.	.	.	.	.	.	.	.	.	8e/	.	.	.	.	.	.	.
.	.	.	.	.	.	.	.	.	.	.	.	.	.	.	.	.	.	.	.	.	.	.	.	.	.	8e/J	.	.	.	.	.	.	.
*	*	*	*	*	*	*	*	*	*	*	*	*	*	*	*	*	*	*	*	*	*	*	*	*	*	*Xtremolo	*	*	*	*	*	*	*
=32	=32	=32	=32	=32	=32	=32	=32	=32	=32	=32	=32	=32	=32	=32	=32	=32	=32	=32	=32	=32	=32	=32	=32	=32	=32	=32	=32	=32	=32	=32	=32	=32	=32
2.ryy	.	.	.	2.ryy	.	2.ryy	.	2.ryy	.	2.ryy	.	.	2.ryy	.	.	2.ryy	.	.	2.ryy	.	.	2.ryy	.	2.ryy	.	2.e/	.	2.ryy	.	2.ryy	.	2.ryy	.
!!LO:MO:end
=33	=33	=33	=33	=33	=33	=33	=33	=33	=33	=33	=33	=33	=33	=33	=33	=33	=33	=33	=33	=33	=33	=33	=33	=33	=33	=33	=33	=33	=33	=33	=33	=33	=33
*	*	*	*	*	*	*	*	*	*	*	*	*	*	*	*	*	*	*	*	*	*	*	*	*	*	*Xtremolo	*	*	*	*	*	*	*
8B\L	6	.	.	8B/L	.	8d/ 8G/L	.	8dd\L	.	4B\	tol-	.	4d\	tol-	.	4g\	tol-	.	4dd\	tol-	.	2.g/	.	2.dd\	.	2.g/	.	2.dd\	.	2.dd\	.	2.gg\	.
8B\	.	.	.	8B/	.	8d/ 8G/	.	8b\J	.	.	.	.	.	.	.	.	.	.	.	.	.	.	.	.	.	.	.	.	.	.	.	.	.
!	!	!	!	!	!	!	!	!LO:LB:g=original	!	!	!	!	!	!	!	!	!	!	!	!	!	!	!	!	!	!	!	!	!	!	!	!	!
8B\	.	.	.	8B/	.	8d/ 8G/	.	4g/	.	4B\	-lis	.	4d\	-lis	.	4g\	-lis	.	4dd\	-lis	.	.	.	.	.	.	.	.	.	.	.	.	.
8B\	.	.	.	8B/	.	8d/ 8G/	.	.	.	.	.	.	.	.	.	.	.	.	.	.	.	.	.	.	.	.	.	.	.	.	.	.	.
!	!	!	!	!	!	!	!	!	!	!	!	!	!	!	!	!LO:LB:g=original	!	!	!	!	!	!	!	!	!	!	!	!	!	!	!	!	!
8B\	.	.	.	8B/	.	8d/ 8G/	.	8r	.	4B\	pec-	.	4d\	pec-	.	4g\	pec-	.	4dd\	pec-	.	.	.	.	.	.	.	.	.	.	.	.	.
8B\J	.	.	.	8B/J	.	8d/ 8G/J	.	8gg\	.	.	.	.	.	.	.	.	.	.	.	.	.	.	.	.	.	.	.	.	.	.	.	.	.
!	!	!	!	!	!	!	!	!	!	!	!	!	!	!	!	!	!	!	!	!	!	!	!	!	!	!	!	!	!	!	!	!LO:LB:g=original	!
=34	=34	=34	=34	=34	=34	=34	=34	=34	=34	=34	=34	=34	=34	=34	=34	=34	=34	=34	=34	=34	=34	=34	=34	=34	=34	=34	=34	=34	=34	=34	=34	=34	=34
!	!	!	!	!	!	!	!	!	!	!	!	!	!	!	!	!	!	!	!	!	!	!	!	!	!	!	!	!LO:TX:t=P:problem=takt 34 zapisany repetycją:mod=	!	!	!	!	!
!	!	!	!	!	!	!	!	!	!	!	!	!	!	!	!	!	!	!	!	!	!	!	!	!	!	!	!	!LO:MO:mod=2.dd	!	!	!	!	!
8B\L	_	.	.	8B/L	.	8d/ 8G/L	.	8gg\L	.	2B\	-ca-	.	2d\	-ca-	.	2g\	-ca-	.	2dd\	-ca-	.	2.g/	.	2.dd\	.	2.g/	.	2.dd\yy	.	2.dd\	.	2.gg\	.
8B\	.	.	.	8B/	.	8d/ 8G/	.	8dd\J	.	.	.	.	.	.	.	.	.	.	.	.	.	.	.	.	.	.	.	.	.	.	.	.	.
8B\	.	.	.	8B/	.	8d/ 8G/	.	16dd\LL	.	.	.	.	.	.	.	.	.	.	.	.	.	.	.	.	.	.	.	.	.	.	.	.	.
.	.	.	.	.	.	.	.	16ee\	.	.	.	.	.	.	.	.	.	.	.	.	.	.	.	.	.	.	.	.	.	.	.	.	.
8B\	.	.	.	8B/	.	8d/ 8G/	.	16ff\	.	.	.	.	.	.	.	.	.	.	.	.	.	.	.	.	.	.	.	.	.	.	.	.	.
.	.	.	.	.	.	.	.	16ee\JJ	.	.	.	.	.	.	.	.	.	.	.	.	.	.	.	.	.	.	.	.	.	.	.	.	.
8B\	.	.	.	8B/	.	8d/ 8G/	.	16gg\LL	.	4B\	-ta	.	4d\	-ta	.	4g\	-ta	.	4dd\	-ta	.	.	.	.	.	.	.	.	.	.	.	.	.
.	.	.	.	.	.	.	.	16ff\	.	.	.	.	.	.	.	.	.	.	.	.	.	.	.	.	.	.	.	.	.	.	.	.	.
8B\J	.	.	.	8B/J	.	8d/ 8G/J	.	16ee\	.	.	.	.	.	.	.	.	.	.	.	.	.	.	.	.	.	.	.	.	.	.	.	.	.
.	x	.	.	.	.	.	.	16dd\JJ	.	.	.	.	.	.	.	.	.	.	.	.	.	.	.	.	.	.	.	.	.	.	.	.	.
=35	=35	=35	=35	=35	=35	=35	=35	=35	=35	=35	=35	=35	=35	=35	=35	=35	=35	=35	=35	=35	=35	=35	=35	=35	=35	=35	=35	=35	=35	=35	=35	=35	=35
8c\L	.	.	.	8c\L	.	8g/L	.	16dd\LL	.	4c\	mun-	.	4c\	pec-	.	4g\	pec-	.	4ee\	pec-	.	4cc\	.	4ee\	.	2cc\	.	2ee\	.	2ee\	.	2gg\	.
.	.	.	.	.	.	.	.	16ee\	.	.	.	.	.	.	.	.	.	.	.	.	.	.	.	.	.	.	.	.	.	.	.	.	.
8c\	.	.	.	8c\	.	8g/	.	16ff\	.	.	.	.	.	.	.	.	.	.	.	.	.	.	.	.	.	.	.	.	.	.	.	.	.
.	.	.	.	.	.	.	.	16ee\JJ	.	.	.	.	.	.	.	.	.	.	.	.	.	.	.	.	.	.	.	.	.	.	.	.	.
8c\	.	.	.	8c\	.	8g/	.	4.ee\	.	4.c\	-di	.	4.c\	-ca-	.	4.g\	-ca-	.	4.ee\	-ca-	.	4r	.	4r	.	.	.	.	.	.	.	.	.
8c\J	.	.	.	8c\J	.	8g/J	.	.	.	.	.	.	.	.	.	.	.	.	.	.	.	.	.	.	.	.	.	.	.	.	.	.	.
*Xtremolo	*	*	*	*Xtremolo	*	*Xtremolo	*	*	*	*	*	*	*	*	*	*	*	*	*	*	*	*	*	*	*	*	*	*	*	*	*	*	*
8B\L	6\	.	.	8e\L	.	8g#X/L	.	.	.	.	.	.	.	.	.	.	.	.	.	.	.	4r	.	4r	.	4dd\	.	4dd\	.	4dd\	.	4ee\	.
8B\J	.	.	.	8e\J	.	8g#/J	.	8dd\	.	8B\	pec-	.	8B\	-ta	.	8e\	-ta	.	8dd\	-ta	.	.	.	.	.	.	.	.	.	.	.	.	.
!LO:LB:g=original	!	!	!	!	!	!	!	!	!	!	!	!	!	!	!	!	!	!	!	!	!	!	!	!	!	!	!	!	!	!LO:LB:g=original	!	!	!
!!LO:MO:ori
=36	=36	=36	=36	=36	=36	=36	=36	=36	=36	=36	=36	=36	=36	=36	=36	=36	=36	=36	=36	=36	=36	=36	=36	=36	=36	=36	=36	=36	=36	=36	=36	=36	=36
*tremolo	*	*	*	*tremolo	*	*tremolo	*	*	*	*	*	*	*	*	*	*	*	*	*	*	*	*	*	*	*	*	*	*	*	*	*	*	*
!	!	!	!	!	!	!	!	!	!	!	!	!	!	!	!	!	!	!	!	!	!	!LO:TX:a:mod=:t=5.	!	!LO:TX:a:mod=:t=5.	!	!	!	!	!	!	!	!	!
8A\L	.	.	.	8A/L	.	8e/L	.	16b\LL	.	2A\	-ca-	.	2A\	mun-	.	2e\	mun-	.	2cc\	mun-	.	0.r	.	0.r	.	2cc\	.	2cc\	.	2cc\	.	2ee\	.
.	.	.	.	.	.	.	.	16cc\	.	.	.	.	.	.	.	.	.	.	.	.	.	.	.	.	.	.	.	.	.	.	.	.	.
8A\	.	.	.	8A/	.	8e/	.	16dd\	.	.	.	.	.	.	.	.	.	.	.	.	.	.	.	.	.	.	.	.	.	.	.	.	.
.	.	.	.	.	.	.	.	16cc\JJ	.	.	.	.	.	.	.	.	.	.	.	.	.	.	.	.	.	.	.	.	.	.	.	.	.
8A\	.	.	.	8A/	.	8e/	.	4.cc\	.	.	.	.	.	.	.	.	.	.	.	.	.	.	.	.	.	.	.	.	.	.	.	.	.
8A\J	.	.	.	8A/J	.	8e/J	.	.	.	.	.	.	.	.	.	.	.	.	.	.	.	.	.	.	.	.	.	.	.	.	.	.	.
*Xtremolo	*	*	*	*Xtremolo	*	*Xtremolo	*	*	*	*	*	*	*	*	*	*	*	*	*	*	*	*	*	*	*	*	*	*	*	*	*	*	*
8G\L	.	.	.	8G/L	.	8e/L	.	.	.	4G\	-ta	.	4B\	-di	.	4e\	-di	.	4b\	-di	.	.	.	.	.	4r	.	4r	.	4b\	.	4cc\	.
8G\J	.	.	.	8G/J	.	8e/J	.	8b\	.	.	.	.	.	.	.	.	.	.	.	.	.	.	.	.	.	.	.	.	.	.	.	.	.
!	!	!	!	!LO:LB:g=original	!	!LO:LB:g=original	!	!	!	!	!	!	!	!	!	!	!	!	!LO:PB:g=original	!	!	!	!	!	!	!	!	!	!	!	!	!	!
=37	=37	=37	=37	=37	=37	=37	=37	=37	=37	=37	=37	=37	=37	=37	=37	=37	=37	=37	=37	=37	=37	=37	=37	=37	=37	=37	=37	=37	=37	=37	=37	=37	=37
*tremolo	*	*	*	*	*	*	*	*	*	*	*	*	*	*	*	*	*	*	*	*	*	*	*	*	*	*	*	*	*	*	*	*	*
!	!	!	!	!LO:TX:mod=:t=P:problem=mixed beam	!	!LO:TX:mod=:t=P:problem=mixed beam	!	!LO:TX:mod=:t=P:problem=mixed beam	!	!	!	!	!LO:SIC:v:s=2c	!	!	!	!	!	!	!	!	!	!	!	!	!LO:TX:a:t=4:mod=.	!	!LO:TX:a:t=4:mod=.	!	!	!	!	!
8F\L	5 3	.	.	8F/L	.	8c/L	.	8a/L	.	2F\	mun-	.	2B\	mun-	.	2f\	pec-	.	2a\	mun-	.	.	.	.	.	0.r	.	0.r	.	2a/	.	2.aa\	.
8F\	.	.	.	8f\	.	8cc\	.	8aa\J	.	.	.	.	.	.	.	.	.	.	.	.	.	.	.	.	.	.	.	.	.	.	.	.	.
8F\	.	.	.	8f\	.	8cc\	.	4.aa\	.	.	.	.	.	.	.	.	.	.	.	.	.	.	.	.	.	.	.	.	.	.	.	.	.
8F\J	.	.	.	8f\	.	8cc\J	.	.	.	.	.	.	.	.	.	.	.	.	.	.	.	.	.	.	.	.	.	.	.	.	.	.	.
*Xtremolo	*	*	*	*	*	*	*	*	*	*	*	*	*	*	*	*	*	*	*	*	*	*	*	*	*	*	*	*	*	*	*	*	*
8E\L	6\	.	.	8f\	.	8cc#X\L	.	.	.	4E\	-di	.	4e\	-di	.	4f\	.	.	4a\	-di	.	.	.	.	.	.	.	.	.	4ee\	.	.	.
8E\J	.	.	.	8e\J	.	8cc#\J	.	8gg\	.	.	.	.	.	.	.	.	.	.	.	.	.	.	.	.	.	.	.	.	.	.	.	.	.
!	!	!	!	!	!	!	!	!	!	!LO:LB:g=original	!	!	!	!	!	!	!	!	!	!	!	!	!	!	!	!	!	!	!	!	!	!	!
=38	=38	=38	=38	=38	=38	=38	=38	=38	=38	=38	=38	=38	=38	=38	=38	=38	=38	=38	=38	=38	=38	=38	=38	=38	=38	=38	=38	=38	=38	=38	=38	=38	=38
*	*	*	*	*	*	*tremolo	*	*	*	*	*	*	*	*	*	*	*	*	*	*	*	*	*	*	*	*	*	*	*	*	*	*	*
8D\L	.	.	.	8d\L	.	8a/L	.	(16gg\LL	.	(4D\	mi-	.	(4d\	mi-	.	(4f\	-ca-	.	2.a\	pec-	.	.	.	.	.	.	.	.	.	4dd\	.	2.aa\	.
.	.	.	.	.	.	.	.	16ff\)	.	.	.	.	.	.	.	.	.	.	.	.	.	.	.	.	.	.	.	.	.	.	.	.	.
8D\	.	.	.	8d\	.	8a/	.	16ff'\	.	.	.	.	.	.	.	.	.	.	.	.	.	.	.	.	.	.	.	.	.	.	.	.	.
.	.	.	.	.	.	.	.	16ff'\JJ	.	.	.	.	.	.	.	.	.	.	.	.	.	.	.	.	.	.	.	.	.	.	.	.	.
8E\	6\	.	.	8e\	.	8a/	.	16dd\LL	.	4E\)	.	.	4c#X\)	.	.	4e\)	.	.	.	.	.	.	.	.	.	.	.	.	.	4cc#X\	.	.	.
.	.	.	.	.	.	.	.	16cc#X\	.	.	.	.	.	.	.	.	.	.	.	.	.	.	.	.	.	.	.	.	.	.	.	.	.
8E\	.	.	.	8e\	.	8a/	.	16cc#\	.	.	.	.	.	.	.	.	.	.	.	.	.	.	.	.	.	.	.	.	.	.	.	.	.
.	.	.	.	.	.	.	.	16cc#\JJ	.	.	.	.	.	.	.	.	.	.	.	.	.	.	.	.	.	.	.	.	.	.	.	.	.
8F\	6	.	.	8f\	.	8a/	.	16cc#\LL	.	4F\	-se-	.	4d\	-se-	.	4d\	-ta	.	.	.	.	.	.	.	.	.	.	.	.	4dd\	.	.	.
.	.	.	.	.	.	.	.	16dd\	.	.	.	.	.	.	.	.	.	.	.	.	.	.	.	.	.	.	.	.	.	.	.	.	.
8F\J	.	.	.	8f\J	.	8a/J	.	16dd\	.	.	.	.	.	.	.	.	.	.	.	.	.	.	.	.	.	.	.	.	.	.	.	.	.
.	.	.	.	.	.	.	.	16dd\JJ	.	.	.	.	.	.	.	.	.	.	.	.	.	.	.	.	.	.	.	.	.	.	.	.	.
!	!	!	!	!	!	!	!	!LO:LB:g=original	!	!	!	!	!LO:LB:g=original	!	!	!	!	!	!	!	!	!	!	!	!	!	!	!	!	!	!	!	!
=39	=39	=39	=39	=39	=39	=39	=39	=39	=39	=39	=39	=39	=39	=39	=39	=39	=39	=39	=39	=39	=39	=39	=39	=39	=39	=39	=39	=39	=39	=39	=39	=39	=39
8C#X/L	6	.	.	8c#X\L	.	8a/L	.	16dd#X\LL	.	4C#X/	-re-	.	4A/	-re-	.	4e\	mun-	.	2a\	-ca-	.	.	.	.	.	.	.	.	.	4ee\	.	2.aa\	.
.	.	.	.	.	.	.	.	16ee\	.	.	.	.	.	.	.	.	.	.	.	.	.	.	.	.	.	.	.	.	.	.	.	.	.
8C#/J	.	.	.	8c#\J	.	8a/	.	16ee\	.	.	.	.	.	.	.	.	.	.	.	.	.	.	.	.	.	.	.	.	.	.	.	.	.
.	.	.	.	.	.	.	.	16ee\JJ	.	.	.	.	.	.	.	.	.	.	.	.	.	.	.	.	.	.	.	.	.	.	.	.	.
*tremolo	*	*	*	*tremolo	*	*	*	*	*	*	*	*	*	*	*	*	*	*	*	*	*	*	*	*	*	*	*	*	*	*	*	*	*
!	!	!	!	!LO:SIC:v:s=8dL	!	!	!	!	!	!	!	!	!	!	!	!	!	!	!	!	!	!	!	!	!	!	!	!	!	!	!	!	!
8D\L	.	.	.	8c#\L	.	8a/	.	16gg\LL	.	4D/	-re	.	4A/	-re	.	4f\	-di	.	.	.	.	.	.	.	.	.	.	.	.	4ff\	.	.	.
.	.	.	.	.	.	.	.	16ff\	.	.	.	.	.	.	.	.	.	.	.	.	.	.	.	.	.	.	.	.	.	.	.	.	.
!	!	!	!	!LO:SIC:v:s=8d	!	!	!	!	!	!	!	!	!	!	!	!	!	!	!	!	!	!	!	!	!	!	!	!	!	!	!	!	!
8D\	.	.	.	8c#\	.	8a/	.	16ff\	.	.	.	.	.	.	.	.	.	.	.	.	.	.	.	.	.	.	.	.	.	.	.	.	.
.	.	.	.	.	.	.	.	16ff\JJ	.	.	.	.	.	.	.	.	.	.	.	.	.	.	.	.	.	.	.	.	.	.	.	.	.
!	!	!	!	!LO:SIC:v:s=8d	!	!	!	!	!	!	!	!	!	!	!	!	!	!	!	!	!	!	!	!	!	!	!	!	!	!	!	!	!
8D\	.	.	.	8c#\	.	8a/	.	16ee\LL	.	4r	.	.	4r	.	.	4r	.	.	4a\	-ta	.	.	.	.	.	.	.	.	.	4ff\	.	.	.
.	.	.	.	.	.	.	.	16ff\	.	.	.	.	.	.	.	.	.	.	.	.	.	.	.	.	.	.	.	.	.	.	.	.	.
!	!	!	!	!LO:SIC:v:s=8dJ	!	!	!	!	!	!	!	!	!	!	!	!	!	!	!	!	!	!	!	!	!	!	!	!	!	!	!	!	!
8D\J	.	.	.	8c#\J	.	8a/J	.	16ff\	.	.	.	.	.	.	.	.	.	.	.	.	.	.	.	.	.	.	.	.	.	.	.	.	.
.	.	.	.	.	.	.	.	16ff\JJ	.	.	.	.	.	.	.	.	.	.	.	.	.	.	.	.	.	.	.	.	.	.	.	.	.
=40	=40	=40	=40	=40	=40	=40	=40	=40	=40	=40	=40	=40	=40	=40	=40	=40	=40	=40	=40	=40	=40	=40	=40	=40	=40	=40	=40	=40	=40	=40	=40	=40	=40
!	!	!	!	!	!	!	!	!LO:TX:mod=:t=P:problem=mixed beam	!	!	!	!	!	!	!	!	!	!	!	!	!	!	!	!	!	!	!	!	!	!	!	!	!
8F\L	5	.	.	8f\L	.	8A/L	.	16a/LL	.	2.F\	no-	.	2.A\	no-	.	2.a\	mun-	.	2cc\	mun-	.	2.r	.	2.r	.	.	.	.	.	4r	.	2.aa\	.
.	.	.	.	.	.	.	.	16aa\	.	.	.	.	.	.	.	.	.	.	.	.	.	.	.	.	.	.	.	.	.	.	.	.	.
8F\	.	.	.	8f\	.	8A/	.	16aa\	.	.	.	.	.	.	.	.	.	.	.	.	.	.	.	.	.	.	.	.	.	.	.	.	.
.	.	.	.	.	.	.	.	16aa\JJ	.	.	.	.	.	.	.	.	.	.	.	.	.	.	.	.	.	.	.	.	.	.	.	.	.
8F\	6\	.	.	8f\	.	8A/	.	16aa\LL	.	.	.	.	.	.	.	.	.	.	.	.	.	.	.	.	.	.	.	.	.	4cc\	.	.	.
.	.	.	.	.	.	.	.	16gg#X\	.	.	.	.	.	.	.	.	.	.	.	.	.	.	.	.	.	.	.	.	.	.	.	.	.
8F\	.	.	.	8f\	.	8A/J	.	16aa\	.	.	.	.	.	.	.	.	.	.	.	.	.	.	.	.	.	.	.	.	.	.	.	.	.
.	.	.	.	.	.	.	.	16gg#\JJ	.	.	.	.	.	.	.	.	.	.	.	.	.	.	.	.	.	.	.	.	.	.	.	.	.
*	*	*	*	*	*	*Xtremolo	*	*	*	*	*	*	*	*	*	*	*	*	*	*	*	*	*	*	*	*	*	*	*	*	*	*	*
!	!	!	!	!	!	!	!	!LO:TX:mod=:t=P:problem=mixed beam	!	!	!	!	!	!	!	!	!	!	!	!	!	!	!	!	!	!	!	!	!	!	!	!	!
8F\	.	.	.	8f\	.	8d#X/L	.	16aa\LL	.	.	.	.	.	.	.	.	.	.	4dd#X\	.	.	.	.	.	.	.	.	.	.	4a/	.	.	.
.	.	.	.	.	.	.	.	16a/	.	.	.	.	.	.	.	.	.	.	.	.	.	.	.	.	.	.	.	.	.	.	.	.	.
8F\J	.	.	.	8f\J	.	8d#/J	.	16b/	.	.	.	.	.	.	.	.	.	.	.	.	.	.	.	.	.	.	.	.	.	.	.	.	.
.	.	.	.	.	.	.	.	16a/JJ	.	.	.	.	.	.	.	.	.	.	.	.	.	.	.	.	.	.	.	.	.	.	.	.	.
*Xtremolo	*	*	*	*Xtremolo	*	*	*	*	*	*	*	*	*	*	*	*	*	*	*	*	*	*	*	*	*	*	*	*	*	*	*	*	*
!	!	!	!	!	!	!	!	!	!	!	!	!	!	!	!	!	!	!	!	!	!	!	!	!	!	!LO:LB:g=original	!	!	!	!	!	!	!
!!LO:MO:mod
!! =36	=36	=36	=36	=36	=36	=36	=36	=36	=36	=36	=36	=36	=36	=36	=36	=36	=36	=36	=36	=36	=36	=36	=36	=36	=36	=36	=36	=36	=36	=36	=36	=36	=36
!! *tremolo	*	*	*	*tremolo	*	*tremolo	*	*	*	*	*	*	*	*	*	*	*	*	*	*	*	*	*	*	*	*	*	*	*	*	*	*	*
!! 8A\L	.	.	.	8A/L	.	8e/L	.	16b\LL	.	2A\	-ca-	.	2A\	mun-	.	2e\	mun-	.	2cc\	mun-	.	0.r	.	0.r	.	2cc\	.	2cc\	.	2cc\	.	2ee\	.
!! .	.	.	.	.	.	.	.	16cc\	.	.	.	.	.	.	.	.	.	.	.	.	.	.	.	.	.	.	.	.	.	.	.	.	.
!! 8A\	.	.	.	8A/	.	8e/	.	16dd\	.	.	.	.	.	.	.	.	.	.	.	.	.	.	.	.	.	.	.	.	.	.	.	.	.
!! .	.	.	.	.	.	.	.	16cc\JJ	.	.	.	.	.	.	.	.	.	.	.	.	.	.	.	.	.	.	.	.	.	.	.	.	.
!! 8A\	.	.	.	8A/	.	8e/	.	4.cc\	.	.	.	.	.	.	.	.	.	.	.	.	.	.	.	.	.	.	.	.	.	.	.	.	.
!! 8A\J	.	.	.	8A/J	.	8e/J	.	.	.	.	.	.	.	.	.	.	.	.	.	.	.	.	.	.	.	.	.	.	.	.	.	.	.
!! *Xtremolo	*	*	*	*Xtremolo	*	*Xtremolo	*	*	*	*	*	*	*	*	*	*	*	*	*	*	*	*	*	*	*	*	*	*	*	*	*	*	*
!! 8G\L	.	.	.	8G/L	.	8e/L	.	.	.	4G\	-ta	.	4B\	-di	.	4e\	-di	.	4b\	-di	.	.	.	.	.	4r	.	4r	.	4b\	.	4cc\	.
!! 8G\J	.	.	.	8G/J	.	8e/J	.	8b\	.	.	.	.	.	.	.	.	.	.	.	.	.	.	.	.	.	.	.	.	.	.	.	.	.
!! !	!	!	!	!LO:LB:g=original	!	!LO:LB:g=original	!	!	!	!	!	!	!	!	!	!	!	!	!LO:PB:g=original	!	!	!	!	!	!	!	!	!	!	!	!	!	!
!! =37	=37	=37	=37	=37	=37	=37	=37	=37	=37	=37	=37	=37	=37	=37	=37	=37	=37	=37	=37	=37	=37	=37	=37	=37	=37	=37	=37	=37	=37	=37	=37	=37	=37
!! *tremolo	*	*	*	*	*	*	*	*	*	*	*	*	*	*	*	*	*	*	*	*	*	*	*	*	*	*	*	*	*	*	*	*	*
!! 8F\L	5 3	.	.	8F/L	.	8c/L	.	8a/L	.	2F\	mun-	.	2c\	mun-	.	2f\	pec-	.	2a\	mun-	.	.	.	.	.	0.r	.	0.r	.	2a/	.	2.aa\	.
!! 8F\	.	.	.	8f\	.	8cc\	.	8aa\J	.	.	.	.	.	.	.	.	.	.	.	.	.	.	.	.	.	.	.	.	.	.	.	.	.
!! 8F\	.	.	.	8f\	.	8cc\	.	4.aa\	.	.	.	.	.	.	.	.	.	.	.	.	.	.	.	.	.	.	.	.	.	.	.	.	.
!! 8F\J	.	.	.	8f\	.	8cc\J	.	.	.	.	.	.	.	.	.	.	.	.	.	.	.	.	.	.	.	.	.	.	.	.	.	.	.
!! *Xtremolo	*	*	*	*	*	*	*	*	*	*	*	*	*	*	*	*	*	*	*	*	*	*	*	*	*	*	*	*	*	*	*	*	*
!! 8E\L	6\	.	.	8f\	.	8cc#X\L	.	.	.	4E\	-di	.	4e\	-di	.	4f\	.	.	4a\	-di	.	.	.	.	.	.	.	.	.	4ee\	.	.	.
!! 8E\J	.	.	.	8e\J	.	8cc#\J	.	8gg\	.	.	.	.	.	.	.	.	.	.	.	.	.	.	.	.	.	.	.	.	.	.	.	.	.
!! !	!	!	!	!	!	!	!	!	!	!LO:LB:g=original	!	!	!	!	!	!	!	!	!	!	!	!	!	!	!	!	!	!	!	!	!	!	!
!! =38	=38	=38	=38	=38	=38	=38	=38	=38	=38	=38	=38	=38	=38	=38	=38	=38	=38	=38	=38	=38	=38	=38	=38	=38	=38	=38	=38	=38	=38	=38	=38	=38	=38
!! *	*	*	*	*	*	*tremolo	*	*	*	*	*	*	*	*	*	*	*	*	*	*	*	*	*	*	*	*	*	*	*	*	*	*	*
!! 8D\L	.	.	.	8d\L	.	8a/L	.	(16gg\LL	.	(4D\	mi-	.	(4d\	mi-	.	(4f\	-ca-	.	2.a\	pec-	.	.	.	.	.	.	.	.	.	4dd\	.	2.aa\	.
!! .	.	.	.	.	.	.	.	16ff\)	.	.	.	.	.	.	.	.	.	.	.	.	.	.	.	.	.	.	.	.	.	.	.	.	.
!! 8D\	.	.	.	8d\	.	8a/	.	16ff'\	.	.	.	.	.	.	.	.	.	.	.	.	.	.	.	.	.	.	.	.	.	.	.	.	.
!! .	.	.	.	.	.	.	.	16ff'\JJ	.	.	.	.	.	.	.	.	.	.	.	.	.	.	.	.	.	.	.	.	.	.	.	.	.
!! 8E\	6\	.	.	8e\	.	8a/	.	(16dd\LL	.	4E\)	.	.	4c#X\)	.	.	4e\)	.	.	.	.	.	.	.	.	.	.	.	.	.	4cc#X\	.	.	.
!! .	.	.	.	.	.	.	.	16cc#X\)	.	.	.	.	.	.	.	.	.	.	.	.	.	.	.	.	.	.	.	.	.	.	.	.	.
!! 8E\	.	.	.	8e\	.	8a/	.	16cc#\'	.	.	.	.	.	.	.	.	.	.	.	.	.	.	.	.	.	.	.	.	.	.	.	.	.
!! .	.	.	.	.	.	.	.	16cc#\JJ'	.	.	.	.	.	.	.	.	.	.	.	.	.	.	.	.	.	.	.	.	.	.	.	.	.
!! 8F\	6	.	.	8f\	.	8a/	.	(16cc#\LL	.	4F\	-se-	.	4d\	-se-	.	4d\	-ta	.	.	.	.	.	.	.	.	.	.	.	.	4dd\	.	.	.
!! .	.	.	.	.	.	.	.	16dd\)	.	.	.	.	.	.	.	.	.	.	.	.	.	.	.	.	.	.	.	.	.	.	.	.	.
!! 8F\J	.	.	.	8f\J	.	8a/J	.	16dd\'	.	.	.	.	.	.	.	.	.	.	.	.	.	.	.	.	.	.	.	.	.	.	.	.	.
!! .	.	.	.	.	.	.	.	16dd\JJ'	.	.	.	.	.	.	.	.	.	.	.	.	.	.	.	.	.	.	.	.	.	.	.	.	.
!! !	!	!	!	!	!	!	!	!LO:LB:g=original	!	!	!	!	!LO:LB:g=original	!	!	!	!	!	!	!	!	!	!	!	!	!	!	!	!	!	!	!	!
!! =39	=39	=39	=39	=39	=39	=39	=39	=39	=39	=39	=39	=39	=39	=39	=39	=39	=39	=39	=39	=39	=39	=39	=39	=39	=39	=39	=39	=39	=39	=39	=39	=39	=39
!! 8C#X/L	6	.	.	8c#X\L	.	8a/L	.	(16dd#X\LL	.	4C#X/	-re-	.	4A/	-re-	.	4e\	mun-	.	2a\	-ca-	.	.	.	.	.	.	.	.	.	4ee\	.	2.aa\	.
!! .	.	.	.	.	.	.	.	16ee\)	.	.	.	.	.	.	.	.	.	.	.	.	.	.	.	.	.	.	.	.	.	.	.	.	.
!! 8C#/J	.	.	.	8c#\J	.	8a/	.	16ee\'	.	.	.	.	.	.	.	.	.	.	.	.	.	.	.	.	.	.	.	.	.	.	.	.	.
!! .	.	.	.	.	.	.	.	16ee\JJ'	.	.	.	.	.	.	.	.	.	.	.	.	.	.	.	.	.	.	.	.	.	.	.	.	.
!! *tremolo	*	*	*	*tremolo	*	*	*	*	*	*	*	*	*	*	*	*	*	*	*	*	*	*	*	*	*	*	*	*	*	*	*	*	*
!! 8D\L	.	.	.	8d\L	.	8a/	.	(16gg\LL	.	4D/	-re	.	4A/	-re	.	4f\	-di	.	.	.	.	.	.	.	.	.	.	.	.	4ff\	.	.	.
!! .	.	.	.	.	.	.	.	16ff\)	.	.	.	.	.	.	.	.	.	.	.	.	.	.	.	.	.	.	.	.	.	.	.	.	.
!! 8D\	.	.	.	8d\	.	8a/	.	16ff\'	.	.	.	.	.	.	.	.	.	.	.	.	.	.	.	.	.	.	.	.	.	.	.	.	.
!! .	.	.	.	.	.	.	.	16ff\JJ'	.	.	.	.	.	.	.	.	.	.	.	.	.	.	.	.	.	.	.	.	.	.	.	.	.
!! 8D\	.	.	.	8d\	.	8a/	.	(16ee\LL	.	4r	.	.	4r	.	.	4r	.	.	4a\	-ta	.	.	.	.	.	.	.	.	.	4ff\	.	.	.
!! .	.	.	.	.	.	.	.	16ff\)	.	.	.	.	.	.	.	.	.	.	.	.	.	.	.	.	.	.	.	.	.	.	.	.	.
!! 8D\J	.	.	.	8d\J	.	8a/J	.	16ff\'	.	.	.	.	.	.	.	.	.	.	.	.	.	.	.	.	.	.	.	.	.	.	.	.	.
!! .	.	.	.	.	.	.	.	16ff\JJ'	.	.	.	.	.	.	.	.	.	.	.	.	.	.	.	.	.	.	.	.	.	.	.	.	.
!! =40	=40	=40	=40	=40	=40	=40	=40	=40	=40	=40	=40	=40	=40	=40	=40	=40	=40	=40	=40	=40	=40	=40	=40	=40	=40	=40	=40	=40	=40	=40	=40	=40	=40
!! 8F\L	5	.	.	8f\L	.	8A/L	.	16a/LL	.	2.F\	no-	.	2.A\	no-	.	2.a\	mun-	.	2cc\	mun-	.	2.r	.	2.r	.	.	.	.	.	4r	.	2.aa\	.
!! .	.	.	.	.	.	.	.	16aa\	.	.	.	.	.	.	.	.	.	.	.	.	.	.	.	.	.	.	.	.	.	.	.	.	.
!! 8F\	.	.	.	8f\	.	8A/	.	16aa\	.	.	.	.	.	.	.	.	.	.	.	.	.	.	.	.	.	.	.	.	.	.	.	.	.
!! .	.	.	.	.	.	.	.	16aa\JJ	.	.	.	.	.	.	.	.	.	.	.	.	.	.	.	.	.	.	.	.	.	.	.	.	.
!! 8F\	6\	.	.	8f\	.	8A/	.	16aa\LL	.	.	.	.	.	.	.	.	.	.	.	.	.	.	.	.	.	.	.	.	.	4cc\	.	.	.
!! .	.	.	.	.	.	.	.	16gg#X\	.	.	.	.	.	.	.	.	.	.	.	.	.	.	.	.	.	.	.	.	.	.	.	.	.
!! 8F\	.	.	.	8f\	.	8A/J	.	16aa\	.	.	.	.	.	.	.	.	.	.	.	.	.	.	.	.	.	.	.	.	.	.	.	.	.
!! .	.	.	.	.	.	.	.	16gg#\JJ	.	.	.	.	.	.	.	.	.	.	.	.	.	.	.	.	.	.	.	.	.	.	.	.	.
!! *	*	*	*	*	*	*Xtremolo	*	*	*	*	*	*	*	*	*	*	*	*	*	*	*	*	*	*	*	*	*	*	*	*	*	*	*
!! 8F\	.	.	.	8f\	.	8d#X/L	.	16aa\LL	.	.	.	.	.	.	.	.	.	.	4dd#X\	.	.	.	.	.	.	.	.	.	.	4a/	.	.	.
!! .	.	.	.	.	.	.	.	16a/	.	.	.	.	.	.	.	.	.	.	.	.	.	.	.	.	.	.	.	.	.	.	.	.	.
!! 8F\J	.	.	.	8f\J	.	8d#/J	.	16b/	.	.	.	.	.	.	.	.	.	.	.	.	.	.	.	.	.	.	.	.	.	.	.	.	.
!! .	.	.	.	.	.	.	.	16a/JJ	.	.	.	.	.	.	.	.	.	.	.	.	.	.	.	.	.	.	.	.	.	.	.	.	.
!! *Xtremolo	*	*	*	*Xtremolo	*	*	*	*	*	*	*	*	*	*	*	*	*	*	*	*	*	*	*	*	*	*	*	*	*	*	*	*	*
!! !	!	!	!	!	!	!	!	!	!	!	!	!	!	!	!	!	!	!	!	!	!	!	!	!	!	!LO:LB:g=original	!	!	!	!	!	!	!
!!LO:MO:end
=41	=41	=41	=41	=41	=41	=41	=41	=41	=41	=41	=41	=41	=41	=41	=41	=41	=41	=41	=41	=41	=41	=41	=41	=41	=41	=41	=41	=41	=41	=41	=41	=41	=41
4E\	#	.	.	4e\	.	4e/	.	16g#X\LL	.	4E\	-bis	.	4B\	-bis	.	4g#X\	-di	.	4ee\	-di	.	4e/	.	4e/	.	4e/	.	4ee\	.	4b\	.	4gg#X\	.
.	.	.	.	.	.	.	.	16b\	.	.	.	.	.	.	.	.	.	.	.	.	.	.	.	.	.	.	.	.	.	.	.	.	.
.	.	.	.	.	.	.	.	16dd#X\	.	.	.	.	.	.	.	.	.	.	.	.	.	.	.	.	.	.	.	.	.	.	.	.	.
.	.	.	.	.	.	.	.	16ee\JJ	.	.	.	.	.	.	.	.	.	.	.	.	.	.	.	.	.	.	.	.	.	.	.	.	.
8r	.	.	.	8r	.	4r	.	8e/	.	4r	.	.	4r	.	.	4r	.	.	4r	.	.	4e/	.	4e/	.	4e/	.	4ee\	.	4r	.	4r	.
!	!	!	!	!LO:MO:mod=8eL	!	!	!	!	!	!	!	!	!	!	!	!	!	!	!	!	!	!	!	!	!	!	!	!	!	!	!	!	!
8E|/L	.	.	.	8e\	.	.	.	8r	.	.	.	.	.	.	.	.	.	.	.	.	.	.	.	.	.	.	.	.	.	.	.	.	.
!	!	!	!	!LO:MO:mod=8B	!	!	!	!	!	!	!	!	!	!	!	!	!	!	!	!	!	!	!	!	!	!	!	!	!	!	!	!	!
8BB|/	.	.	.	8B/L	.	4r	.	4r	.	4r	.	.	4r	.	.	4r	.	.	4r	.	.	4r	.	4r	.	4r	.	4r	.	4r	.	4r	.
8GG#X|/J	.	.	.	8G#X/J	.	.	.	.	.	.	.	.	.	.	.	.	.	.	.	.	.	.	.	.	.	.	.	.	.	.	.	.	.
=42	=42	=42	=42	=42	=42	=42	=42	=42	=42	=42	=42	=42	=42	=42	=42	=42	=42	=42	=42	=42	=42	=42	=42	=42	=42	=42	=42	=42	=42	=42	=42	=42	=42
*	*	*	*	*tremolo	*	*tremolo	*	*	*	*	*	*	*	*	*	*	*	*	*	*	*	*	*	*	*	*	*	*	*	*	*	*	*
!	!	!LO:DY:a:t=pp&colon;	!	!	!LO:DY:t= :mod=%s	!	!LO:DY:a	!	!LO:DY:b:t=pia	!	!	!LO:DY:a:t=p&colon;	!	!	!LO:DY:rj:a:t=p&colon;:mod=	!	!	!LO:DY:rj:t=p&colon;:mod=	!	!	!LO:DY:rj:a:t=pp&colon;:mod=	!LO:TX:a:mod=:t=6.	!	!LO:TX:a:mod=:t=6.	!	!	!LO:DY:t= :mod=%s	!	!LO:DY:t= :mod=%s	!	!LO:DY:a:t=p.	!	!LO:DY:t=p.:mod=
!	!	!	!	!	!LO:MO:mod=!LO&colon;DY&colon;ed=brack	!	!	!	!	!	!	!	!	!	!	!	!	!	!	!	!LO:MO:mod=p	!	!	!	!	!	!LO:MO:mod=!LO&colon;DY&colon;ed=brack	!	!LO:MO:mod=!LO&colon;DY&colon;ed=brack	!	!	!	!
!	!	!	!	!	!null	!	!	!	!	!	!	!	!	!	!	!	!	!	!	!	!	!	!	!	!	!	!null	!	!null	!	!	!	!
4EE/	.	pp	.	8G#X/L	p	(8B/L	p	8g#X/L	p	2E\	mi-	p	2e\	mi-	p	2d\	mi-	p	2g#X\	mi-	pp	0.r	.	0.r	.	2.e/	p	2.ee\	p	2.b\	p	2.dd\	p
.	.	.	.	8B/	.	8d/)	.	8e/J	.	.	.	.	.	.	.	.	.	.	.	.	.	.	.	.	.	.	.	.	.	.	.	.	.
4E\	.	.	.	8G#/	.	(8B/	.	16r	.	.	.	.	.	.	.	.	.	.	.	.	.	.	.	.	.	.	.	.	.	.	.	.	.
.	.	.	.	.	.	.	.	16g#/LL	.	.	.	.	.	.	.	.	.	.	.	.	.	.	.	.	.	.	.	.	.	.	.	.	.
.	.	.	.	8B/	.	8d/)	.	16f#X/	.	.	.	.	.	.	.	.	.	.	.	.	.	.	.	.	.	.	.	.	.	.	.	.	.
.	.	.	.	.	.	.	.	16g#/JJ	.	.	.	.	.	.	.	.	.	.	.	.	.	.	.	.	.	.	.	.	.	.	.	.	.
4r	.	.	.	8G#/	.	(8B/	.	16a/LL	.	4E\	-ſe-	.	4e\	-ſe-	.	4d\	-ſe-	.	4g#\	-ſe-	.	.	.	.	.	.	.	.	.	.	.	.	.
.	.	.	.	.	.	.	.	16g#/	.	.	.	.	.	.	.	.	.	.	.	.	.	.	.	.	.	.	.	.	.	.	.	.	.
.	.	.	.	8B/J	.	8d/J)	.	16f#/	.	.	.	.	.	.	.	.	.	.	.	.	.	.	.	.	.	.	.	.	.	.	.	.	.
.	.	.	.	.	.	.	.	16g#/JJ	.	.	.	.	.	.	.	.	.	.	.	.	.	.	.	.	.	.	.	.	.	.	.	.	.
!	!	!	!	!	!	!	!	!LO:LB:g=original	!	!	!	!	!	!	!	!	!	!	!	!	!	!	!	!	!	!	!	!	!	!	!	!	!
=43	=43	=43	=43	=43	=43	=43	=43	=43	=43	=43	=43	=43	=43	=43	=43	=43	=43	=43	=43	=43	=43	=43	=43	=43	=43	=43	=43	=43	=43	=43	=43	=43	=43
!	!	!	!	!	!	!	!	!	!	!	!	!	!	!	!	!	!	!	!	!	!	!	!	!	!	!	!	!LO:TX:t=P:problem=takt 43 zapisany repetycją:mod=	!	!	!	!	!
!	!	!	!	!	!	!	!	!	!	!	!	!	!	!	!	!	!	!	!	!	!	!	!	!	!	!	!	!LO:MO:mod=2.ee	!	!	!	!	!
4E|\	6 4	.	.	8A/L	.	(8c/L	.	8a/L	.	2E\	-re-	.	2e\	-re-	.	2c\	-re-	.	2a\	-re-	.	.	.	.	.	2.e/	.	2.ee\yy	.	2.a\	.	2.cc\	.
.	.	.	.	8c/	.	8e/)	.	8e/J	.	.	.	.	.	.	.	.	.	.	.	.	.	.	.	.	.	.	.	.	.	.	.	.	.
4EE|/	_	.	.	8A/	.	(8c/	.	16r	.	.	.	.	.	.	.	.	.	.	.	.	.	.	.	.	.	.	.	.	.	.	.	.	.
.	.	.	.	.	.	.	.	16a/LL	.	.	.	.	.	.	.	.	.	.	.	.	.	.	.	.	.	.	.	.	.	.	.	.	.
.	.	.	.	8c/	.	8e/)	.	16g#X/	.	.	.	.	.	.	.	.	.	.	.	.	.	.	.	.	.	.	.	.	.	.	.	.	.
.	.	.	.	.	.	.	.	16a/JJ	.	.	.	.	.	.	.	.	.	.	.	.	.	.	.	.	.	.	.	.	.	.	.	.	.
4r	x	.	.	8A/	.	(8c/	.	16b/LL	.	4E\	-re	.	4e\	-re	.	4e\	-re	.	4a\	-re	.	.	.	.	.	.	.	.	.	.	.	.	.
.	.	.	.	.	.	.	.	16a/	.	.	.	.	.	.	.	.	.	.	.	.	.	.	.	.	.	.	.	.	.	.	.	.	.
.	.	.	.	8c/J	.	8e/J)	.	16g#/	.	.	.	.	.	.	.	.	.	.	.	.	.	.	.	.	.	.	.	.	.	.	.	.	.
.	.	.	.	.	.	.	.	16a/JJ	.	.	.	.	.	.	.	.	.	.	.	.	.	.	.	.	.	.	.	.	.	.	.	.	.
=44	=44	=44	=44	=44	=44	=44	=44	=44	=44	=44	=44	=44	=44	=44	=44	=44	=44	=44	=44	=44	=44	=44	=44	=44	=44	=44	=44	=44	=44	=44	=44	=44	=44
*	*	*	*	*	*	*	*	*	*	*	*ij	*	*	*	*	*	*	*	*	*	*	*	*	*	*	*	*	*	*	*	*	*	*
4E|\	5 #	.	.	8B/L	.	8g#X/L	.	8b/L	.	2E\	mi-	.	2G#X/	mi-	.	2e\	mi-	.	2b\	mi-	.	.	.	.	.	2.e/	.	2.ee\	.	2.g#X/	.	2.b\	.
.	.	.	.	8G#X/	.	8e/	.	8e/J	.	.	.	.	.	.	.	.	.	.	.	.	.	.	.	.	.	.	.	.	.	.	.	.	.
4EE|/	.	.	.	8B/	.	8g#/	.	16r	.	.	.	.	.	.	.	.	.	.	.	.	.	.	.	.	.	.	.	.	.	.	.	.	.
.	.	.	.	.	.	.	.	16b/LL	.	.	.	.	.	.	.	.	.	.	.	.	.	.	.	.	.	.	.	.	.	.	.	.	.
.	.	.	.	8G#X/	.	8e/	.	16a/	.	.	.	.	.	.	.	.	.	.	.	.	.	.	.	.	.	.	.	.	.	.	.	.	.
.	.	.	.	.	.	.	.	16b/JJ	.	.	.	.	.	.	.	.	.	.	.	.	.	.	.	.	.	.	.	.	.	.	.	.	.
4r	.	.	.	8B/	.	8g#/	.	16cc/LL	.	4E\	-ſe-	.	4G#/	-ſe-	.	4e\	-ſe-	.	4b\	-ſe-	.	.	.	.	.	.	.	.	.	.	.	.	.
.	.	.	.	.	.	.	.	16b/	.	.	.	.	.	.	.	.	.	.	.	.	.	.	.	.	.	.	.	.	.	.	.	.	.
.	.	.	.	8G#X/J	.	8e/J	.	16a/	.	.	.	.	.	.	.	.	.	.	.	.	.	.	.	.	.	.	.	.	.	.	.	.	.
.	.	.	.	.	.	.	.	16b/JJ	.	.	.	.	.	.	.	.	.	.	.	.	.	.	.	.	.	.	.	.	.	.	.	.	.
*	*	*	*	*Xtremolo	*	*Xtremolo	*	*	*	*	*	*	*	*	*	*	*	*	*	*	*	*	*	*	*	*	*	*	*	*	*	*	*
!	!	!	!	!LO:LB:g=original	!	!	!	!	!	!	!	!	!	!	!	!	!	!	!LO:LB:g=original	!	!	!	!	!	!	!	!	!	!	!	!	!	!
=45	=45	=45	=45	=45	=45	=45	=45	=45	=45	=45	=45	=45	=45	=45	=45	=45	=45	=45	=45	=45	=45	=45	=45	=45	=45	=45	=45	=45	=45	=45	=45	=45	=45
4E\	6 4	.	.	8c/L	.	8a/L	.	8cc\L	.	2E\	-re-	.	2A/	-re-	.	2e\	-re-	.	2cc\	-re-	.	.	.	.	.	4e/	.	4ee\	.	4a/	.	4cc\	.
.	.	.	.	8A/J	.	8e/	.	8a\J	.	.	.	.	.	.	.	.	.	.	.	.	.	.	.	.	.	.	.	.	.	.	.	.	.
4EE/	.	.	.	8E/L	.	8c/	.	16r	.	.	.	.	.	.	.	.	.	.	.	.	.	.	.	.	.	4e/	.	4ee\	.	4a/	.	4cc\	.
.	.	.	.	.	.	.	.	16ee\LL	.	.	.	.	.	.	.	.	.	.	.	.	.	.	.	.	.	.	.	.	.	.	.	.	.
.	.	.	.	8A/	.	8e/	.	16ff\	.	.	.	.	.	.	.	.	.	.	.	.	.	.	.	.	.	.	.	.	.	.	.	.	.
.	.	.	.	.	.	.	.	16ee\JJ	.	.	.	.	.	.	.	.	.	.	.	.	.	.	.	.	.	.	.	.	.	.	.	.	.
4r	.	.	.	8E/	.	8c/	.	16dd\LL	.	4E\	-re	.	4A/	-re	.	4e\	-re	.	4cc\	-re	.	.	.	.	.	4r	.	4r	.	4r	.	4r	.
.	.	.	.	.	.	.	.	16cc\	.	.	.	.	.	.	.	.	.	.	.	.	.	.	.	.	.	.	.	.	.	.	.	.	.
.	.	.	.	8A/J	.	8e/J	.	16b\	.	.	.	.	.	.	.	.	.	.	.	.	.	.	.	.	.	.	.	.	.	.	.	.	.
.	.	.	.	.	.	.	.	16a\JJ	.	.	.	.	.	.	.	.	.	.	.	.	.	.	.	.	.	.	.	.	.	.	.	.	.
!LO:LB:g=original	!	!	!	!	!	!	!	!	!	!	!	!	!LO:LB:g=original	!	!	!LO:LB:g=original	!	!	!	!	!	!	!	!	!	!	!	!	!	!LO:LB:g=original	!	!	!
=46	=46	=46	=46	=46	=46	=46	=46	=46	=46	=46	=46	=46	=46	=46	=46	=46	=46	=46	=46	=46	=46	=46	=46	=46	=46	=46	=46	=46	=46	=46	=46	=46	=46
4E\	7 5 #	.	.	2.B/	.	(16B/LL	.	8g#X/L	.	2E\	mi-	.	2.G#X/	no-	.	2.d\	no-	.	2.g#X\	no-	.	1.r	.	1.r	.	2.e/	.	2.ee\	.	2.a/	.	2.dd\	.
.	.	.	.	.	.	16d/)	.	.	.	.	.	.	.	.	.	.	.	.	.	.	.	.	.	.	.	.	.	.	.	.	.	.	.
.	.	.	.	.	.	(16e/	.	8e/J	.	.	.	.	.	.	.	.	.	.	.	.	.	.	.	.	.	.	.	.	.	.	.	.	.
.	.	.	.	.	.	16d/JJ)	.	.	.	.	.	.	.	.	.	.	.	.	.	.	.	.	.	.	.	.	.	.	.	.	.	.	.
*	*	*	*	*	*	*rep	*	*	*	*	*	*	*	*	*	*	*	*	*	*	*	*	*	*	*	*	*	*	*	*	*	*	*
4EE/	.	.	.	.	.	(16B/LL	.	8r	.	.	.	.	.	.	.	.	.	.	.	.	.	.	.	.	.	.	.	.	.	.	.	.	.
.	.	.	.	.	.	16d/)	.	.	.	.	.	.	.	.	.	.	.	.	.	.	.	.	.	.	.	.	.	.	.	.	.	.	.
.	.	.	.	.	.	(16e/	.	8g#/	.	.	.	.	.	.	.	.	.	.	.	.	.	.	.	.	.	.	.	.	.	.	.	.	.
.	.	.	.	.	.	16d/JJ)	.	.	.	.	.	.	.	.	.	.	.	.	.	.	.	.	.	.	.	.	.	.	.	.	.	.	.
*	*	*	*	*	*	*Xrep	*	*	*	*	*	*	*	*	*	*	*	*	*	*	*	*	*	*	*	*	*	*	*	*	*	*	*
*	*	*	*	*	*	*rep	*	*	*	*	*	*	*	*	*	*	*	*	*	*	*	*	*	*	*	*	*	*	*	*	*	*	*
4r	.	.	.	.	.	(16B/LL	.	8r	.	4E\	-ſe-	.	.	.	.	.	.	.	.	.	.	.	.	.	.	.	.	.	.	.	.	.	.
.	.	.	.	.	.	16d/)	.	.	.	.	.	.	.	.	.	.	.	.	.	.	.	.	.	.	.	.	.	.	.	.	.	.	.
.	.	.	.	.	.	(16e/	.	8g#/	.	.	.	.	.	.	.	.	.	.	.	.	.	.	.	.	.	.	.	.	.	.	.	.	.
.	.	.	.	.	.	16d/JJ)	.	.	.	.	.	.	.	.	.	.	.	.	.	.	.	.	.	.	.	.	.	.	.	.	.	.	.
*	*	*	*	*	*	*Xrep	*	*	*	*	*	*	*	*	*	*	*	*	*	*	*	*	*	*	*	*	*	*	*	*	*	*	*
!	!	!	!	!	!	!LO:LB:g=original	!	!	!	!	!	!	!	!	!	!	!	!	!	!	!	!	!	!	!	!	!	!	!	!	!	!LO:LB:g=original	!
=47	=47	=47	=47	=47	=47	=47	=47	=47	=47	=47	=47	=47	=47	=47	=47	=47	=47	=47	=47	=47	=47	=47	=47	=47	=47	=47	=47	=47	=47	=47	=47	=47	=47
!	!	!	!	!	!	!	!	!	!	!	!	!	!	!	!	!	!	!	!	!	!	!	!	!	!	!	!	!LO:TX:t=P:problem=takt 47 zapisany repetycją:mod=	!	!	!	!	!
!	!	!	!	!	!	!	!	!	!	!	!	!	!	!	!	!	!	!	!	!	!	!	!	!	!	!	!	!LO:MO:mod=2.ee	!	!	!	!	!
4E\	6 4	.	.	2.A/	.	16c/LL	.	8a/L	.	2E\	-re-	.	2.A\	-bis	.	2.c/	-bis	.	2.a\	-bis	.	.	.	.	.	2.e/	.	2.ee\yy	.	2.a/	.	2.cc\	.
.	.	.	.	.	.	16e/	.	.	.	.	.	.	.	.	.	.	.	.	.	.	.	.	.	.	.	.	.	.	.	.	.	.	.
.	.	.	.	.	.	16c/	.	8e/J	.	.	.	.	.	.	.	.	.	.	.	.	.	.	.	.	.	.	.	.	.	.	.	.	.
.	.	.	.	.	.	16e/JJ	.	.	.	.	.	.	.	.	.	.	.	.	.	.	.	.	.	.	.	.	.	.	.	.	.	.	.
*	*	*	*	*	*	*rep	*	*	*	*	*	*	*	*	*	*	*	*	*	*	*	*	*	*	*	*	*	*	*	*	*	*	*
4EE/	.	.	.	.	.	16c/LL	.	8r	.	.	.	.	.	.	.	.	.	.	.	.	.	.	.	.	.	.	.	.	.	.	.	.	.
.	.	.	.	.	.	16e/	.	.	.	.	.	.	.	.	.	.	.	.	.	.	.	.	.	.	.	.	.	.	.	.	.	.	.
.	.	.	.	.	.	16c/	.	8a/L	.	.	.	.	.	.	.	.	.	.	.	.	.	.	.	.	.	.	.	.	.	.	.	.	.
.	.	.	.	.	.	16e/JJ	.	.	.	.	.	.	.	.	.	.	.	.	.	.	.	.	.	.	.	.	.	.	.	.	.	.	.
*	*	*	*	*	*	*Xrep	*	*	*	*	*	*	*	*	*	*	*	*	*	*	*	*	*	*	*	*	*	*	*	*	*	*	*
*	*	*	*	*	*	*rep	*	*	*	*	*	*	*	*	*	*	*	*	*	*	*	*	*	*	*	*	*	*	*	*	*	*	*
4r	.	.	.	.	.	16c/LL	.	8a/	.	4E\	-re	.	.	.	.	.	.	.	.	.	.	.	.	.	.	.	.	.	.	.	.	.	.
.	.	.	.	.	.	16e/	.	.	.	.	.	.	.	.	.	.	.	.	.	.	.	.	.	.	.	.	.	.	.	.	.	.	.
.	.	.	.	.	.	16c/	.	8a/J	.	.	.	.	.	.	.	.	.	.	.	.	.	.	.	.	.	.	.	.	.	.	.	.	.
.	.	.	.	.	.	16e/JJ	.	.	.	.	.	.	.	.	.	.	.	.	.	.	.	.	.	.	.	.	.	.	.	.	.	.	.
*	*	*	*	*	*	*Xrep	*	*	*	*	*	*	*	*	*	*	*	*	*	*	*	*	*	*	*	*	*	*	*	*	*	*	*
!	!	!	!	!	!	!	!	!LO:LB:g=original	!	!LO:LB:g=original	!	!	!	!	!	!	!	!	!	!	!	!	!	!	!	!	!	!	!	!	!	!	!
=48	=48	=48	=48	=48	=48	=48	=48	=48	=48	=48	=48	=48	=48	=48	=48	=48	=48	=48	=48	=48	=48	=48	=48	=48	=48	=48	=48	=48	=48	=48	=48	=48	=48
*tremolo	*	*	*	*tremolo	*	*tremolo	*	*	*	*	*	*	*	*	*	*	*	*	*	*	*	*	*	*	*	*	*	*	*	*	*	*	*
!	!	!	!	!	!	!	!	!	!	!	!	!	!	!	!LO:DY:t= :mod=%s	!	!	!	!	!	!	!	!LO:DY:t= :mod=%s	!	!LO:DY:t= :mod=%s	!	!LO:DY:t= :mod=%s	!	!LO:DY:t= :mod=%s	!	!	!	!LO:DY:t= :mod=%s
!	!	!LO:MO:mod=!null:null	!	!	!	!	!	!	!	!	!	!	!	!	!LO:MO:mod=!LO&colon;DY&colon;ed=brack	!	!	!	!	!	!	!	!LO:MO:mod=!LO&colon;DY&colon;ed=brack	!	!LO:MO:mod=!LO&colon;DY&colon;ed=brack	!	!LO:MO:mod=!LO&colon;DY&colon;ed=brack	!	!LO:MO:mod=!LO&colon;DY&colon;ed=brack	!	!	!	!LO:MO:mod=!LO&colon;DY&colon;ed=brack
!	!	!LO:DY:rj:a:t=ffor	!	!	!LO:DY:rj:b:t=for&colon;:mod=	!	!LO:DY:rj:b:t=for:mod=	!	!LO:DY:b:t=for	!	!	!LO:DY:a:t=for	!	!	!null	!	!	!LO:DY:a:t=for	!	!	!LO:DY:a:t=for	!	!null	!	!null	!	!null	!	!null	!	!LO:DY:a	!	!null
8E\L	6 -5	ff	.	8g\L	f	8c/L	f	8cc\L	f	2E\	mi-	f	2c\	mi-	f	2g\	mi-	f	2b-X\	mi-	f	2.c/	f	2.cc\	f	2c/	f	2cc\	f	2.gg\	ff	2.bb-X\	ff
8E\	.	.	.	8g\	.	8c/	.	8b-X\J	.	.	.	.	.	.	.	.	.	.	.	.	.	.	.	.	.	.	.	.	.	.	.	.	.
8E\	.	.	.	8g\	.	8c/	.	16r	.	.	.	.	.	.	.	.	.	.	.	.	.	.	.	.	.	.	.	.	.	.	.	.	.
.	.	.	.	.	.	.	.	16b-\LL	.	.	.	.	.	.	.	.	.	.	.	.	.	.	.	.	.	.	.	.	.	.	.	.	.
8E\	.	.	.	8g\	.	8c/	.	16a\	.	.	.	.	.	.	.	.	.	.	.	.	.	.	.	.	.	.	.	.	.	.	.	.	.
.	.	.	.	.	.	.	.	16b-\JJ	.	.	.	.	.	.	.	.	.	.	.	.	.	.	.	.	.	.	.	.	.	.	.	.	.
8E\	.	.	.	8g\	.	8c/	.	16cc\LL	.	4E\	-ſe-	.	4c\	-ſe-	.	4g\	-ſe-	.	4b-\	-ſe-	.	.	.	.	.	4c/	.	4cc\	.	.	.	.	.
.	.	.	.	.	.	.	.	16b-\	.	.	.	.	.	.	.	.	.	.	.	.	.	.	.	.	.	.	.	.	.	.	.	.	.
8E\J	.	.	.	8g\J	.	8c/J	.	16a\	.	.	.	.	.	.	.	.	.	.	.	.	.	.	.	.	.	.	.	.	.	.	.	.	.
.	.	.	.	.	.	.	.	16b-\JJ	.	.	.	.	.	.	.	.	.	.	.	.	.	.	.	.	.	.	.	.	.	.	.	.	.
=49	=49	=49	=49	=49	=49	=49	=49	=49	=49	=49	=49	=49	=49	=49	=49	=49	=49	=49	=49	=49	=49	=49	=49	=49	=49	=49	=49	=49	=49	=49	=49	=49	=49
!	!	!	!	!	!	!	!	!	!	!	!	!	!	!	!	!	!	!	!	!	!	!	!	!	!	!	!	!LO:TX:t=P:problem=takt 49 zapisany repetycją:mod=	!	!	!	!	!
!	!	!	!	!	!	!	!	!	!	!	!	!	!	!	!	!	!	!	!	!	!	!	!	!	!	!	!	!LO:MO:mod=2cc	!	!	!	!	!
8F\L	.	.	.	8f\L	.	8c/L	.	8g#X/L	.	2F\	-re-	.	2c\	-re-	.	2f\	-re-	.	2a\	-re-	.	2c/	.	2.cc\	.	2c/	.	2cc\yy	.	2.ff\	.	2.aa\	.
8F\	.	.	.	8f\	.	8c/	.	8a/J	.	.	.	.	.	.	.	.	.	.	.	.	.	.	.	.	.	.	.	.	.	.	.	.	.
8F\	.	.	.	8f\	.	8c/	.	16r	.	.	.	.	.	.	.	.	.	.	.	.	.	.	.	.	.	.	.	.	.	.	.	.	.
.	.	.	.	.	.	.	.	16a/LL	.	.	.	.	.	.	.	.	.	.	.	.	.	.	.	.	.	.	.	.	.	.	.	.	.
8F\	.	.	.	8f\	.	8c/	.	16g#/	.	.	.	.	.	.	.	.	.	.	.	.	.	.	.	.	.	.	.	.	.	.	.	.	.
.	.	.	.	.	.	.	.	16a/JJ	.	.	.	.	.	.	.	.	.	.	.	.	.	.	.	.	.	.	.	.	.	.	.	.	.
!	!	!	!	!	!	!	!	!	!	!	!	!	!	!	!	!	!	!	!	!	!	!	!	!	!	!	!	!LO:MO:mod=4cc	!	!	!	!	!
8F\	.	.	.	8f\	.	8c/	.	16bn/LL	.	4F\	-re	.	4c\	-re	.	4f\	-re	.	4a\	-re	.	4cc\	.	.	.	4c/	.	4cc\yy	.	.	.	.	.
*	*	*	*	*	*	*	*	*	*	*	*Xij	*	*	*	*	*	*	*	*	*	*	*	*	*	*	*	*	*	*	*	*	*	*
.	.	.	.	.	.	.	.	16a/	.	.	.	.	.	.	.	.	.	.	.	.	.	.	.	.	.	.	.	.	.	.	.	.	.
8F\J	.	.	.	8f\J	.	8c/J	.	16g#/	.	.	.	.	.	.	.	.	.	.	.	.	.	.	.	.	.	.	.	.	.	.	.	.	.
.	.	.	.	.	.	.	.	16a/JJ	.	.	.	.	.	.	.	.	.	.	.	.	.	.	.	.	.	.	.	.	.	.	.	.	.
=50	=50	=50	=50	=50	=50	=50	=50	=50	=50	=50	=50	=50	=50	=50	=50	=50	=50	=50	=50	=50	=50	=50	=50	=50	=50	=50	=50	=50	=50	=50	=50	=50	=50
8F#X\L	6 5	.	.	8a\L	.	8d/L	.	8dd\L	.	2.F#X\	no-	.	2.d\	no-	.	2.a\	no-	.	2.cc\	no-	.	2.dd\	.	2.dd\	.	2dd\	.	2dd\	.	2.aa\	.	2.ccc\	.
8F#X\	.	.	.	8a\	.	8d/	.	8cc\J	.	.	.	.	.	.	.	.	.	.	.	.	.	.	.	.	.	.	.	.	.	.	.	.	.
8F#X\	.	.	.	8a\	.	8d/	.	16r	.	.	.	.	.	.	.	.	.	.	.	.	.	.	.	.	.	.	.	.	.	.	.	.	.
.	.	.	.	.	.	.	.	16cc\LL	.	.	.	.	.	.	.	.	.	.	.	.	.	.	.	.	.	.	.	.	.	.	.	.	.
8F#X\	.	.	.	8a\	.	8d/	.	16b\	.	.	.	.	.	.	.	.	.	.	.	.	.	.	.	.	.	.	.	.	.	.	.	.	.
.	.	.	.	.	.	.	.	16cc\JJ	.	.	.	.	.	.	.	.	.	.	.	.	.	.	.	.	.	.	.	.	.	.	.	.	.
8F#X\	.	.	.	8a\	.	8d/	.	16dd\LL	.	.	.	.	.	.	.	.	.	.	.	.	.	.	.	.	.	4dd\	.	4dd\	.	.	.	.	.
.	.	.	.	.	.	.	.	16cc\	.	.	.	.	.	.	.	.	.	.	.	.	.	.	.	.	.	.	.	.	.	.	.	.	.
8F#X\J	.	.	.	8a\J	.	8d/J	.	16b\	.	.	.	.	.	.	.	.	.	.	.	.	.	.	.	.	.	.	.	.	.	.	.	.	.
.	.	.	.	.	.	.	.	16cc\JJ	.	.	.	.	.	.	.	.	.	.	.	.	.	.	.	.	.	.	.	.	.	.	.	.	.
=51	=51	=51	=51	=51	=51	=51	=51	=51	=51	=51	=51	=51	=51	=51	=51	=51	=51	=51	=51	=51	=51	=51	=51	=51	=51	=51	=51	=51	=51	=51	=51	=51	=51
!	!	!	!	!	!	!	!	!	!	!	!	!	!	!	!	!	!	!	!	!	!	!	!	!	!	!	!	!LO:TX:t=P:problem=brak taktu:mod=	!	!	!	!	!
!	!	!	!	!	!	!	!	!	!	!	!	!	!	!	!	!	!	!	!	!	!	!	!	!	!	!	!	!LO:MO:mod=2dd	!	!	!	!	!
8G\L	.	.	.	8g\L	.	8d/L	.	8a#X/L	.	4G\	-bis	.	4d\	-bis	.	4g\	-bis	.	4bn\	-bis	.	2.g/	.	2.dd\	.	2g/	.	2ryy	.	2.gg\	.	2.bb\	.
8G\	.	.	.	8g\	.	8d/	.	8b/J	.	.	.	.	.	.	.	.	.	.	.	.	.	.	.	.	.	.	.	.	.	.	.	.	.
8G\	.	.	.	8g\	.	8d/	.	16r	.	4r	.	.	4r	.	.	4r	.	.	4r	.	.	.	.	.	.	.	.	.	.	.	.	.	.
.	.	.	.	.	.	.	.	16b\LL	.	.	.	.	.	.	.	.	.	.	.	.	.	.	.	.	.	.	.	.	.	.	.	.	.
8G\	.	.	.	8g\	.	8d/	.	16a#\	.	.	.	.	.	.	.	.	.	.	.	.	.	.	.	.	.	.	.	.	.	.	.	.	.
.	.	.	.	.	.	.	.	16b\JJ	.	.	.	.	.	.	.	.	.	.	.	.	.	.	.	.	.	.	.	.	.	.	.	.	.
!	!	!	!	!	!	!	!	!	!	!	!	!	!	!	!	!	!	!	!	!	!	!	!	!	!	!	!	!LO:MO:mod=4dd	!	!	!	!	!
8G\	.	.	.	8g\	.	8d/	.	16cc\LL	.	4r	.	.	4r	.	.	4r	.	.	4r	.	.	.	.	.	.	4g/	.	4ryy	.	.	.	.	.
.	.	.	.	.	.	.	.	16b\	.	.	.	.	.	.	.	.	.	.	.	.	.	.	.	.	.	.	.	.	.	.	.	.	.
8G\J	.	.	.	8g\J	.	8d/J	.	16a#\	.	.	.	.	.	.	.	.	.	.	.	.	.	.	.	.	.	.	.	.	.	.	.	.	.
.	.	.	.	.	.	.	.	16b\JJ	.	.	.	.	.	.	.	.	.	.	.	.	.	.	.	.	.	.	.	.	.	.	.	.	.
*Xtremolo	*	*	*	*Xtremolo	*	*Xtremolo	*	*	*	*	*	*	*	*	*	*	*	*	*	*	*	*	*	*	*	*	*	*	*	*	*	*	*
!	!	!	!	!	!	!	!	!LO:LB:g=original	!	!	!	!	!LO:LB:g=original	!	!	!	!	!	!LO:LB:g=original	!	!	!	!	!	!	!	!	!	!	!	!	!	!
=52	=52	=52	=52	=52	=52	=52	=52	=52	=52	=52	=52	=52	=52	=52	=52	=52	=52	=52	=52	=52	=52	=52	=52	=52	=52	=52	=52	=52	=52	=52	=52	=52	=52
!	!	!	!	!	!	!	!	!	!	!	!	!	!	!	!LO:DY:t= :mod=%s	!	!	!	!	!	!LO:DY:t= :mod=%s	!	!	!	!	!	!LO:DY:t= :mod=%s	!	!LO:DY:t= :mod=%s	!	!	!	!LO:DY:t= :mod=%s
!	!	!	!	!	!LO:MO:mod=!null:null	!	!LO:MO:mod=!null:null	!	!	!	!	!LO:DY:a:t=ff&colon;	!	!	!LO:MO:mod=!LO&colon;DY&colon;ed=brack	!	!	!	!	!	!LO:MO:mod=!LO&colon;DY&colon;ed=brack	!	!	!	!	!	!LO:MO:mod=!LO&colon;DY&colon;ed=brack	!	!LO:MO:mod=!LO&colon;DY&colon;ed=brack	!	!	!	!LO:MO:mod=!LO&colon;DY&colon;ed=brack
!	!	!LO:DY:a:t=pp&colon;	!	!	!LO:DY:rj:b:t=p&colon;	!	!LO:DY:rj:b:t=p&colon;	!	!LO:DY:b:t=pia	!	!	!LO:MO:mod=p	!	!	!null	!	!	!LO:DY:a:t=p&colon;	!	!	!null	!	!LO:DY:a	!	!LO:DY:a	!	!null	!	!null	!	!LO:DY:a:t=p.	!	!null
4G\	.	pp	.	8B/L	p	8d/L	p	4.ff\	p	2G\	A-	ff	2B\	A-	p	2g\	A-	p	2dd\	A-	p	4G/	p	4g/	p	2g/	p	2dd\	p	2dd\	p	2ff\	p
.	.	.	.	8G/	.	8B/	.	.	.	.	.	.	.	.	.	.	.	.	.	.	.	.	.	.	.	.	.	.	.	.	.	.	.
4GG/	.	.	.	8B/	.	8d/	.	.	.	.	.	.	.	.	.	.	.	.	.	.	.	4r	.	4r	.	.	.	.	.	.	.	.	.
!	!	!	!	!	!	!LO:SIC:s=8BJ	!	!	!	!	!	!	!	!	!	!	!	!	!	!	!	!	!	!	!	!	!	!	!	!	!	!	!
.	.	.	.	8G/J	.	8B/	.	8dd\L	.	.	.	.	.	.	.	.	.	.	.	.	.	.	.	.	.	.	.	.	.	.	.	.	.
!	!	!	!	!LO:SIC:s=(8cL	!	!LO:SIC:s=(8cL	!	!	!	!	!	!	!	!	!	!	!	!	!	!	!	!	!	!	!	!	!	!	!	!	!	!	!
4r	.	.	.	8c/L	.	(8c/	.	8ee\	.	4G\	-gnus	.	4c\	-gnus	.	4g\	-gnus	.	4ee\	-gnus	.	4r	.	4r	.	4cc\	.	4ee\	.	4cc\	.	4ee\	.
!	!	!	!	!LO:SIC:s=8G)J	!	!	!	!	!	!	!	!	!	!	!	!	!	!	!	!	!	!	!	!	!	!	!	!	!	!	!	!	!
.	.	.	.	8G/J	.	8e/J)	.	8gg\J	.	.	.	.	.	.	.	.	.	.	.	.	.	.	.	.	.	.	.	.	.	.	.	.	.
=53	=53	=53	=53	=53	=53	=53	=53	=53	=53	=53	=53	=53	=53	=53	=53	=53	=53	=53	=53	=53	=53	=53	=53	=53	=53	=53	=53	=53	=53	=53	=53	=53	=53
4G|\	.	.	.	8d\L	.	8f/L	.	4.g/	.	4G\	De-	.	4G/	De-	.	4f\	De-	.	4b\	De-	.	4G/	.	4g/	.	2dd\	.	2ff\	.	2b\	.	2dd\	.
.	.	.	.	8G\	.	8d/	.	.	.	.	.	.	.	.	.	.	.	.	.	.	.	.	.	.	.	.	.	.	.	.	.	.	.
4GG|/	.	.	.	8d\	.	8f/	.	.	.	4G\	-i	.	4G/	-i	.	4f\	-i	.	4b\	-i	.	4r	.	4r	.	.	.	.	.	.	.	.	.
!	!	!	!	!	!	!	!	!LO:TX:mod=:t=P:problem=mixed beam	!	!	!	!	!	!	!	!	!	!	!	!	!	!	!	!	!	!	!	!	!	!	!	!	!
.	.	.	.	8G\J	.	8d/	.	8g/L	.	.	.	.	.	.	.	.	.	.	.	.	.	.	.	.	.	.	.	.	.	.	.	.	.
4r	.	.	.	8c\L	.	8e/	.	8cc\	.	4G\	qui	.	4G/	qui	.	4e\	qui	.	8b\L	qui	.	4r	.	4r	.	4cc\	.	4dd\	.	4cc\	.	4ee\	.
.	.	.	.	8G\J	.	8g/J	.	8ee\J	.	.	.	.	.	.	.	.	.	.	8cc\J	.	.	.	.	.	.	.	.	.	.	.	.	.	.
=54	=54	=54	=54	=54	=54	=54	=54	=54	=54	=54	=54	=54	=54	=54	=54	=54	=54	=54	=54	=54	=54	=54	=54	=54	=54	=54	=54	=54	=54	=54	=54	=54	=54
!	!	!	!	!	!	!	!	!	!	!	!	!	!	!	!	!	!	!	!	!	!	!	!	!	!	!	!	!LO:TX:t=P:problem=takty 54-55 zapisane repetycją:mod=	!	!	!	!	!
!	!	!	!	!	!	!	!	!	!	!	!	!	!	!	!	!	!	!	!	!	!	!	!	!	!	!	!	!LO:MO:mod=2dd	!	!	!	!	!
4G|\	.	.	.	8B/L	.	8d/L	.	4.ff\	.	4G\	tol-	.	4B\	tol-	.	4g\	tol-	.	4dd\	tol-	.	4G/	.	4g/	.	2g/	.	2dd\yy	.	2dd\	.	2ff\	.
.	.	.	.	8G/	.	8B/	.	.	.	.	.	.	.	.	.	.	.	.	.	.	.	.	.	.	.	.	.	.	.	.	.	.	.
4GG|/	.	.	.	8B/	.	8d/	.	.	.	4G\	-lis	.	4B\	-lis	.	4g\	-lis	.	4dd\	-lis	.	4r	.	4r	.	.	.	.	.	.	.	.	.
.	.	.	.	8G/J	.	8B/	.	8dd\L	.	.	.	.	.	.	.	.	.	.	.	.	.	.	.	.	.	.	.	.	.	.	.	.	.
!	!	!	!	!	!	!	!	!	!	!	!	!	!	!	!	!	!	!	!	!	!	!	!	!	!	!	!	!LO:MO:mod=4ee	!	!	!	!	!
4r	.	.	.	8c/L	.	8c/	.	8ee\	.	4G\	pec-	.	4c\	pec-	.	4g\	pec-	.	4ee\	pec-	.	4r	.	4r	.	4cc\	.	4ee\yy	.	4cc\	.	4ee\	.
.	.	.	.	8G/J	.	8e/J	.	8gg\J	.	.	.	.	.	.	.	.	.	.	.	.	.	.	.	.	.	.	.	.	.	.	.	.	.
!	!	!	!	!LO:LB:g=original	!	!	!	!	!	!	!	!	!	!	!	!	!	!	!	!	!	!LO:LB:g=original	!	!	!	!	!	!	!	!	!	!	!
=55	=55	=55	=55	=55	=55	=55	=55	=55	=55	=55	=55	=55	=55	=55	=55	=55	=55	=55	=55	=55	=55	=55	=55	=55	=55	=55	=55	=55	=55	=55	=55	=55	=55
!	!	!	!	!	!	!	!	!	!	!	!	!	!	!	!	!	!	!	!	!	!	!	!	!	!	!	!	!LO:MO:mod=2ff	!	!	!	!	!
4G\	.	.	.	8d\L	.	8f/L	.	4.b\	.	2G\	-ca-	.	2G/	-ca-	.	2f\	-ca-	.	2b\	-ca-	.	4G/	.	4g/	.	2dd\	.	2ff\yy	.	2b\	.	2dd\	.
.	.	.	.	8G\	.	8d/	.	.	.	.	.	.	.	.	.	.	.	.	.	.	.	.	.	.	.	.	.	.	.	.	.	.	.
4GG/	.	.	.	8d\	.	8f/	.	.	.	.	.	.	.	.	.	.	.	.	.	.	.	4r	.	4r	.	.	.	.	.	.	.	.	.
.	.	.	.	8G\J	.	8d/	.	8g\L	.	.	.	.	.	.	.	.	.	.	.	.	.	.	.	.	.	.	.	.	.	.	.	.	.
!	!	!	!	!	!	!	!	!	!	!	!	!	!	!	!	!	!	!	!	!	!	!	!	!	!	!	!	!LO:MO:mod=4dd	!	!	!	!	!
4r	.	.	.	8c\L	.	8e/	.	8cc\	.	4G\	-ta	.	4G/	-ta	.	4e\	-ta	.	4cc\	-ta	.	4r	.	4r	.	4cc\	.	4dd\yy	.	4cc\	.	4ee\	.
.	.	.	.	8G\J	.	8c/J	.	8ee\J	.	.	.	.	.	.	.	.	.	.	.	.	.	.	.	.	.	.	.	.	.	.	.	.	.
!	!	!	!	!	!	!LO:LB:g=original	!	!	!	!	!	!	!	!	!	!	!	!	!	!	!	!	!	!	!	!LO:LB:g=original	!	!	!	!	!	!	!
=56	=56	=56	=56	=56	=56	=56	=56	=56	=56	=56	=56	=56	=56	=56	=56	=56	=56	=56	=56	=56	=56	=56	=56	=56	=56	=56	=56	=56	=56	=56	=56	=56	=56
!	!	!	!	!	!	!	!	!	!	!	!	!	!	!	!	!	!	!	!	!	!	!LO:TX:a:mod=:t=1.	!	!LO:TX:a:mod=:t=1	!	!	!	!	!	!	!	!	!
4A\	6\	.	.	4A/	.	8d/L	.	4ff#X\	.	2.A\	mun-	.	2.d\	mun-	.	2.f#X\	mun-	.	2.cc\	mun-	.	2.r	.	2.r	.	4dd\	.	4dd\	.	4cc\	.	4ff#X\	.
.	.	.	.	.	.	8c/	.	.	.	.	.	.	.	.	.	.	.	.	.	.	.	.	.	.	.	.	.	.	.	.	.	.	.
4A\	.	.	.	4A/	.	8d/	.	4ff#\	.	.	.	.	.	.	.	.	.	.	.	.	.	.	.	.	.	4dd\	.	4dd\	.	4cc\	.	4ff#\	.
.	.	.	.	.	.	8c/	.	.	.	.	.	.	.	.	.	.	.	.	.	.	.	.	.	.	.	.	.	.	.	.	.	.	.
4A\	.	.	.	4A/	.	8d/	.	4ff#\	.	.	.	.	.	.	.	.	.	.	.	.	.	.	.	.	.	4dd\	.	4dd\	.	4cc\	.	4ff#\	.
.	.	.	.	.	.	8c/J	.	.	.	.	.	.	.	.	.	.	.	.	.	.	.	.	.	.	.	.	.	.	.	.	.	.	.
=57	=57	=57	=57	=57	=57	=57	=57	=57	=57	=57	=57	=57	=57	=57	=57	=57	=57	=57	=57	=57	=57	=57	=57	=57	=57	=57	=57	=57	=57	=57	=57	=57	=57
4G\	.	.	.	4G/	.	4B/	.	8gg\L	.	4G\	-di.	.	4d\	-di	.	4g\	-di	.	4b\	-di	.	4G/	.	4g/	.	4g/	.	4dd\	.	2b\	.	4gg\	.
.	.	.	.	.	.	.	.	8bb\	.	.	.	.	.	.	.	.	.	.	.	.	.	.	.	.	.	.	.	.	.	.	.	.	.
4r	.	.	.	4r	.	4r	.	8dd\	.	4r	.	.	4r	.	.	4r	.	.	4r	.	.	4r	.	4r	.	4r	.	4r	.	.	.	4r	.
.	.	.	.	.	.	.	.	8gg\	.	.	.	.	.	.	.	.	.	.	.	.	.	.	.	.	.	.	.	.	.	.	.	.	.
4r	.	.	.	4r	.	4r	.	8b\	.	4r	.	.	4r	.	.	4r	.	.	4r	.	.	4r	.	4r	.	4r	.	4r	.	4cc\	.	4r	.
.	.	.	.	.	.	.	.	8dd\J	.	.	.	.	.	.	.	.	.	.	.	.	.	.	.	.	.	.	.	.	.	.	.	.	.
!	!	!	!	!	!	!	!	!	!	!	!	!	!	!	!	!	!	!	!	!	!	!	!	!	!	!	!	!LO:LB:g=original	!	!LO:LB:g=original	!	!	!
=58	=58	=58	=58	=58	=58	=58	=58	=58	=58	=58	=58	=58	=58	=58	=58	=58	=58	=58	=58	=58	=58	=58	=58	=58	=58	=58	=58	=58	=58	=58	=58	=58	=58
!	!	!	!	!	!	!	!	!	!	!LO:TX:a:mod=:t=2	!	!	!LO:TX:a:mod=:t=2	!	!	!LO:TX:a:mod=:t=2	!	!	!LO:TX:a:mod=:t=2	!	!	!LO:TX:a:mod=:t=2.	!	!LO:TX:a:mod=:t=2.	!	!LO:TX:a:mod=:t=2	!	!LO:TX:a:mod=:t=2	!	!	!	!LO:TX:a:mod=:t=2	!
!	!	!	!	!	!	!	!	!	!	!	!	!	!	!	!	!	!	!	!	!	!	!	!	!	!	!	!	!	!	!LO:MO:mod=1.r	!	!LO:MO:mod=1.r	!
8r	.	.	.	8r	.	8r	.	8g/L	.	1.r	.	.	1.r	.	.	1.r	.	.	1.r	.	.	1.r	.	1.r	.	1.r	.	1.r	.	1.r;	.	1.r;	.
!LO:SIC:s=8GL	!	!	!	!	!	!	!	!	!	!	!	!	!	!	!	!	!	!	!	!	!	!	!	!	!	!	!	!	!	!	!	!	!
8G\	.	.	.	8g\L	.	8g/L	.	8g/	.	.	.	.	.	.	.	.	.	.	.	.	.	.	.	.	.	.	.	.	.	.	.	.	.
!LO:LB:g=original	!	!	!	!LO:SIC:s=(8d	!	!	!	!LO:SIC:s=(8d	!	!	!	!	!	!	!	!	!	!	!	!	!	!	!	!	!	!	!	!	!	!	!	!	!
!LO:SIC:s=(8D	!	!	!	!	!	!	!	!	!	!	!	!	!	!	!	!	!	!	!	!	!	!	!	!	!	!	!	!	!	!	!	!	!
8D\L	.	.	.	8d\	.	(8d/	.	8d/	.	.	.	.	.	.	.	.	.	.	.	.	.	.	.	.	.	.	.	.	.	.	.	.	.
!LO:SIC:s=8G)J	!	!	!	!LO:SIC:s=8g)J	!	!	!	!LO:SIC:s=8g)	!	!	!	!	!	!	!	!	!	!	!	!	!	!	!	!	!	!	!	!	!	!	!	!	!
8G\	.	.	.	8g\J	.	8g/J)	.	8g/	.	.	.	.	.	.	.	.	.	.	.	.	.	.	.	.	.	.	.	.	.	.	.	.	.
!LO:SIC:s=8BBL	!	!	!	!	!	!	!	!	!	!	!	!	!	!	!	!	!	!	!	!	!	!	!	!	!	!	!	!	!	!	!	!	!
8BBn\	.	.	.	8B/L	.	8B/L	.	8B/	.	.	.	.	.	.	.	.	.	.	.	.	.	.	.	.	.	.	.	.	.	.	.	.	.
8D\J	.	.	.	8d/J	.	8d/J	.	8d/J	.	.	.	.	.	.	.	.	.	.	.	.	.	.	.	.	.	.	.	.	.	.	.	.	.
=59	=59	=59	=59	=59	=59	=59	=59	=59	=59	=59	=59	=59	=59	=59	=59	=59	=59	=59	=59	=59	=59	=59	=59	=59	=59	=59	=59	=59	=59	=59	=59	=59	=59
2GG;/	.	.	.	2G;/	.	2G;/	.	2.G/	.	.	.	.	.	.	.	.	.	.	.	.	.	.	.	.	.	.	.	.	.	.	.	.	.
4r	.	.	.	4r	.	4r	.	.	.	.	.	.	.	.	.	.	.	.	.	.	.	.	.	.	.	.	.	.	.	.	.	.	.
==	==	==	==	==	==	==	==	==	==	==	==	==	==	==	==	==	==	==	==	==	==	==	==	==	==	==	==	==	==	==	==	==	==
*-	*-	*-	*-	*-	*-	*-	*-	*-	*-	*-	*-	*-	*-	*-	*-	*-	*-	*-	*-	*-	*-	*-	*-	*-	*-	*-	*-	*-	*-	*-	*-	*-	*-
!!!system-decoration: [(s1,s2)][(s3,s4,s5,s6)][(s7,s8,s9,s10)][(s11,s12,s13)]s14,s15
!!!RDF**kern: | = vertical stroke
!!!RDF**kern: < = below
!!!filter-modern: sic -sq | shed -e "s/:rj/:RJ/L" | modori -m | shed -e "s/LO:DY:(a|b|rj)/LO:dy:$1/L" | autostem -r | tie -s | shed -k -e "s/[<>]//g" | humtr -p
!!!ENC: Andrzej Gręziak
!!!END: 2020-09-23
!!!ENC: Leszek Kubiak
!!!END: 2022-02-02
!!!ENC-modern: Andrzej Borzym
!!!END-modern: 2022-06-13
!!!YEC: Copyright 2022 Narodowy Instytut Fryderyka Chopina (https://polishscores.org)
!!!YEM: License CC-BY-4.0 (https://creativecommons.org/licenses/by/4.0)
